;FLAVOR:Marlin
;TIME:1205
;Filament used: 1.24184m
;Layer height: 0.2
;Generated with Cura_SteamEngine 3.1.0
M190 S80
M104 S240
M109 S240
M82 ; absolute extrusion mode
G28 ;Home
G1 Z15.0 F6000 ;Move the platform down 15mm
;Prime the extruder
G92 E0
G1 F200 E3
G92 E0
;LAYER_COUNT:50
;LAYER:0
M107
G0 F3600 X68.416 Y87.201 Z0.3
;TYPE:SKIRT
G1 F1500 X68.858 Y86.898 E0.02674
G1 X69.341 Y86.663 E0.05353
G1 X69.852 Y86.503 E0.08025
G1 X70.382 Y86.42 E0.10701
G1 X70.67 Y86.409 E0.12139
G1 X74.656 Y86.41 E0.32025
G1 X75.191 Y86.45 E0.34702
G1 X75.482 Y86.506 E0.3618
G1 X79.874 Y87.542 E0.58693
G1 X82.537 Y88.075 E0.72243
G1 X85.178 Y88.52 E0.85604
G1 X90.636 Y89.211 E1.13052
G1 X96.049 Y89.586 E1.40122
G1 X101.51 Y89.656 E1.67369
G1 X106.965 Y89.416 E1.94611
G1 X112.382 Y88.87 E2.21773
G1 X117.805 Y88.011 E2.49166
G1 X120.402 Y87.488 E2.62383
G1 X124.507 Y86.509 E2.83437
G1 X125.036 Y86.424 E2.8611
G1 X125.341 Y86.411 E2.87633
G1 X129.33 Y86.41 E3.07534
G1 X129.865 Y86.45 E3.10211
G1 X130.388 Y86.569 E3.12887
G1 X130.887 Y86.764 E3.1556
G1 X131.352 Y87.031 E3.18235
G1 X131.772 Y87.364 E3.20909
G1 X132.138 Y87.756 E3.23584
G1 X132.442 Y88.198 E3.26261
G1 X132.677 Y88.681 E3.28941
G1 X132.837 Y89.192 E3.31612
G1 X132.919 Y89.722 E3.34288
G1 X132.931 Y90.01 E3.35726
G1 X132.931 Y109.991 E4.35411
G1 X132.891 Y110.526 E4.38088
G1 X132.772 Y111.049 E4.40764
G1 X132.577 Y111.548 E4.43437
G1 X132.309 Y112.013 E4.46114
G1 X131.976 Y112.433 E4.48788
G1 X131.584 Y112.799 E4.51464
G1 X131.142 Y113.102 E4.54138
G1 X130.659 Y113.337 E4.56817
G1 X130.148 Y113.497 E4.59489
G1 X129.618 Y113.58 E4.62165
G1 X129.331 Y113.591 E4.63598
G1 X70.669 Y113.591 E7.56264
G1 X70.134 Y113.551 E7.58941
G1 X69.611 Y113.432 E7.61617
G1 X69.112 Y113.237 E7.64289
G1 X68.647 Y112.969 E7.66967
G1 X68.227 Y112.636 E7.69641
G1 X67.861 Y112.244 E7.72317
G1 X67.558 Y111.802 E7.7499
G1 X67.323 Y111.319 E7.7767
G1 X67.163 Y110.808 E7.80342
G1 X67.08 Y110.278 E7.83018
G1 X67.069 Y109.991 E7.84451
G1 X67.069 Y90.009 E8.84141
G1 X67.109 Y89.474 E8.86818
G1 X67.228 Y88.951 E8.89494
G1 X67.423 Y88.452 E8.92167
G1 X67.691 Y87.987 E8.94844
G1 X68.024 Y87.567 E8.97519
G1 X68.416 Y87.201 E9.00194
G0 F3600 X68.805 Y87.408
G1 F1500 X69.238 Y87.147 E9.02716
G1 X69.706 Y86.957 E9.05236
G1 X70.199 Y86.844 E9.0776
G1 X70.67 Y86.809 E9.10116
G1 X74.656 Y86.81 E9.30002
G1 X75.39 Y86.896 E9.33689
G1 X79.765 Y87.928 E9.56115
G1 X82.484 Y88.472 E9.69949
G1 X85.111 Y88.915 E9.83241
G1 X90.594 Y89.609 E10.10814
G1 X96.033 Y89.986 E10.38014
G1 X101.523 Y90.056 E10.65406
G1 X106.987 Y89.816 E10.92692
G1 X112.43 Y89.268 E11.19985
G1 X117.876 Y88.405 E11.47494
G1 X120.491 Y87.878 E11.60803
G1 X124.6 Y86.898 E11.81877
G1 X125.341 Y86.811 E11.856
G1 X129.33 Y86.81 E12.05501
G1 X129.834 Y86.85 E12.08023
G1 X130.326 Y86.969 E12.10549
G1 X130.792 Y87.163 E12.13067
G1 X131.222 Y87.429 E12.15589
G1 X131.605 Y87.759 E12.18112
G1 X131.931 Y88.145 E12.20632
G1 X132.193 Y88.578 E12.23157
G1 X132.383 Y89.047 E12.25682
G1 X132.496 Y89.539 E12.282
G1 X132.531 Y90.01 E12.30557
G1 X132.531 Y109.991 E13.30242
G1 X132.491 Y110.495 E13.32765
G1 X132.372 Y110.986 E13.35285
G1 X132.178 Y111.453 E13.37808
G1 X131.912 Y111.883 E13.40331
G1 X131.582 Y112.266 E13.42853
G1 X131.195 Y112.592 E13.45377
G1 X130.762 Y112.853 E13.479
G1 X130.294 Y113.043 E13.5042
G1 X129.801 Y113.156 E13.52943
G1 X129.331 Y113.191 E13.55294
G1 X70.669 Y113.191 E16.4796
G1 X70.165 Y113.151 E16.50483
G1 X69.674 Y113.032 E16.53003
G1 X69.207 Y112.838 E16.55526
G1 X68.777 Y112.572 E16.58049
G1 X68.394 Y112.242 E16.60571
G1 X68.068 Y111.855 E16.63095
G1 X67.807 Y111.422 E16.65618
G1 X67.617 Y110.954 E16.68138
G1 X67.504 Y110.461 E16.70661
G1 X67.469 Y109.991 E16.73012
G1 X67.469 Y90.009 E17.72703
G1 X67.509 Y89.505 E17.75225
G1 X67.628 Y89.014 E17.77746
G1 X67.822 Y88.547 E17.80269
G1 X68.088 Y88.117 E17.82791
G1 X68.418 Y87.734 E17.85314
G1 X68.805 Y87.408 E17.87838
G1 F2400 E14.87838
G0 F3600 X71.274 Y89.335
G0 X71.274 Y90.614
G0 X73.66 Y93
;TYPE:WALL-INNER
G1 F2400 E17.87838
G1 F1500 X73.66 Y107 E18.57684
G1 X126.34 Y107 E21.20506
G1 X126.34 Y93 E21.90352
G1 X125.005 Y93 E21.97013
G1 X125.004 Y93 E21.97018
G1 X124.645 Y93 E21.98809
G1 X124.835 Y92.695 E21.99817
G1 X125.895 Y91 E22.09791
G1 X128.34 Y91 E22.21989
G1 X128.34 Y109 E23.11792
G1 X71.66 Y109 E25.94569
G1 X71.66 Y91 E26.84372
G1 X74.105 Y91 E26.9657
G1 X75.165 Y92.695 E27.06544
G1 X75.355 Y93 E27.08337
G1 X74.996 Y93 E27.09344
G1 X74.995 Y93 E27.09349
G1 X73.66 Y93 E27.1601
G0 F3600 X74.06 Y93.4
G1 F1500 X74.06 Y106.6 E27.81865
G1 X125.94 Y106.6 E30.40695
G1 X125.94 Y93.4 E31.0655
G1 X124.283 Y93.4 E31.14817
G1 X124.282 Y93.4 E31.14822
G1 X123.923 Y93.4 E31.16613
G1 X124.113 Y93.095 E31.17622
G1 X125.673 Y90.6 E31.32302
G1 X128.74 Y90.6 E31.47604
G1 X128.74 Y109.4 E32.41397
G1 X71.26 Y109.4 E35.28166
G1 X71.26 Y90.6 E36.2196
G1 X74.327 Y90.6 E36.37261
G1 X75.887 Y93.095 E36.51941
G1 X76.077 Y93.4 E36.53734
G1 X75.718 Y93.4 E36.54742
G1 X75.717 Y93.4 E36.54747
G1 X74.06 Y93.4 E36.63014
G0 F3600 X74.46 Y93.8
;TYPE:WALL-OUTER
G1 F1500 X74.46 Y106.2 E37.24878
G1 X125.54 Y106.2 E39.79717
G1 X125.54 Y93.8 E40.41581
G1 X123.561 Y93.8 E40.51454
G1 X123.56 Y93.8 E40.51459
G1 X123.201 Y93.8 E40.5325
G1 X123.391 Y93.495 E40.54259
G1 X125.451 Y90.2 E40.73646
G1 X129.14 Y90.2 E40.9205
G1 X129.14 Y109.8 E41.89835
G1 X70.86 Y109.8 E44.80595
G1 X70.86 Y90.2 E45.7838
G1 X74.549 Y90.2 E45.96784
G1 X76.609 Y93.495 E46.16171
G1 X76.799 Y93.8 E46.17964
G1 X76.44 Y93.8 E46.18972
G1 X76.439 Y93.8 E46.18977
G1 X74.46 Y93.8 E46.2885
G0 F3600 X74.46 Y94
G0 X73.96 Y94
G0 X74.024 Y93.435
G0 X74.651 Y92.61
;TYPE:SKIN
G1 F1500 X73.27 Y92.61 E46.3574
G1 X73.27 Y107.39 E47.09478
G1 X126.73 Y107.39 E49.76191
G1 X126.73 Y92.61 E50.49929
G1 X125.349 Y92.61 E50.56818
G1 X126.111 Y91.39 E50.63995
G1 X127.95 Y91.39 E50.73169
G1 X127.95 Y108.61 E51.5908
G1 X72.05 Y108.61 E54.37967
G1 X72.05 Y91.39 E55.23878
G1 X73.889 Y91.39 E55.33052
G1 X74.651 Y92.61 E55.40229
G0 F3600 X74.032 Y93.372
G0 X72.79 Y108.429
G1 F1500 X72.229 Y107.867 E55.4419
G0 F3600 X72.229 Y107.302
G1 F1500 X73.356 Y108.429 E55.52142
G1 X73.426 Y108.499
G0 F3600 X73.922 Y108.429
G1 F1500 X72.229 Y106.736 E55.64087
G1 X72.159 Y106.666
G0 F3600 X72.229 Y106.17
G1 F1500 X73.09 Y107.031 E55.70162
G1 X73.16 Y107.101
G0 F3600 X73.09 Y106.465
G1 F1500 X72.229 Y105.604 E55.76237
G1 X72.159 Y105.534
G0 F3600 X72.229 Y105.039
G1 F1500 X73.09 Y105.899 E55.82308
G1 X73.16 Y105.969
G0 F3600 X73.09 Y105.334
G1 F1500 X72.229 Y104.473 E55.88383
G1 X72.159 Y104.403
G0 F3600 X72.229 Y103.907
G1 F1500 X73.09 Y104.768 E55.94458
G1 X73.16 Y104.838
G0 F3600 X73.09 Y104.202
G1 F1500 X72.229 Y103.342 E56.00529
G1 X72.159 Y103.272
G0 F3600 X72.229 Y102.776
G1 F1500 X73.09 Y103.637 E56.06604
G1 X73.16 Y103.707
G0 F3600 X73.09 Y103.071
G1 F1500 X72.229 Y102.21 E56.12679
G1 X72.159 Y102.14
G0 F3600 X72.229 Y101.645
G1 F1500 X73.09 Y102.505 E56.1875
G1 X73.16 Y102.575
G0 F3600 X73.09 Y101.94
G1 F1500 X72.229 Y101.079 E56.24825
G1 X72.159 Y101.009
G0 F3600 X72.229 Y100.513
G1 F1500 X73.09 Y101.374 E56.30899
G1 X73.16 Y101.444
G0 F3600 X73.09 Y100.808
G1 F1500 X72.229 Y99.948 E56.36971
G1 X72.159 Y99.878
G0 F3600 X72.229 Y99.382
G1 F1500 X73.09 Y100.242 E56.43042
G1 X73.16 Y100.312
G0 F3600 X73.09 Y99.677
G1 F1500 X72.229 Y98.816 E56.49117
G1 X72.159 Y98.746
G0 F3600 X72.229 Y98.251
G1 F1500 X73.09 Y99.111 E56.55188
G1 X73.16 Y99.181
G0 F3600 X73.09 Y98.545
G1 F1500 X72.229 Y97.685 E56.61259
G1 X72.159 Y97.615
G0 F3600 X72.229 Y97.119
G1 F1500 X73.09 Y97.98 E56.67334
G1 X73.16 Y98.05
G0 F3600 X73.09 Y97.414
G1 F1500 X72.229 Y96.554 E56.73406
G1 X72.159 Y96.484
G0 F3600 X72.229 Y95.988
G1 F1500 X73.09 Y96.848 E56.79477
G1 X73.16 Y96.918
G0 F3600 X73.09 Y96.283
G1 F1500 X72.229 Y95.422 E56.85552
G1 X72.159 Y95.352
G0 F3600 X72.229 Y94.856
G1 F1500 X73.09 Y95.717 E56.91626
G1 X73.16 Y95.787
G0 F3600 X73.09 Y95.151
G1 F1500 X72.229 Y94.291 E56.97698
G1 X72.159 Y94.221
G0 F3600 X72.229 Y93.725
G1 F1500 X73.09 Y94.586 E57.03773
G1 X73.16 Y94.656
G0 F3600 X73.09 Y94.02
G1 F1500 X72.229 Y93.159 E57.09847
G1 X72.159 Y93.089
G0 F3600 X72.229 Y92.594
G1 F1500 X73.09 Y93.454 E57.15919
G1 X73.16 Y93.524
G0 F3600 X73.09 Y92.889
G1 F1500 X72.229 Y92.028 E57.21994
G1 X72.159 Y91.958
G0 F3600 X72.336 Y91.569
G1 F1500 X73.196 Y92.429 E57.28061
G1 X73.266 Y92.499
G0 F3600 X73.761 Y92.429
G1 F1500 X72.902 Y91.569 E57.34126
G1 X72.832 Y91.499
G0 F3600 X73.467 Y91.569
G1 F1500 X74.311 Y92.413 E57.4008
G1 X74.381 Y92.483
G0 F3600 X74.032 Y93.372
G0 X74.032 Y106.628
G0 X74.194 Y107.57
G1 F1500 X75.053 Y108.429 E57.46141
G1 X75.123 Y108.499
G0 F3600 X74.488 Y108.429
G1 F1500 X73.628 Y107.57 E57.52205
G1 X73.558 Y107.5
G0 F3600 X74.76 Y107.57
G1 F1500 X75.619 Y108.429 E57.58266
G1 X75.689 Y108.499
G0 F3600 X76.185 Y108.429
G1 F1500 X75.325 Y107.57 E57.6433
G1 X75.255 Y107.5
G0 F3600 X75.891 Y107.57
G1 F1500 X76.75 Y108.429 E57.70391
G1 X76.82 Y108.499
G0 F3600 X77.316 Y108.429
G1 F1500 X76.457 Y107.57 E57.76452
G1 X76.387 Y107.5
G0 F3600 X77.023 Y107.57
G1 F1500 X77.882 Y108.429 E57.82512
G1 X77.952 Y108.499
G0 F3600 X78.447 Y108.429
G1 F1500 X77.588 Y107.57 E57.88573
G1 X77.518 Y107.5
G0 F3600 X78.154 Y107.57
G1 F1500 X79.013 Y108.429 E57.94634
G1 X79.083 Y108.499
G0 F3600 X79.579 Y108.429
G1 F1500 X78.72 Y107.57 E58.00695
G1 X78.65 Y107.5
G0 F3600 X79.285 Y107.57
G1 F1500 X80.144 Y108.429 E58.06755
G1 X80.214 Y108.499
G0 F3600 X80.71 Y108.429
G1 F1500 X79.851 Y107.57 E58.12816
G1 X79.781 Y107.5
G0 F3600 X80.417 Y107.57
G1 F1500 X81.276 Y108.429 E58.18877
G1 X81.346 Y108.499
G0 F3600 X81.841 Y108.429
G1 F1500 X80.982 Y107.57 E58.24937
G1 X80.912 Y107.5
G0 F3600 X81.548 Y107.57
G1 F1500 X82.407 Y108.429 E58.30998
G1 X82.477 Y108.499
G0 F3600 X82.973 Y108.429
G1 F1500 X82.114 Y107.57 E58.37059
G1 X82.044 Y107.5
G0 F3600 X82.679 Y107.57
G1 F1500 X83.539 Y108.429 E58.43123
G1 X83.609 Y108.499
G0 F3600 X84.104 Y108.429
G1 F1500 X83.245 Y107.57 E58.49184
G1 X83.175 Y107.5
G0 F3600 X83.811 Y107.57
G1 F1500 X84.67 Y108.429 E58.55244
G1 X84.74 Y108.499
G0 F3600 X85.236 Y108.429
G1 F1500 X84.376 Y107.57 E58.61309
G1 X84.306 Y107.5
G0 F3600 X84.942 Y107.57
G1 F1500 X85.801 Y108.429 E58.67369
G1 X85.871 Y108.499
G0 F3600 X86.367 Y108.429
G1 F1500 X85.508 Y107.57 E58.7343
G1 X85.438 Y107.5
G0 F3600 X86.073 Y107.57
G1 F1500 X86.933 Y108.429 E58.79494
G1 X87.003 Y108.499
G0 F3600 X87.498 Y108.429
G1 F1500 X86.639 Y107.57 E58.85555
G1 X86.569 Y107.5
G0 F3600 X87.205 Y107.57
G1 F1500 X88.064 Y108.429 E58.91616
G1 X88.134 Y108.499
G0 F3600 X88.63 Y108.429
G1 F1500 X87.771 Y107.57 E58.97676
G1 X87.701 Y107.5
G0 F3600 X88.336 Y107.57
G1 F1500 X89.195 Y108.429 E59.03737
G1 X89.265 Y108.499
G0 F3600 X89.761 Y108.429
G1 F1500 X88.902 Y107.57 E59.09798
G1 X88.832 Y107.5
G0 F3600 X89.468 Y107.57
G1 F1500 X90.327 Y108.429 E59.15859
G1 X90.397 Y108.499
G0 F3600 X90.892 Y108.429
G1 F1500 X90.033 Y107.57 E59.21919
G1 X89.963 Y107.5
G0 F3600 X90.599 Y107.57
G1 F1500 X91.458 Y108.429 E59.2798
G1 X91.528 Y108.499
G0 F3600 X92.024 Y108.429
G1 F1500 X91.165 Y107.57 E59.34041
G1 X91.095 Y107.5
G0 F3600 X91.73 Y107.57
G1 F1500 X92.589 Y108.429 E59.40101
G1 X92.659 Y108.499
G0 F3600 X93.155 Y108.429
G1 F1500 X92.296 Y107.57 E59.46162
G1 X92.226 Y107.5
G0 F3600 X92.862 Y107.57
G1 F1500 X93.721 Y108.429 E59.52223
G1 X93.791 Y108.499
G0 F3600 X94.287 Y108.429
G1 F1500 X93.427 Y107.57 E59.58287
G1 X93.357 Y107.5
G0 F3600 X93.993 Y107.57
G1 F1500 X94.852 Y108.429 E59.64348
G1 X94.922 Y108.499
G0 F3600 X95.418 Y108.429
G1 F1500 X94.559 Y107.57 E59.70409
G1 X94.489 Y107.5
G0 F3600 X95.124 Y107.57
G1 F1500 X95.984 Y108.429 E59.76473
G1 X96.054 Y108.499
G0 F3600 X96.549 Y108.429
G1 F1500 X95.69 Y107.57 E59.82533
G1 X95.62 Y107.5
G0 F3600 X96.256 Y107.57
G1 F1500 X97.115 Y108.429 E59.88594
G1 X97.185 Y108.499
G0 F3600 X97.681 Y108.429
G1 F1500 X96.822 Y107.57 E59.94655
G1 X96.752 Y107.5
G0 F3600 X97.387 Y107.57
G1 F1500 X98.246 Y108.429 E60.00716
G1 X98.316 Y108.499
G0 F3600 X98.812 Y108.429
G1 F1500 X97.953 Y107.57 E60.06776
G1 X97.883 Y107.5
G0 F3600 X98.519 Y107.57
G1 F1500 X99.378 Y108.429 E60.12837
G1 X99.448 Y108.499
G0 F3600 X99.943 Y108.429
G1 F1500 X99.084 Y107.57 E60.18898
G1 X99.014 Y107.5
G0 F3600 X99.65 Y107.57
G1 F1500 X100.509 Y108.429 E60.24958
G1 X100.579 Y108.499
G0 F3600 X101.075 Y108.429
G1 F1500 X100.216 Y107.57 E60.31019
G1 X100.146 Y107.5
G0 F3600 X100.781 Y107.57
G1 F1500 X101.64 Y108.429 E60.3708
G1 X101.71 Y108.499
G0 F3600 X102.206 Y108.429
G1 F1500 X101.347 Y107.57 E60.43141
G1 X101.277 Y107.5
G0 F3600 X101.913 Y107.57
G1 F1500 X102.772 Y108.429 E60.49201
G1 X102.842 Y108.499
G0 F3600 X103.337 Y108.429
G1 F1500 X102.478 Y107.57 E60.55262
G1 X102.408 Y107.5
G0 F3600 X103.044 Y107.57
G1 F1500 X103.903 Y108.429 E60.61323
G1 X103.973 Y108.499
G0 F3600 X104.469 Y108.429
G1 F1500 X103.61 Y107.57 E60.67383
G1 X103.54 Y107.5
G0 F3600 X104.175 Y107.57
G1 F1500 X105.035 Y108.429 E60.73448
G1 X105.105 Y108.499
G0 F3600 X105.6 Y108.429
G1 F1500 X104.741 Y107.57 E60.79508
G1 X104.671 Y107.5
G0 F3600 X105.307 Y107.57
G1 F1500 X106.166 Y108.429 E60.85569
G1 X106.236 Y108.499
G0 F3600 X106.732 Y108.429
G1 F1500 X105.872 Y107.57 E60.91633
G1 X105.802 Y107.5
G0 F3600 X106.438 Y107.57
G1 F1500 X107.297 Y108.429 E60.97694
G1 X107.367 Y108.499
G0 F3600 X107.863 Y108.429
G1 F1500 X107.004 Y107.57 E61.03755
G1 X106.934 Y107.5
G0 F3600 X107.57 Y107.57
G1 F1500 X108.429 Y108.429 E61.09815
G1 X108.499 Y108.499
G0 F3600 X108.994 Y108.429
G1 F1500 X108.135 Y107.57 E61.15876
G1 X108.065 Y107.5
G0 F3600 X108.701 Y107.57
G1 F1500 X109.56 Y108.429 E61.21937
G1 X109.63 Y108.499
G0 F3600 X110.126 Y108.429
G1 F1500 X109.267 Y107.57 E61.27998
G1 X109.197 Y107.5
G0 F3600 X109.832 Y107.57
G1 F1500 X110.691 Y108.429 E61.34058
G1 X110.761 Y108.499
G0 F3600 X111.257 Y108.429
G1 F1500 X110.398 Y107.57 E61.40119
G1 X110.328 Y107.5
G0 F3600 X110.964 Y107.57
G1 F1500 X111.823 Y108.429 E61.4618
G1 X111.893 Y108.499
G0 F3600 X112.388 Y108.429
G1 F1500 X111.529 Y107.57 E61.5224
G1 X111.459 Y107.5
G0 F3600 X112.095 Y107.57
G1 F1500 X112.954 Y108.429 E61.58301
G1 X113.024 Y108.499
G0 F3600 X113.52 Y108.429
G1 F1500 X112.661 Y107.57 E61.64362
G1 X112.591 Y107.5
G0 F3600 X113.226 Y107.57
G1 F1500 X114.086 Y108.429 E61.70426
G1 X114.156 Y108.499
G0 F3600 X114.651 Y108.429
G1 F1500 X113.792 Y107.57 E61.76487
G1 X113.722 Y107.5
G0 F3600 X114.358 Y107.57
G1 F1500 X115.217 Y108.429 E61.82547
G1 X115.287 Y108.499
G0 F3600 X115.783 Y108.429
G1 F1500 X114.923 Y107.57 E61.88612
G1 X114.853 Y107.5
G0 F3600 X115.489 Y107.57
G1 F1500 X116.348 Y108.429 E61.94672
G1 X116.418 Y108.499
G0 F3600 X116.914 Y108.429
G1 F1500 X116.055 Y107.57 E62.00733
G1 X115.985 Y107.5
G0 F3600 X116.621 Y107.57
G1 F1500 X117.48 Y108.429 E62.06794
G1 X117.55 Y108.499
G0 F3600 X118.045 Y108.429
G1 F1500 X117.186 Y107.57 E62.12855
G1 X117.116 Y107.5
G0 F3600 X117.752 Y107.57
G1 F1500 X118.611 Y108.429 E62.18915
G1 X118.681 Y108.499
G0 F3600 X119.177 Y108.429
G1 F1500 X118.318 Y107.57 E62.24976
G1 X118.248 Y107.5
G0 F3600 X118.883 Y107.57
G1 F1500 X119.742 Y108.429 E62.31037
G1 X119.812 Y108.499
G0 F3600 X120.308 Y108.429
G1 F1500 X119.449 Y107.57 E62.37097
G1 X119.379 Y107.5
G0 F3600 X120.015 Y107.57
G1 F1500 X120.874 Y108.429 E62.43158
G1 X120.944 Y108.499
G0 F3600 X121.439 Y108.429
G1 F1500 X120.58 Y107.57 E62.49219
G1 X120.51 Y107.5
G0 F3600 X121.146 Y107.57
G1 F1500 X122.005 Y108.429 E62.55279
G1 X122.075 Y108.499
G0 F3600 X122.571 Y108.429
G1 F1500 X121.712 Y107.57 E62.6134
G1 X121.642 Y107.5
G0 F3600 X122.277 Y107.57
G1 F1500 X123.136 Y108.429 E62.67401
G1 X123.206 Y108.499
G0 F3600 X123.702 Y108.429
G1 F1500 X122.843 Y107.57 E62.73462
G1 X122.773 Y107.5
G0 F3600 X123.409 Y107.57
G1 F1500 X124.268 Y108.429 E62.79522
G1 X124.338 Y108.499
G0 F3600 X124.834 Y108.429
G1 F1500 X123.974 Y107.57 E62.85587
G1 X123.904 Y107.5
G0 F3600 X124.54 Y107.57
G1 F1500 X125.399 Y108.429 E62.91647
G1 X125.469 Y108.499
G0 F3600 X125.965 Y108.429
G1 F1500 X125.106 Y107.57 E62.97708
G1 X125.036 Y107.5
