;FLAVOR:Marlin
;TIME:4379
;Filament used: 1.72274m
;Layer height: 0.2
;Generated with Cura_SteamEngine 3.6.0
M140 S100
M105
M190 S100
M104 S215
M105
M109 S215
M82 ;absolute extrusion mode
;===========

G21 ;metric values
G90 ;absolute positioning
M82 ;set extruder to absolute mode
M107 ;start with the fan off
G28 X0 Y0 ;move X/Y to min endstops
G28 Z0 ;move Z to min endstops
G1 Z15.0 F{travel_speed} ;move the platform down 15mm
G92 E0 ;zero the extruded length
G1 F140 E30 ;extrude 3mm of feed stock
G1 X20 Y0 F140 E30
G92 E0 ;zero the extruded length again
G1 F{travel_speed}
M117 Printing...
G92 E0
G1 F3000 E-0.4
;LAYER_COUNT:35
;LAYER:0
M107
G0 F2400 X22.874 Y33.998 Z0.3
;TYPE:SUPPORT
G1 F1500 E0
G1 F1200 X38.124 Y15.868 E0.44564
G1 X38.492 Y15.864 E0.45256
G1 X39.25 Y16.484 E0.47098
G1 X40.52 Y17.59 E0.50266
G1 X42.61 Y19.543 E0.55647
G1 X43.274 Y20.206 E0.57412
G1 X45.037 Y22.017 E0.62166
G1 X45.645 Y22.689 E0.63871
G1 X46.896 Y23.696 E0.66892
G1 X47.741 Y24.432 E0.69
G1 X49.364 Y25.917 E0.73138
G1 X49.815 Y26.342 E0.74303
G1 X50.812 Y27.312 E0.7692
G1 X51.357 Y27.859 E0.78372
G1 X52.883 Y29.434 E0.82497
G1 X53.373 Y29.977 E0.83873
G1 X54.836 Y31.161 E0.87414
G1 X55.538 Y31.788 E0.89184
G1 X56.569 Y32.728 E0.91809
G1 X57.418 Y33.521 E0.93994
G1 X58.593 Y34.669 E0.97084
G1 X59.633 Y35.719 E0.99864
G1 X60.889 Y37.026 E1.03274
G1 X62.533 Y38.415 E1.07322
G1 X63.972 Y39.716 E1.10971
G1 X65.043 Y40.722 E1.13735
G1 X65.884 Y41.536 E1.15937
G1 X67.519 Y43.174 E1.2029
G1 X68.091 Y43.771 E1.21845
G1 X70.565 Y45.956 E1.28054
G1 X72.147 Y47.42 E1.32109
G1 X73.899 Y49.116 E1.36696
G1 X75.304 Y50.534 E1.40451
G1 X76.648 Y51.938 E1.44107
G1 X77.02 Y52.095 E1.44866
G1 X78.293 Y53.237 E1.48083
G1 X80.13 Y54.954 E1.52813
G1 X80.854 Y55.66 E1.54715
G1 X82.193 Y56.983 E1.58256
G1 X82.924 Y57.748 E1.60246
G1 X84.272 Y58.925 E1.63613
G1 X85.169 Y59.73 E1.6588
G1 X86.39 Y60.854 E1.69001
G1 X87.898 Y62.286 E1.72913
G1 X88.991 Y63.343 E1.75773
G1 X89.66 Y64.021 E1.77565
G1 X89.71 Y64.061 E1.77686
G1 X90.049 Y64.448 E1.78653
G1 X91.972 Y66.146 E1.83479
G1 X93.571 Y67.619 E1.87568
G1 X94.408 Y68.401 E1.89723
G1 X95.507 Y69.456 E1.92589
G1 X96.529 Y70.454 E1.95276
G1 X98.531 Y72.457 E2.00603
G1 X98.884 Y72.655 E2.01364
G1 X100.087 Y73.754 E2.04429
G1 X101.801 Y75.353 E2.08839
G1 X103.231 Y76.734 E2.12578
G1 X106.046 Y79.534 E2.20047
G1 X106.413 Y79.709 E2.20811
G1 X107.712 Y80.906 E2.24134
G1 X108.993 Y82.109 E2.2744
G1 X110.163 Y83.234 E2.30493
G1 X111.55 Y84.604 E2.3416
G1 X113.533 Y86.598 E2.3945
G1 X113.913 Y86.735 E2.4021
G1 X115.021 Y87.764 E2.43054
G1 X116.646 Y89.306 E2.47268
G1 X118.402 Y91.013 E2.51875
G1 X120.988 Y93.616 E2.58777
G1 X121.381 Y93.719 E2.59541
G1 X122.512 Y94.776 E2.62453
G1 X123.438 Y95.653 E2.64852
G1 X125.503 Y97.657 E2.70265
G1 X127.883 Y100.062 E2.76629
G1 X128.276 Y100.153 E2.77388
G1 X128.767 Y100.608 E2.78647
G1 X130.111 Y101.901 E2.82156
G1 X130.388 Y102.147 E2.82852
G1 X131.246 Y102.974 E2.85094
G1 X133.256 Y104.946 E2.90391
G1 X134.655 Y106.362 E2.94135
G1 X135.052 Y106.463 E2.94906
G1 X135.941 Y107.293 E2.97193
G1 X137.077 Y108.38 E3.00151
G1 X139.176 Y110.415 E3.0565
G1 X141.322 Y112.551 E3.11346
G1 X141.711 Y112.648 E3.121
G1 X142.711 Y113.582 E3.14674
G1 X145.001 Y115.783 E3.20649
G1 X147.626 Y118.394 E3.27613
G1 X148.02 Y118.476 E3.2837
G1 X149.517 Y119.884 E3.32236
G1 X150.392 Y120.717 E3.34508
G1 X153.859 Y124.097 E3.43616
G1 X154.246 Y124.195 E3.44367
G1 X156.434 Y126.265 E3.50033
G1 X159.621 Y129.35 E3.58377
G1 X160.013 Y129.456 E3.5914
G1 X162.685 Y131.973 E3.66045
G1 X165.327 Y134.531 E3.72963
G1 X165.712 Y134.632 E3.73712
G1 X167.416 Y136.202 E3.7807
G1 X168.442 Y137.172 E3.80726
G1 X171.228 Y139.842 E3.87985
G1 X171.612 Y139.957 E3.88739
G1 X172.218 Y140.486 E3.90252
G1 X173.206 Y141.389 E3.9277
G1 X174.755 Y142.857 E3.96784
G1 X176.605 Y144.643 E4.01621
G1 X178.252 Y145.922 E4.05544
G1 X178.632 Y146.239 E4.06474
G1 X179.438 Y146.949 E4.08495
G1 X180.18 Y147.634 E4.10394
G1 X182.366 Y149.73 E4.16091
G1 X183.786 Y151.159 E4.19881
G1 X184.268 Y151.632 E4.21151
G1 X186.85 Y154.293 E4.28126
G1 X186.856 Y154.431 E4.28385
G1 X185.131 Y156.483 E4.33428
G1 X184.779 Y156.881 E4.34428
G1 X183.5 Y158.425 E4.38199
G1 X180.984 Y161.402 E4.45531
G1 X168.409 Y176.351 E4.82277
G1 X168.243 Y176.366 E4.8259
G1 X161.357 Y170.62 E4.9946
G1 X158.578 Y168.288 E5.06285
G1 X149.555 Y160.762 E5.28386
G1 X149.252 Y160.502 E5.29137
G1 X146.02 Y157.848 E5.37004
G1 X140.897 Y153.612 E5.49508
G1 X140.498 Y153.58 E5.50261
G1 X138.932 Y152.319 E5.54043
G1 X137.164 Y150.868 E5.58346
G1 X132.46 Y147.095 E5.69689
G1 X132.062 Y147.045 E5.70443
G1 X129.794 Y145.245 E5.7589
G1 X128.862 Y144.487 E5.7815
G1 X125.787 Y142.065 E5.85513
G1 X120.108 Y137.56 E5.99148
G1 X116.948 Y135.097 E6.06685
G1 X112.762 Y131.797 E6.16711
G1 X112.367 Y131.778 E6.17455
G1 X111.051 Y130.758 E6.20587
G1 X110.698 Y130.462 E6.21454
G1 X105.379 Y126.378 E6.34068
G1 X103.182 Y124.649 E6.39327
G1 X97.813 Y120.576 E6.52004
G1 X90.205 Y114.749 E6.7003
G1 X81.672 Y108.331 E6.90114
G1 X76.525 Y104.423 E7.02271
G1 X76.177 Y104.175 E7.03075
G1 X74.147 Y102.667 E7.07831
G1 X73.748 Y102.66 E7.08582
G1 X69.963 Y99.845 E7.17455
G1 X69.633 Y99.58 E7.18251
G1 X65.345 Y96.405 E7.28288
G1 X61.016 Y93.178 E7.38444
G1 X59.694 Y92.184 E7.41555
G1 X54.298 Y88.218 E7.54152
G1 X47.684 Y83.316 E7.69638
G1 X32.779 Y72.413 E8.04376
G1 X30.117 Y70.446 E8.10602
G1 X27.186 Y68.313 E8.17421
G1 X19.476 Y62.661 E8.35403
G1 X17.566 Y61.289 E8.39827
G1 X13.148 Y58.033 E8.50151
G1 X6.74 Y53.394 E8.65031
G1 X6.719 Y53.222 E8.65357
G1 X7.231 Y52.607 E8.66863
G1 X7.29 Y52.548 E8.6702
G1 X11.869 Y47.088 E8.80424
G1 X11.879 Y47.167 E8.80574
G1 X15.646 Y49.794 E8.89212
G1 X23.472 Y55.837 E9.07812
G1 X44.675 Y68.855 E9.54613
G1 X51.759 Y73.723 E9.70781
G1 X52.03 Y73.865 E9.71357
G1 X52.555 Y73.955 E9.72359
G1 X52.995 Y73.856 E9.73207
G1 X54.14 Y75.611 E9.77149
G1 X59.701 Y79.206 E9.89605
G1 X67.666 Y85.497 E10.08697
G1 X68.148 Y85.185 E10.09777
G1 X67.618 Y83.059 E10.13899
G1 X73.372 Y87.316 E10.27363
G1 X73.91 Y87.296 E10.28375
G1 X75.13 Y86.251 E10.31397
G1 X84.208 Y75.464 E10.57917
G1 X84.179 Y74.91 E10.58961
G1 X70.265 Y61.46 E10.95363
G1 X69.763 Y61.271 E10.96372
G1 X69.308 Y61.54 E10.97366
G1 X68.131 Y62.919 E11.00777
G1 X59.378 Y73.326 E11.26356
G1 X59.239 Y73.122 E11.26821
G1 X59.129 Y73.04 E11.27079
G1 X56.937 Y72.38 E11.31385
G1 X56.344 Y70.242 E11.35558
G1 X56.274 Y70.136 E11.35797
G1 X55.845 Y69.798 E11.36825
G1 X55.806 Y69.802 E11.36898
G1 X65.812 Y57.904 E11.66141
G1 X65.764 Y57.342 E11.67202
G1 X61.468 Y53.725 E11.77766
G1 X61.184 Y53.441 E11.78522
G1 X52.586 Y46.203 E11.99663
G1 X52.303 Y45.923 E12.00412
G1 X43.718 Y38.701 E12.21515
G1 X43.434 Y38.417 E12.2227
G1 X33.351 Y29.929 E12.47063
G1 X32.79 Y29.977 E12.48122
G1 X26.321 Y37.669 E12.67028
G1 X24.955 Y36.165 E12.70849
G1 X23.188 Y34.175 E12.75855
G1 X22.874 Y33.998 E12.76533
G0 F2400 X87.565 Y79.234
G1 F1200 X78.369 Y90.167 E13.03407
G1 X78.293 Y90.419 E13.03902
G1 X78.368 Y90.903 E13.04823
G1 X78.512 Y91.116 E13.05307
G1 X86.485 Y97.019 E13.23967
G1 X86.586 Y97.132 E13.24253
G1 X94.013 Y102.629 E13.41633
G1 X94.566 Y102.563 E13.42681
G1 X101.272 Y94.597 E13.62268
G1 X102.21 Y93.497 E13.64988
G1 X102.25 Y92.971 E13.6598
G1 X101.38 Y91.574 E13.69076
G1 X88.522 Y79.152 E14.02706
G1 X88.019 Y78.964 E14.03716
G1 X87.565 Y79.234 E14.04709
G0 F2400 X105.835 Y96.937
G1 F1200 X98.786 Y105.317 E14.25308
G1 X98.71 Y105.569 E14.25803
G1 X98.785 Y106.053 E14.26724
G1 X98.93 Y106.266 E14.27209
G1 X101.385 Y108.084 E14.32955
G1 X101.457 Y108.179 E14.3318
G1 X114.434 Y117.778 E14.63542
G1 X114.987 Y117.712 E14.6459
G1 X120.744 Y110.861 E14.81423
G1 X120.715 Y110.306 E14.82468
G1 X106.792 Y96.855 E15.18884
G1 X106.289 Y96.667 E15.19894
G1 X105.835 Y96.937 E15.20888
G0 F2400 X124.431 Y114.264
G1 F1200 X121.732 Y117.459 E15.28755
G1 X118.906 Y120.833 E15.37034
G1 X118.955 Y121.395 E15.38095
G1 X127.281 Y128.403 E15.58566
G1 X129.066 Y130.164 E15.63283
G1 X129.457 Y130.273 E15.64046
G1 X133.908 Y134.015 E15.74985
G1 X134.469 Y133.967 E15.76044
G1 X139.993 Y127.4 E15.92186
G1 X139.966 Y127.096 E15.9276
G1 X139.746 Y126.672 E15.93659
G1 X131.591 Y119.809 E16.13708
G1 X131.296 Y119.517 E16.14489
G1 X124.991 Y114.216 E16.29984
G1 X124.431 Y114.264 E16.31041
G0 F2400 X143.784 Y130.677
G1 F1200 X138.456 Y136.998 E16.46591
G1 X138.312 Y137.454 E16.47491
G1 X138.339 Y137.757 E16.48063
G1 X141.785 Y140.65 E16.56527
G1 X143.749 Y142.572 E16.61696
G1 X144.137 Y142.677 E16.62452
G1 X154.965 Y151.787 E16.8907
G1 X156.731 Y153.535 E16.93744
G1 X157.121 Y153.647 E16.94507
G1 X167.135 Y162.073 E17.19125
G1 X168.91 Y163.834 E17.23828
G1 X169.3 Y163.941 E17.24589
G1 X170.744 Y165.167 E17.28152
G1 X171.305 Y165.122 E17.29211
G1 X173.334 Y162.732 E17.35108
G1 X174.194 Y161.709 E17.37622
G1 X174.443 Y161.431 E17.38324
G1 X176.778 Y158.623 E17.45194
G1 X176.729 Y158.061 E17.46255
G1 X174.154 Y155.893 E17.52587
G1 X173.909 Y155.644 E17.53244
G1 X167.532 Y150.282 E17.68916
G1 X167.196 Y149.943 E17.69814
G1 X160.44 Y144.259 E17.86422
G1 X160.201 Y144.019 E17.87059
G1 X153.289 Y138.205 E18.04049
G1 X152.984 Y137.9 E18.0486
G1 X144.344 Y130.629 E18.26102
G1 X143.784 Y130.677 E18.27159
G0 F2400 X143.569 Y130.683
G1 F1200 X137.44 Y130.683 E18.38688
G0 F2400 X138.684 Y129.204
G1 F1200 X138.684 Y136.48 E18.52375
G0 F2400 X139.073 Y136.017
G1 F1200 X118.387 Y136.017 E18.91286
G0 F2400 X117.348 Y135.205
G1 F1200 X117.348 Y115.149 E19.29013
G0 F2400 X117.742 Y114.681
G1 F1200 X123.869 Y114.681 E19.40538
G0 F2400 X125.349 Y114.309
G1 F1200 X125.349 Y97.731 E19.71722
G0 F2400 X126.291 Y98.679
G1 F1200 X108.91 Y98.679 E20.04417
G0 F2400 X109.347 Y99.101
G1 F1200 X109.347 Y82.672 E20.35321
G0 F2400 X109.353 Y82.677
G1 F1200 X92.4 Y82.677 E20.6721
G0 F2400 X93.345 Y83.589
G1 F1200 X93.345 Y67.629 E20.97232
G0 F2400 X92.31 Y66.675
G1 F1200 X75.891 Y66.675 E21.28117
G0 F2400 X74.676 Y65.5
G1 F1200 X74.676 Y50.128 E21.57032
G0 F2400 X75.216 Y50.673
G1 F1200 X58.143 Y50.673 E21.89148
G0 F2400 X58.674 Y51.119
G1 F1200 X58.674 Y34.979 E22.19508
G0 F2400 X58.367 Y34.671
G1 F1200 X39.231 Y34.671 E22.55504
G0 F2400 X40.005 Y35.322
G1 F1200 X40.005 Y17.354 E22.89303
G0 F2400 X41.442 Y18.669
G1 F1200 X35.976 Y18.669 E22.99585
G0 F2400 X34.671 Y20.221
G1 F1200 X34.671 Y30.832 E23.19544
G0 F2400 X36.063 Y32.004
G1 F1200 X55.539 Y32.004 E23.5618
G0 F2400 X56.007 Y32.432
G1 F1200 X56.007 Y48.874 E23.87108
G0 F2400 X54.975 Y48.006
G1 F1200 X72.523 Y48.006 E24.20117
G0 F2400 X72.009 Y47.511
G1 F1200 X72.009 Y62.922 E24.49106
G0 F2400 X73.132 Y64.008
G1 F1200 X89.423 Y64.008 E24.7975
G0 F2400 X88.011 Y62.619
G1 F1200 X88.011 Y78.789 E25.10167
G0 F2400 X86.704 Y80.01
G1 F1200 X80.591 Y80.01 E25.21666
G0 F2400 X80.01 Y80.7
G1 F1200 X80.01 Y87.968 E25.35337
G0 F2400 X79.973 Y88.011
G1 F1200 X54.285 Y88.011 E25.83658
G0 F2400 X53.34 Y87.309
G1 F1200 X53.34 Y74.68 E26.07414
G0 F2400 X53.337 Y74.676
G1 F1200 X36.141 Y74.676 E26.3976
G0 F2400 X37.338 Y75.55
G1 F1200 X37.338 Y64.538 E26.60474
G0 F2400 X36.475 Y64.008
G1 F1200 X21.583 Y64.008 E26.88487
G0 F2400 X21.336 Y63.825
G1 F1200 X21.336 Y54.391 E27.06233
G0 F2400 X19.976 Y53.34
G1 F1200 X6.938 Y53.34 E27.30758
G0 F2400 X8.001 Y54.108
G1 F1200 X8.001 Y51.949 E27.34819
G0 F2400 X9.071 Y50.673
G1 F1200 X16.523 Y50.673 E27.48837
G0 F2400 X16.002 Y50.271
G1 F1200 X16.002 Y59.937 E27.67019
G0 F2400 X14.287 Y58.674
G1 F1200 X27.786 Y58.674 E27.92412
G0 F2400 X26.67 Y57.989
G1 F1200 X26.67 Y67.736 E28.10746
G0 F2400 X25.22 Y66.675
G1 F1200 X40.819 Y66.675 E28.40089
G0 F2400 X40.005 Y66.175
G1 F1200 X40.005 Y77.501 E28.61394
G0 F2400 X39.787 Y77.343
G1 F1200 X56.524 Y77.343 E28.92877
G0 F2400 X56.007 Y77.009
G1 F1200 X56.007 Y89.275 E29.1595
G0 F2400 X57.914 Y90.678
G1 F1200 X78.172 Y90.678 E29.54056
G0 F2400 X80.01 Y92.425
G1 F1200 X80.01 Y106.868 E29.81225
G0 F2400 X79.761 Y106.68
G1 F1200 X99.221 Y106.68 E30.1783
G0 F2400 X98.679 Y106.181
G1 F1200 X98.679 Y121.032 E30.45765
G0 F2400 X97.342 Y120.015
G1 F1200 X119.381 Y120.015 E30.87222
G0 F2400 X120.015 Y119.261
G1 F1200 X120.015 Y111.976 E31.00926
G0 F2400 X119.983 Y112.014
G1 F1200 X140.557 Y112.014 E31.39626
G0 F2400 X141.351 Y112.723
G1 F1200 X141.351 Y133.316 E31.78363
G0 F2400 X141.321 Y133.35
G1 F1200 X135.197 Y133.35 E31.89883
G0 F2400 X136.017 Y132.374
G1 F1200 X136.017 Y149.743 E32.22555
G0 F2400 X135.529 Y149.352
G1 F1200 X151.823 Y149.352 E32.53205
G0 F2400 X152.019 Y149.518
G1 F1200 X152.019 Y162.609 E32.77829
G0 F2400 X152.112 Y162.687
G1 F1200 X167.527 Y162.687 E33.06826
G0 F2400 X168.021 Y163.178
G1 F1200 X168.021 Y175.97 E33.30888
G0 F2400 X168.082 Y176.022
G1 F1200 X168.476 Y176.022 E33.31629
G0 F2400 X170.688 Y173.393
G1 F1200 X170.688 Y165.33 E33.46796
G0 F2400 X173.355 Y162.947
G1 F1200 X173.355 Y170.223 E33.60483
G0 F2400 X172.963 Y170.688
G1 F1200 X161.687 Y170.688 E33.81694
G0 F2400 X162.687 Y171.521
G1 F1200 X162.687 Y158.54 E34.06112
G0 F2400 X161.277 Y157.353
G1 F1200 X145.672 Y157.353 E34.35466
G0 F2400 X146.685 Y158.187
G1 F1200 X146.685 Y145.03 E34.60215
G0 F2400 X145.483 Y144.018
G1 F1200 X128.524 Y144.018 E34.92115
G0 F2400 X128.016 Y143.616
G1 F1200 X128.016 Y129.353 E35.18945
G0 F2400 X126.574 Y128.016
G1 F1200 X107.774 Y128.016 E35.54309
G0 F2400 X106.68 Y127.174
G1 F1200 X106.68 Y112.242 E35.82397
G0 F2400 X106.373 Y112.014
G1 F1200 X86.834 Y112.014 E36.19151
G0 F2400 X88.011 Y112.898
G1 F1200 X88.011 Y98.386 E36.46449
G0 F2400 X88.408 Y98.679
G1 F1200 X68.684 Y98.679 E36.83551
G0 F2400 X69.342 Y99.165
G1 F1200 X69.342 Y84.534 E37.11072
G0 F2400 X70.438 Y85.344
G1 F1200 X68.197 Y85.344 E37.15288
G0 F2400 X67.213 Y85.344
G1 F1200 X50.687 Y85.344 E37.46374
G0 F2400 X50.673 Y85.332
G1 F1200 X50.673 Y73.171 E37.6925
G0 F2400 X48.983 Y72.009
G1 F1200 X32.499 Y72.009 E38.00257
G0 F2400 X32.004 Y71.641
G1 F1200 X32.004 Y61.263 E38.19778
G0 F2400 X32.131 Y61.341
G1 F1200 X17.912 Y61.341 E38.46525
G0 F2400 X18.669 Y61.883
G1 F1200 X18.669 Y52.331 E38.64493
G0 F2400 X23.442 Y56.007
G1 F1200 X10.622 Y56.007 E38.88608
G0 F2400 X10.668 Y56.039
G1 F1200 X10.668 Y48.769 E39.02283
G0 F2400 X11.308 Y48.006
G1 F1200 X12.803 Y48.006 E39.05096
G0 F2400 X13.335 Y48.377
G1 F1200 X13.335 Y57.971 E39.23142
G0 F2400 X24.003 Y56.352
G1 F1200 X24.003 Y65.781 E39.40879
G0 F2400 X28.87 Y69.342
G1 F1200 X45.102 Y69.342 E39.71412
G0 F2400 X45.339 Y69.505
G1 F1200 X45.339 Y81.402 E39.93791
G0 F2400 X47.079 Y82.677
G1 F1200 X63.836 Y82.677 E40.25312
G0 F2400 X64.008 Y82.813
G1 F1200 X64.008 Y95.208 E40.48628
G0 F2400 X65.084 Y96.012
G1 F1200 X84.856 Y96.012 E40.8582
G0 F2400 X85.344 Y96.374
G1 F1200 X85.344 Y110.892 E41.13129
G0 F2400 X83.288 Y109.347
G1 F1200 X102.767 Y109.347 E41.4977
G0 F2400 X104.013 Y110.269
G1 F1200 X104.013 Y125.099 E41.77666
G0 F2400 X104.329 Y125.349
G1 F1200 X123.404 Y125.349 E42.13547
G0 F2400 X122.682 Y124.742
G1 F1200 X122.682 Y139.397 E42.41114
G0 F2400 X121.781 Y138.684
G1 F1200 X139.196 Y138.684 E42.73873
G0 F2400 X138.684 Y138.255
G1 F1200 X138.684 Y151.907 E42.99553
G0 F2400 X138.819 Y152.019
G1 F1200 X154.973 Y152.019 E43.2994
G0 F2400 X154.686 Y151.762
G1 F1200 X154.686 Y164.833 E43.54527
G0 F2400 X155.309 Y165.354
G1 F1200 X177.45 Y165.354 E43.96175
G0 F2400 X178.689 Y163.883
G1 F1200 X178.689 Y146.504 E44.28866
G0 F2400 X178.896 Y146.685
G1 F1200 X163.571 Y146.685 E44.57693
G0 F2400 X162.687 Y145.94
G1 F1200 X162.687 Y132.199 E44.83541
G0 F2400 X163.877 Y133.35
G1 F1200 X147.825 Y133.35 E45.13736
G0 F2400 X146.685 Y132.391
G1 F1200 X146.685 Y117.685 E45.41398
G0 F2400 X146.349 Y117.348
G1 F1200 X128.965 Y117.348 E45.74099
G0 F2400 X128.016 Y116.551
G1 F1200 X128.016 Y100.257 E46.04749
G0 F2400 X129.304 Y101.346
G1 F1200 X111.671 Y101.346 E46.37917
G0 F2400 X112.014 Y101.677
G1 F1200 X112.014 Y85.299 E46.68725
G0 F2400 X112.06 Y85.344
G1 F1200 X95.161 Y85.344 E47.00513
G0 F2400 X96.012 Y86.166
G1 F1200 X96.012 Y70.173 E47.30597
G0 F2400 X95.157 Y69.342
G1 F1200 X78.649 Y69.342 E47.61649
G0 F2400 X77.343 Y68.079
