;FLAVOR:Marlin
;TIME:6136
;Filament used: 2.50007m
;Layer height: 0.2
;Generated with Cura_SteamEngine 3.6.0
M140 S100
M105
M190 S100
M104 S215
M105
M109 S215
M82 ;absolute extrusion mode
;===========

G21 ;metric values
G90 ;absolute positioning
M82 ;set extruder to absolute mode
M107 ;start with the fan off
G28 X0 Y0 ;move X/Y to min endstops
G28 Z0 ;move Z to min endstops
G1 Z15.0 F{travel_speed} ;move the platform down 15mm
G92 E0 ;zero the extruded length
G1 F140 E30 ;extrude 3mm of feed stock
G1 X20 Y0 F140 E30
G92 E0 ;zero the extruded length again
G1 F{travel_speed}
M117 Printing...
G92 E0
G1 F3000 E-0.4
;LAYER_COUNT:245
;LAYER:0
M107
G0 F2400 X98.429 Y95.674 Z0.3
;TYPE:SUPPORT
G1 F1500 E0
G1 F1200 X98.808 Y95.304 E0.00996
G1 X99.792 Y94.284 E0.03662
G1 X101.646 Y92.428 E0.08597
G1 X101.955 Y92.09 E0.09458
G1 X103.321 Y90.724 E0.13092
G1 X103.649 Y90.359 E0.14015
G1 X103.965 Y90.044 E0.14855
G1 X104.756 Y89.227 E0.16994
G1 X106.824 Y87.155 E0.225
G1 X107.135 Y86.815 E0.23367
G1 X108.55 Y85.397 E0.27135
G1 X108.926 Y84.98 E0.28192
G1 X109.088 Y84.828 E0.28609
G1 X110.052 Y83.833 E0.31215
G1 X111.04 Y82.843 E0.33846
G1 X111.829 Y82.025 E0.35984
G1 X114.595 Y79.248 E0.43357
G1 X114.892 Y78.905 E0.4421
G1 X115.982 Y77.803 E0.47126
G1 X117.258 Y76.488 E0.50573
G1 X117.768 Y75.978 E0.51929
G1 X118.652 Y75.068 E0.54316
G1 X122.312 Y71.393 E0.64072
G1 X122.637 Y71.001 E0.6503
G1 X124.364 Y69.269 E0.69631
G1 X124.621 Y68.995 E0.70338
G1 X125.917 Y67.696 E0.73789
G1 X126.301 Y67.276 E0.7486
G1 X127.857 Y65.72 E0.78999
G1 X128.138 Y65.413 E0.79782
G1 X129.561 Y63.99 E0.83567
G1 X129.841 Y63.675 E0.8436
G1 X129.901 Y63.621 E0.84512
G1 X131.288 Y62.195 E0.88254
G1 X131.972 Y61.516 E0.90067
G1 X132.938 Y60.515 E0.92684
G1 X134.038 Y59.415 E0.9561
G1 X134.337 Y59.1 E0.96427
G1 X134.833 Y58.605 E0.97745
G1 X135.807 Y57.593 E1.00387
G1 X136.854 Y56.546 E1.03172
G1 X137.269 Y56.103 E1.04314
G1 X137.945 Y55.433 E1.06105
G1 X138.643 Y54.701 E1.08007
G1 X139.266 Y54.077 E1.09666
G1 X140.196 Y53.122 E1.12173
G1 X140.834 Y52.485 E1.13869
G1 X141.543 Y51.746 E1.15796
G1 X142.233 Y51.064 E1.1762
G1 X142.88 Y50.388 E1.19381
G1 X143.561 Y49.718 E1.21178
G1 X144.577 Y48.661 E1.23935
G1 X145.072 Y48.167 E1.25251
G1 X145.81 Y47.408 E1.27242
G1 X146.3 Y46.919 E1.28545
G1 X147.186 Y45.998 E1.30948
G1 X147.888 Y45.309 E1.32799
G1 X148.804 Y44.349 E1.35295
G1 X149.442 Y43.715 E1.36987
G1 X150.094 Y43.045 E1.38745
G1 X150.698 Y42.442 E1.40351
G1 X151.651 Y41.459 E1.42926
G1 X152.79 Y40.32 E1.45956
G1 X153.04 Y40.044 E1.46656
G1 X153.452 Y39.63 E1.47755
G1 X154.63 Y38.42 E1.50932
G1 X155.315 Y37.743 E1.52743
G1 X155.98 Y37.048 E1.54553
G1 X156.655 Y36.378 E1.56342
G1 X157.476 Y35.522 E1.58573
G1 X158.082 Y34.918 E1.60182
G1 X158.824 Y34.15 E1.62191
G1 X159.496 Y33.483 E1.63972
G1 X160.331 Y32.617 E1.66235
G1 X161.009 Y31.948 E1.68027
G1 X161.84 Y31.077 E1.70291
G1 X162.498 Y30.422 E1.72038
G1 X163.051 Y29.841 E1.73546
G1 X163.726 Y29.172 E1.75334
G1 X164.623 Y28.241 E1.77766
G1 X165.279 Y27.588 E1.79507
G1 X166.123 Y26.716 E1.8179
G1 X166.782 Y26.061 E1.83538
G1 X167.353 Y25.466 E1.85089
G1 X168.094 Y24.722 E1.87064
G1 X168.265 Y24.72 E1.87386
G1 X168.326 Y24.781 E1.87548
G1 X168.072 Y25.074 E1.88277
G1 X166.729 Y26.891 E1.92528
G1 X166.909 Y27.144 E1.93112
G1 X166.231 Y27.921 E1.95051
G1 X165.873 Y28.376 E1.9614
G1 X165.313 Y29.133 E1.97912
G1 X165.067 Y29.552 E1.98826
G1 X165.413 Y29.982 E1.99864
G1 X165.781 Y29.862 E2.00592
G1 X166.608 Y29.241 E2.02537
G1 X166.964 Y28.997 E2.03349
G1 X168.062 Y28.063 E2.06061
G1 X168.761 Y27.846 E2.07437
G1 X170.259 Y26.713 E2.1097
G1 X172.82 Y29.273 E2.17782
G1 X175.307 Y31.763 E2.24402
G1 X175.304 Y31.857 E2.24579
G1 X174.092 Y33.014 E2.27731
G1 X171.733 Y35.196 E2.33775
G1 X171.469 Y35.476 E2.34499
G1 X167.721 Y38.998 E2.44174
G1 X162.151 Y44.255 E2.58581
G1 X158.481 Y47.7 E2.68049
G1 X158.323 Y47.869 E2.68484
G1 X155.233 Y50.802 E2.76498
G1 X154.883 Y51.108 E2.77373
G1 X151.337 Y54.41 E2.86487
G1 X151.294 Y54.462 E2.86614
G1 X148.777 Y56.854 E2.93146
G1 X148.702 Y56.914 E2.93326
G1 X148.375 Y57.227 E2.94178
G1 X146.266 Y59.168 E2.9957
G1 X146 Y59.463 E3.00317
G1 X142.846 Y62.413 E3.0844
G1 X142.619 Y62.646 E3.09052
G1 X140.769 Y64.383 E3.13826
G1 X140.66 Y64.499 E3.14125
G1 X138.044 Y66.953 E3.20872
G1 X137.906 Y67.091 E3.21239
G1 X135.239 Y69.622 E3.28155
G1 X135.009 Y69.826 E3.28734
G1 X133.394 Y71.358 E3.32921
G1 X133.203 Y71.524 E3.33397
G1 X132.875 Y71.844 E3.34259
G1 X132.549 Y72.11 E3.35051
G1 X126.223 Y78.135 E3.51484
G1 X125.926 Y78.395 E3.52226
G1 X121.954 Y82.19 E3.6256
G1 X121.633 Y82.466 E3.63356
G1 X121.233 Y82.86 E3.64412
G1 X118.385 Y85.531 E3.71757
G1 X118.189 Y85.748 E3.72307
G1 X114.865 Y88.858 E3.80869
G1 X114.671 Y89.073 E3.81414
G1 X114.352 Y89.374 E3.82239
G1 X114.332 Y89.383 E3.8228
G1 X111.06 Y92.451 E3.90718
G1 X110.869 Y92.893 E3.91623
G1 X110.869 Y94.737 E3.95092
G1 X108.63 Y94.737 E3.99304
G1 X104.856 Y98.346 E4.09126
G1 X104.689 Y98.489 E4.0954
G1 X103.185 Y99.902 E4.13422
G1 X103.083 Y100.011 E4.13703
G1 X102.156 Y100.903 E4.16123
G1 X102.005 Y101.038 E4.16504
G1 X97.917 Y104.945 E4.2714
G1 X97.729 Y105.386 E4.28042
G1 X97.729 Y107.256 E4.3156
G1 X95.493 Y107.256 E4.35766
G1 X91.961 Y110.657 E4.44989
G1 X91.637 Y110.986 E4.45858
G1 X90.044 Y112.508 E4.50002
G1 X89.855 Y112.949 E4.50905
G1 X89.855 Y114.781 E4.54351
G1 X88.837 Y114.781 E4.56266
G1 X88.438 Y115.18 E4.57327
G1 X88.438 Y116.247 E4.59334
G1 X87.944 Y116.73 E4.60634
G1 X86.97 Y116.73 E4.62466
G1 X86.571 Y117.129 E4.63527
G1 X86.571 Y117.925 E4.65025
G1 X86.525 Y117.925 E4.65111
G1 X86.126 Y118.324 E4.66173
G1 X86.126 Y118.452 E4.66413
G1 X84.066 Y120.458 E4.71822
G1 X81.766 Y120.458 E4.76148
G1 X71.161 Y130.578 E5.03722
G1 X67.592 Y134.021 E5.13051
G1 X67.527 Y134.104 E5.13249
G1 X67.365 Y134.257 E5.13668
G1 X67.146 Y134.485 E5.14263
G1 X66.899 Y134.719 E5.14903
G1 X66.544 Y134.969 E5.1572
G1 X64.091 Y137.421 E5.22244
G1 X63.723 Y137.826 E5.23273
G1 X63.141 Y138.441 E5.24866
G1 X63.057 Y138.441 E5.25024
G1 X62.273 Y139.213 E5.27094
G1 X62.259 Y139.213 E5.2712
G1 X45.681 Y155.315 E5.70592
G1 X35.055 Y165.62 E5.98436
G1 X34.869 Y166.063 E5.9934
G1 X34.869 Y167.932 E6.02856
G1 X32.682 Y167.932 E6.0697
G1 X28.562 Y171.938 E6.17779
G1 X28.388 Y171.938 E6.18106
G1 X26.049 Y169.598 E6.2433
G1 X26.049 Y169.44 E6.24627
G1 X28.05 Y167.371 E6.30041
G1 X29.116 Y166.305 E6.32877
G1 X29.268 Y166.14 E6.33299
G1 X29.84 Y165.569 E6.34819
G1 X30.253 Y165.104 E6.35989
G1 X30.874 Y164.455 E6.37679
G1 X39.828 Y155.378 E6.61663
G1 X42.162 Y153.036 E6.67882
G1 X42.63 Y152.531 E6.69177
G1 X42.88 Y152.289 E6.69832
G1 X43.778 Y151.354 E6.72271
G1 X45.627 Y149.503 E6.77192
G1 X46.033 Y149.064 E6.78317
G1 X47.675 Y147.419 E6.82689
G1 X48.01 Y147.055 E6.83619
G1 X49.363 Y145.695 E6.87228
G1 X49.852 Y145.184 E6.88558
G1 X51.104 Y143.931 E6.9189
G1 X51.461 Y143.536 E6.92892
G1 X52.846 Y142.144 E6.96586
G1 X53.339 Y141.609 E6.97954
G1 X53.698 Y141.258 E6.98898
G1 X56.236 Y138.659 E7.05732
G1 X58.058 Y136.836 E7.1058
G1 X58.391 Y136.476 E7.11502
G1 X59.836 Y135.029 E7.15349
G1 X60.183 Y134.653 E7.16312
G1 X61.476 Y133.338 E7.19781
G1 X61.964 Y132.857 E7.21069
G1 X63.394 Y131.378 E7.24939
G1 X64.405 Y130.367 E7.27629
G1 X64.703 Y130.039 E7.28462
G1 X66.191 Y128.521 E7.32461
G1 X68.478 Y126.227 E7.38554
G1 X68.651 Y126.034 E7.39042
G1 X71.336 Y123.339 E7.46198
G1 X71.674 Y122.944 E7.47176
G1 X72.518 Y122.076 E7.49453
G1 X73.573 Y121.022 E7.52258
G1 X74.022 Y120.548 E7.53486
G1 X75.404 Y119.158 E7.57173
G1 X75.671 Y118.867 E7.57916
G1 X77.203 Y117.333 E7.61994
G1 X77.58 Y116.924 E7.63041
G1 X78.778 Y115.693 E7.66272
G1 X80.708 Y113.762 E7.71407
G1 X81.066 Y113.379 E7.72393
G1 X82.439 Y112.006 E7.76046
G1 X82.754 Y111.657 E7.7693
G1 X83.456 Y110.963 E7.78787
G1 X83.885 Y110.491 E7.79987
G1 X85.921 Y108.457 E7.85401
G1 X86.148 Y108.196 E7.86051
G1 X88.041 Y106.267 E7.91135
G1 X89.283 Y105.022 E7.94443
G1 X89.647 Y104.627 E7.95453
G1 X90.733 Y103.542 E7.98341
G1 X91.082 Y103.159 E7.99316
G1 X91.958 Y102.284 E8.01645
G1 X92.252 Y101.963 E8.02464
G1 X94.554 Y99.657 E8.08593
G1 X94.861 Y99.32 E8.0945
G1 X96.232 Y97.949 E8.13097
G1 X96.545 Y97.599 E8.13981
G1 X97.942 Y96.198 E8.17702
G1 X98.429 Y95.674 E8.19048
G0 F2400 X98.679 Y95.653
G1 F1200 X98.679 Y103.996 E8.34742
G0 F2400 X98.66 Y104.013
G1 F1200 X90.489 Y104.013 E8.50112
G0 F2400 X90.678 Y103.823
G1 F1200 X90.678 Y111.681 E8.64893
G0 F2400 X90.329 Y112.014
G1 F1200 X82.647 Y112.014 E8.79343
G0 F2400 X82.677 Y111.98
G1 F1200 X82.677 Y120.298 E8.9499
G0 F2400 X84.29 Y120.015
G1 F1200 X74.777 Y120.015 E9.12884
G0 F2400 X74.676 Y120.116
G1 F1200 X74.676 Y127.004 E9.25841
G0 F2400 X73.613 Y128.016
G1 F1200 X66.919 Y128.016 E9.38433
G0 F2400 X66.675 Y128.261
G1 F1200 X66.675 Y134.681 E9.50509
G0 F2400 X68.056 Y133.35
G1 F1200 X61.691 Y133.35 E9.62482
G0 F2400 X61.341 Y133.703
G1 F1200 X61.341 Y139.883 E9.74107
G0 F2400 X62.581 Y138.684
G1 F1200 X56.435 Y138.684 E9.85668
G0 F2400 X56.007 Y139.121
G1 F1200 X56.007 Y145.064 E9.96847
G0 F2400 X57.082 Y144.018
G1 F1200 X51.24 Y144.018 E10.07836
G0 F2400 X50.673 Y144.588
G1 F1200 X50.673 Y150.245 E10.18477
G0 F2400 X51.59 Y149.352
G1 F1200 X45.984 Y149.352 E10.29023
G0 F2400 X45.339 Y150.017
G1 F1200 X45.339 Y155.425 E10.39195
G0 F2400 X46.099 Y154.686
G1 F1200 X40.743 Y154.686 E10.4927
G0 F2400 X40.005 Y155.426
G1 F1200 X40.005 Y160.598 E10.58999
G0 F2400 X40.599 Y160.02
G1 F1200 X35.472 Y160.02 E10.68643
G0 F2400 X34.671 Y160.832
G1 F1200 X34.671 Y167.772 E10.81698
G0 F2400 X32.36 Y168.021
G1 F1200 X27.643 Y168.021 E10.90571
G0 F2400 X26.67 Y169.027
G1 F1200 X26.67 Y169.994 E10.9239
G0 F2400 X27.362 Y170.688
G1 F1200 X29.618 Y170.688 E10.96633
G0 F2400 X29.337 Y170.963
G1 F1200 X29.337 Y166.3 E11.05405
G0 F2400 X30.245 Y165.354
G1 F1200 X35.098 Y165.354 E11.14534
G0 F2400 X37.338 Y163.184
G1 F1200 X37.338 Y158.129 E11.24042
G0 F2400 X38.103 Y157.353
G1 F1200 X43.349 Y157.353 E11.3391
G0 F2400 X42.672 Y158.012
G1 F1200 X42.672 Y152.721 E11.43863
G0 F2400 X43.36 Y152.019
G1 F1200 X48.844 Y152.019 E11.54179
G0 F2400 X48.006 Y152.835
G1 F1200 X48.006 Y147.294 E11.64602
G0 F2400 X48.603 Y146.685
G1 F1200 X54.336 Y146.685 E11.75386
G0 F2400 X53.34 Y147.654
G1 F1200 X53.34 Y141.843 E11.86317
G0 F2400 X53.829 Y141.351
G1 F1200 X59.828 Y141.351 E11.97601
G0 F2400 X58.674 Y142.473
G1 F1200 X58.674 Y136.418 E12.08991
G0 F2400 X59.075 Y136.017
G1 F1200 X65.267 Y136.017 E12.20638
G0 F2400 X64.008 Y137.278
G1 F1200 X64.008 Y130.99 E12.32466
G0 F2400 X64.314 Y130.683
G1 F1200 X70.821 Y130.683 E12.44706
G0 F2400 X72.009 Y129.549
G1 F1200 X72.009 Y122.827 E12.57351
G0 F2400 X72.15 Y122.682
G1 F1200 X79.203 Y122.682 E12.70618
G0 F2400 X80.01 Y121.913
G1 F1200 X80.01 Y114.686 E12.84212
G0 F2400 X80.015 Y114.681
G1 F1200 X88.71 Y114.681 E13.00568
G0 F2400 X88.011 Y116.441
G1 F1200 X88.011 Y106.525 E13.19221
G0 F2400 X87.86 Y106.68
G1 F1200 X97.569 Y106.68 E13.37484
G0 F2400 X96.012 Y107.096
G1 F1200 X96.012 Y98.395 E13.53851
G0 F2400 X95.728 Y98.679
G1 F1200 X104.252 Y98.679 E13.69885
G0 F2400 X104.013 Y98.904
G1 F1200 X104.013 Y90.221 E13.86218
G0 F2400 X103.578 Y90.678
G1 F1200 X112.716 Y90.678 E14.03407
G0 F2400 X112.014 Y91.337
G1 F1200 X112.014 Y82.065 E14.20848
G0 F2400 X111.423 Y82.677
G1 F1200 X121.191 Y82.677 E14.39223
G0 F2400 X120.015 Y83.785
G1 F1200 X120.015 Y73.926 E14.57768
G0 F2400 X121.925 Y72.009
G1 F1200 X132.422 Y72.009 E14.77513
G0 F2400 X133.35 Y71.18
G1 F1200 X133.35 Y60.329 E14.97925
G0 F2400 X132.362 Y61.341
G1 F1200 X143.757 Y61.341 E15.19359
G0 F2400 X144.018 Y61.099
G1 F1200 X144.018 Y49.473 E15.41228
G0 F2400 X145.451 Y48.006
G1 F1200 X157.943 Y48.006 E15.64727
G0 F2400 X157.353 Y48.568
G1 F1200 X157.353 Y35.882 E15.8859
G0 F2400 X158.543 Y34.671
G1 F1200 X172.064 Y34.671 E16.14023
G0 F2400 X173.355 Y33.478
G1 F1200 X173.355 Y30.036 E16.20498
G0 F2400 X172.658 Y29.337
G1 F1200 X166.75 Y29.337 E16.31611
G0 F2400 X165.354 Y28.809
G1 F1200 X165.354 Y27.738 E16.33626
G0 F2400 X166.396 Y26.67
G1 F1200 X166.693 Y26.67 E16.34185
G0 F2400 X168.021 Y28.308
G1 F1200 X168.021 Y38.496 E16.53349
G0 F2400 X169.252 Y37.338
G1 F1200 X155.924 Y37.338 E16.78419
G0 F2400 X154.686 Y38.592
G1 F1200 X154.686 Y51.072 E17.01895
G0 F2400 X155.135 Y50.673
G1 F1200 X142.828 Y50.673 E17.25045
G0 F2400 X141.351 Y52.176
G1 F1200 X141.351 Y63.617 E17.46566
G0 F2400 X140.933 Y64.008
G1 F1200 X129.758 Y64.008 E17.67587
G0 F2400 X128.016 Y65.783
G1 F1200 X128.016 Y76.207 E17.87195
G0 F2400 X126.821 Y77.343
G1 F1200 X116.652 Y77.343 E18.06324
G0 F2400 X117.348 Y76.624
G1 F1200 X117.348 Y86.316 E18.24555
G0 F2400 X118.35 Y85.344
G1 F1200 X108.814 Y85.344 E18.42493
G0 F2400 X109.347 Y84.79
G1 F1200 X109.347 Y94.577 E18.60903
G0 F2400 X110.709 Y93.345
G1 F1200 X100.956 Y93.345 E18.79249
G0 F2400 X101.346 Y92.954
G1 F1200 X101.346 Y101.447 E18.95224
G0 F2400 X101.451 Y101.346
G1 F1200 X93.095 Y101.346 E19.10942
G0 F2400 X93.345 Y101.094
G1 F1200 X93.345 Y109.103 E19.26008
G0 F2400 X93.091 Y109.347
G1 F1200 X85.257 Y109.347 E19.40744
G0 F2400 X85.344 Y109.259
G1 F1200 X85.344 Y118.99 E19.59049
G0 F2400 X86.411 Y117.348
G1 F1200 X77.407 Y117.348 E19.75986
G0 F2400 X77.343 Y117.416
G1 F1200 X77.343 Y124.459 E19.89234
G0 F2400 X76.408 Y125.349
G1 F1200 X69.559 Y125.349 E20.02117
G0 F2400 X69.342 Y125.567
G1 F1200 X69.342 Y132.112 E20.14429
G0 F2400 X37.848 Y162.687
G1 F1200 X32.84 Y162.687 E20.23849
G0 F2400 X32.004 Y163.535
G1 F1200 X32.004 Y168.37 E20.32944
G0 F2400 X98.334 Y96.012
G1 F1200 X107.065 Y96.012 E20.49367
G0 F2400 X106.68 Y96.381
G1 F1200 X106.68 Y87.526 E20.66024
G0 F2400 X106.197 Y88.011
G1 F1200 X115.536 Y88.011 E20.83591
G0 F2400 X114.681 Y88.824
G1 F1200 X114.681 Y79.388 E21.01341
G0 F2400 X114.062 Y80.01
G1 F1200 X124.003 Y80.01 E21.20041
G0 F2400 X122.682 Y81.274
G1 F1200 X122.682 Y71.197 E21.38996
G0 F2400 X124.515 Y69.342
G1 F1200 X135.299 Y69.342 E21.59281
G0 F2400 X136.017 Y68.66
G1 F1200 X136.017 Y57.609 E21.80069
G0 F2400 X137.592 Y56.007
G1 F1200 X149.434 Y56.007 E22.02344
G0 F2400 X149.352 Y56.087
G1 F1200 X149.352 Y44.029 E22.25026
G0 F2400 X148.079 Y45.339
G1 F1200 X160.76 Y45.339 E22.4888
G0 F2400 X160.02 Y46.036
G1 F1200 X160.02 Y33.17 E22.73081
G0 F2400 X161.177 Y32.004
G1 F1200 X174.917 Y32.004 E22.98927
G0 F2400 X170.688 Y35.99
G1 F1200 X170.688 Y27.368 E23.15146
G0 F2400 X165.006 Y29.337
G1 F1200 X163.786 Y29.337 E23.1744
G0 F2400 X162.687 Y30.456
G1 F1200 X162.687 Y43.529 E23.42031
G0 F2400 X163.593 Y42.672
G1 F1200 X150.692 Y42.672 E23.66299
G0 F2400 X152.019 Y41.317
G1 F1200 X152.019 Y53.556 E23.89321
G0 F2400 X152.249 Y53.34
G1 F1200 X140.206 Y53.34 E24.11975
G0 F2400 X138.684 Y54.889
G1 F1200 X138.684 Y66.133 E24.33125
G0 F2400 X138.104 Y66.675
G1 F1200 X127.128 Y66.675 E24.53772
G0 F2400 X125.349 Y68.492
G1 F1200 X125.349 Y78.726 E24.73023
G0 F2400 X129.622 Y74.676
G1 F1200 X119.269 Y74.676 E24.92497
G0 F2400 X130.683 Y73.667
G1 F1200 X130.683 Y63.046 E25.12476
G0 F2400 X134.988 Y58.674
G1 F1200 X146.566 Y58.674 E25.34255
G0 F2400 X146.685 Y58.566
G1 F1200 X146.685 Y46.749 E25.56483
G0 F2400 X153.304 Y40.005
G1 F1200 X166.419 Y40.005 E25.81153
G0 F2400 X165.354 Y41.012
G1 F1200 X165.354 Y30.165 E26.01557
G1 F3000 E25.61557
;MESH:20cm_0012_rotor.stl
G0 F2400 X167.384 Y27.405
G0 X168.104 Y26.892
G0 X169.193 Y26.017
G0 X169.312 Y26.051
;TYPE:WALL-OUTER
G1 F1500 E26.01557
G1 F1200 X168.267 Y26.847 E26.04028
G1 X168.088 Y26.903 E26.04381
G1 X168.177 Y26.782 E26.04403
G1 X168.929 Y25.765 E26.06782
G1 X168.974 Y25.713 E26.06912
G1 X169.312 Y26.051 E26.07811
G0 F2400 X169.153 Y26.172
G0 X169.201 Y26.068
G1 F3000 E25.67811
;MESH:NONMESH
G0 F2400 X169.162 Y26.041
G0 X168.104 Y26.892
G0 X167.384 Y27.405
G0 X165.354 Y30.697
;TIME_ELAPSED:86.235655
;LAYER:1
M140 S100
M106 S255
G0 F4800 X165.354 Y30.697 Z0.5
;TYPE:SUPPORT
G1 F1500 E26.07811
G1 F2400 X164.795 Y31.171 E26.0873
G1 X164.157 Y31.608 E26.097
G1 X163.52 Y32.093 E26.10704
G1 X163.028 Y31.653 E26.11531
G1 X163.354 Y31.105 E26.12331
G1 X163.709 Y30.626 E26.13079
