;FLAVOR:Marlin
;TIME:5188
;Filament used: 1.50474m
;Layer height: 0.15
;Generated with Cura_SteamEngine 3.6.0
M140 S80
M105
M190 S80
M104 S243
M105
M109 S243
M82 ;absolute extrusion mode
;===========

G21 ;metric values
G90 ;absolute positioning
M82 ;set extruder to absolute mode
M107 ;start with the fan off
G28 X0 Y0 ;move X/Y to min endstops
G28 Z0 ;move Z to min endstops
G1 Z15.0 F{travel_speed} ;move the platform down 15mm
G92 E0 ;zero the extruded length
G1 F140 E30 ;extrude 3mm of feed stock
G1 X20 Y0 F140 E30
G92 E0 ;zero the extruded length again
G1 F{travel_speed}
M117 Printing...
G92 E0
G1 F3000 E-0.4
;LAYER_COUNT:40
;LAYER:0
M107
G0 F2400 X24.594 Y27.335 Z0.3
;TYPE:SKIRT
G1 F1500 E0
G1 F1200 X27.711 Y24.193 E0.08325
G1 X32.623 Y18.955 E0.21833
G1 X32.686 Y18.889 E0.22004
G1 X43.027 Y8.476 E0.4961
G1 X43.411 Y8.147 E0.50561
G1 X43.841 Y7.882 E0.51511
G1 X44.308 Y7.688 E0.52462
G1 X44.8 Y7.57 E0.53414
G1 X45.382 Y7.532 E0.54511
G1 X45.688 Y7.54 E0.55087
G1 X46.19 Y7.593 E0.56036
G1 X46.679 Y7.725 E0.56989
G1 X47.14 Y7.932 E0.5794
G1 X47.563 Y8.209 E0.58891
G1 X47.981 Y8.597 E0.59964
G1 X91.724 Y57.131 E1.82867
G1 X100.591 Y66.94 E2.0774
G1 X142.823 Y113.386 E3.25824
G1 X158.736 Y130.579 E3.69892
G1 X181.39 Y154.586 E4.31982
G1 X181.515 Y154.725 E4.32333
G1 X184.977 Y158.852 E4.42466
G1 X185.27 Y159.264 E4.43417
G1 X185.495 Y159.717 E4.44369
G1 X185.645 Y160.2 E4.4532
G1 X185.718 Y160.7 E4.46271
G1 X185.722 Y161.046 E4.46922
G1 X185.709 Y161.35 E4.47494
G1 X185.648 Y161.852 E4.48445
G1 X185.508 Y162.337 E4.49395
G1 X185.293 Y162.795 E4.50346
G1 X185.01 Y163.214 E4.51298
G1 X184.785 Y163.465 E4.51932
G1 X173.535 Y174.822 E4.82002
G1 X169.71 Y178.902 E4.92522
G1 X167.83 Y181.091 E4.97949
G1 X167.483 Y181.437 E4.98871
G1 X163.94 Y184.469 E5.07643
G1 X163.531 Y184.767 E5.08595
G1 X163.08 Y184.996 E5.09546
G1 X162.599 Y185.151 E5.10497
G1 X161.859 Y185.238 E5.11899
G1 X161.538 Y185.238 E5.12502
G1 X161.034 Y185.198 E5.13453
G1 X160.695 Y185.125 E5.14106
G1 X159.211 Y184.72 E5.16999
G1 X159.195 Y184.716 E5.1703
G1 X157.867 Y184.346 E5.19623
G1 X157.392 Y184.172 E5.20575
G1 X156.951 Y183.926 E5.21525
G1 X156.554 Y183.613 E5.22476
G1 X156.148 Y183.159 E5.23622
G1 X153.947 Y180.166 E5.3061
G1 X150.484 Y175.886 E5.40966
G1 X146.81 Y171.836 E5.51252
G1 X139.637 Y164.785 E5.70172
G1 X137.535 Y162.888 E5.75498
G1 X137.487 Y162.843 E5.75622
G1 X131.231 Y156.959 E5.91777
G1 X122.69 Y149.113 E6.13593
G1 X122.668 Y149.092 E6.1365
G1 X114.041 Y141.016 E6.35879
G1 X110.568 Y137.876 E6.44686
G1 X108.576 Y136.179 E6.49609
G1 X108.486 Y136.099 E6.49835
G1 X104.926 Y132.827 E6.58931
G1 X100.389 Y128.854 E6.70275
G1 X100.343 Y128.814 E6.70389
G1 X88.444 Y117.985 E7.00654
G1 X79.622 Y110.093 E7.22919
G1 X74.798 Y106.002 E7.34817
G1 X74.752 Y105.962 E7.34932
G1 X58.509 Y91.648 E7.75657
G1 X56.024 Y89.605 E7.81708
G1 X55.946 Y89.539 E7.81901
G1 X52.339 Y86.376 E7.90925
G1 X52.228 Y86.274 E7.91208
G1 X50.88 Y84.974 E7.94731
G1 X46.167 Y80.733 E8.06657
G1 X40.621 Y76.136 E8.20207
G1 X40.563 Y76.086 E8.20352
G1 X8.668 Y48.342 E8.9987
G1 X8.314 Y47.981 E9.00821
G1 X8.021 Y47.569 E9.01772
G1 X7.797 Y47.116 E9.02722
G1 X7.647 Y46.633 E9.03674
G1 X7.57 Y46.03 E9.04817
G1 X7.559 Y45.685 E9.05467
G1 X7.582 Y45.18 E9.06417
G1 X7.686 Y44.685 E9.07369
G1 X7.865 Y44.212 E9.0832
G1 X8.117 Y43.774 E9.09271
G1 X8.485 Y43.329 E9.10357
G1 X20.207 Y31.514 E9.41664
G1 X20.272 Y31.451 E9.41834
G1 X24.594 Y27.335 E9.53061
G0 F2400 X19.166 Y37.359
;TYPE:SUPPORT
G1 F1200 X19.166 Y37.399 E9.53136
G1 X34.203 Y52.994 E9.93887
G1 X61.187 Y75.713 E10.6024
G1 X69.267 Y83.369 E10.81178
G1 X69.781 Y83.081 E10.82287
G1 X67.219 Y71.053 E11.05419
G1 X67.069 Y69.46 E11.08429
G1 X67.023 Y69.348 E11.08657
G1 X64.011 Y65.717 E11.17531
G1 X63.478 Y64.806 E11.19517
G1 X40.324 Y35.126 E11.90326
G1 X34.956 Y21.659 E12.17596
G1 X34.766 Y21.62 E12.17961
G1 X45.376 Y10.924 E12.463
G1 X45.545 Y10.928 E12.46618
G1 X46.181 Y11.645 E12.48421
G1 X47.406 Y13.154 E12.52077
G1 X48.504 Y14.274 E12.55028
G1 X49.855 Y15.709 E12.58735
G1 X50.723 Y16.683 E12.61189
G1 X51.183 Y17.221 E12.62521
G1 X52.18 Y18.451 E12.65499
G1 X53.343 Y19.643 E12.68632
G1 X54.438 Y20.805 E12.71635
G1 X55.045 Y21.48 E12.73342
G1 X55.991 Y22.554 E12.76035
G1 X56.978 Y23.773 E12.78985
G1 X58.06 Y24.877 E12.81893
G1 X59.195 Y26.087 E12.85014
G1 X60.403 Y27.442 E12.88428
G1 X61.476 Y28.712 E12.91556
G1 X61.715 Y29.013 E12.92279
G1 X63.315 Y30.689 E12.96637
G1 X64.618 Y32.108 E13.00261
G1 X65.377 Y32.974 E13.02427
G1 X66.45 Y34.249 E13.05562
G1 X68.283 Y36.191 E13.10585
G1 X69.481 Y37.51 E13.13937
G1 X70.359 Y38.521 E13.16456
G1 X71.393 Y39.751 E13.19478
G1 X72.524 Y40.921 E13.22539
G1 X72.994 Y41.417 E13.23825
G1 X74.24 Y42.79 E13.27312
G1 X75.11 Y43.79 E13.29806
G1 X76.035 Y44.898 E13.32521
G1 X77.628 Y46.558 E13.36848
G1 X78.055 Y47.028 E13.38043
G1 X79.424 Y48.555 E13.41901
G1 X80.014 Y49.244 E13.43607
G1 X80.625 Y49.98 E13.45406
G1 X82.588 Y52.053 E13.50776
G1 X83.1 Y52.615 E13.52207
G1 X84.397 Y54.085 E13.55894
G1 X85.208 Y55.041 E13.58252
G1 X86.239 Y56.131 E13.61075
G1 X88.061 Y58.118 E13.66146
G1 X89.196 Y59.406 E13.69375
G1 X89.778 Y60.098 E13.71076
G1 X91.809 Y62.275 E13.76676
G1 X92.672 Y63.223 E13.79088
G1 X94.391 Y65.184 E13.83993
G1 X96.553 Y67.522 E13.89983
G1 X97.484 Y68.555 E13.92599
G1 X98.319 Y69.501 E13.94973
G1 X99.085 Y70.396 E13.97189
G1 X100.309 Y71.691 E14.0054
G1 X101.715 Y73.221 E14.04449
G1 X103.38 Y75.126 E14.09208
G1 X104.623 Y76.59 E14.12821
G1 X104.951 Y76.821 E14.13576
G1 X105.226 Y77.113 E14.1433
G1 X106.739 Y78.791 E14.1858
G1 X107.497 Y79.653 E14.20739
G1 X108.108 Y80.364 E14.22503
G1 X109.391 Y81.89 E14.26253
G1 X109.737 Y82.093 E14.27008
G1 X110.557 Y82.994 E14.29299
G1 X111.688 Y84.272 E14.32509
G1 X113.108 Y85.909 E14.36586
G1 X114.194 Y87.197 E14.39755
G1 X114.531 Y87.389 E14.40484
G1 X116.141 Y89.175 E14.45007
G1 X117.353 Y90.573 E14.48488
G1 X118.651 Y92.128 E14.52298
G1 X119.01 Y92.314 E14.53059
G1 X120.683 Y94.178 E14.5777
G1 X121.73 Y95.395 E14.6079
G1 X122.991 Y96.911 E14.64499
G1 X123.361 Y97.094 E14.65276
G1 X125.026 Y98.955 E14.69973
G1 X127.325 Y101.61 E14.76579
G1 X127.675 Y101.835 E14.77362
G1 X127.941 Y102.119 E14.78094
G1 X129.137 Y103.468 E14.81485
G1 X130.558 Y105.105 E14.85563
G1 X131.729 Y106.475 E14.88953
G1 X132.102 Y106.682 E14.89755
G1 X132.217 Y106.802 E14.90068
G1 X132.94 Y107.607 E14.92103
G1 X134.585 Y109.483 E14.96797
G1 X136.162 Y111.339 E15.01378
G1 X136.53 Y111.526 E15.02154
G1 X138.402 Y113.633 E15.07456
G1 X140.374 Y115.915 E15.13129
G1 X140.728 Y116.109 E15.13889
G1 X141.182 Y116.61 E15.1516
G1 X143.089 Y118.776 E15.20589
G1 X144.247 Y120.154 E15.23975
G1 X144.61 Y120.332 E15.24735
G1 X146.076 Y121.958 E15.28853
G1 X148.411 Y124.635 E15.35535
G1 X148.757 Y124.817 E15.36271
G1 X150.113 Y126.333 E15.40097
G1 X151.156 Y127.519 E15.43068
G1 X152.467 Y129.057 E15.46869
G1 X152.826 Y129.222 E15.47612
G1 X153.362 Y129.807 E15.49105
G1 X156.226 Y133.024 E15.57207
G1 X156.568 Y133.22 E15.57948
G1 X158.596 Y135.474 E15.63652
G1 X160.148 Y137.265 E15.6811
G1 X160.517 Y137.443 E15.6888
G1 X161.857 Y138.9 E15.72604
G1 X163.775 Y141.098 E15.78091
G1 X164.129 Y141.294 E15.78852
G1 X164.609 Y141.807 E15.80174
G1 X166.19 Y143.538 E15.84584
G1 X167.818 Y145.393 E15.89226
G1 X168.179 Y145.57 E15.89983
G1 X168.683 Y146.11 E15.91372
G1 X169.972 Y147.52 E15.94966
G1 X171.716 Y149.516 E15.99952
G1 X172.092 Y149.711 E16.00748
G1 X173.132 Y150.793 E16.03571
G1 X174.204 Y151.964 E16.06558
G1 X175.474 Y153.407 E16.10174
G1 X176.421 Y154.563 E16.12985
G1 X176.863 Y154.772 E16.13904
G1 X176.878 Y154.772 E16.13932
G1 X177.028 Y154.903 E16.14307
G1 X177.419 Y155.282 E16.15331
G1 X178.363 Y156.288 E16.17926
G1 X180.337 Y158.537 E16.23555
G1 X182.333 Y160.975 E16.29482
G1 X182.325 Y161.134 E16.29782
G1 X179.113 Y164.367 E16.38354
G1 X178.795 Y164.695 E16.39214
G1 X166.9 Y176.684 E16.70982
G1 X166.805 Y176.795 E16.71257
G1 X166.015 Y177.595 E16.73372
G1 X165.198 Y178.412 E16.75545
G1 X165.198 Y178.824 E16.7632
G1 X165.036 Y178.824 E16.76625
G1 X164.594 Y179.008 E16.77526
G1 X161.779 Y181.848 E16.85048
G1 X161.616 Y181.848 E16.85354
G1 X160.837 Y181.075 E16.87418
G1 X158.922 Y181.075 E16.91021
G1 X158.922 Y179.434 E16.94107
G1 X158.74 Y178.993 E16.95005
G1 X157.957 Y178.211 E16.97087
G1 X157.828 Y177.831 E16.97841
G1 X142.678 Y162.94 E17.37801
G1 X140.07 Y160.389 E17.44663
G1 X139.69 Y160.266 E17.45414
G1 X135.392 Y156.086 E17.56692
G1 X134.495 Y155.228 E17.59027
G1 X132.897 Y153.681 E17.63211
G1 X132.514 Y153.552 E17.63971
G1 X129.401 Y150.594 E17.72049
G1 X127.178 Y148.45 E17.77858
G1 X126.803 Y148.326 E17.78601
G1 X125.901 Y147.484 E17.80922
G1 X125.222 Y146.826 E17.82701
G1 X119.51 Y141.484 E17.97412
G1 X116.719 Y138.86 E18.04618
G1 X114.331 Y136.665 E18.10719
G1 X111.332 Y133.867 E18.18435
G1 X110.951 Y133.749 E18.19185
G1 X105.485 Y128.722 E18.33154
G1 X103.571 Y126.939 E18.38074
G1 X103.193 Y126.815 E18.38823
G1 X102.227 Y125.937 E18.41278
G1 X101.553 Y125.307 E18.43014
G1 X99.184 Y123.168 E18.49018
G1 X91.172 Y115.893 E18.69375
G1 X91.018 Y115.525 E18.70125
G1 X87.911 Y112.726 E18.77991
G1 X87.529 Y112.612 E18.78741
G1 X81.383 Y107.119 E18.94247
G1 X77.868 Y103.958 E19.03139
G1 X77.487 Y103.841 E19.03889
G1 X74.26 Y100.992 E19.11986
G1 X68.792 Y96.124 E19.25757
G1 X59.176 Y87.65 E19.49867
G1 X58.798 Y87.514 E19.50622
G1 X54.614 Y83.863 E19.61068
G1 X54.461 Y83.498 E19.61812
G1 X53.218 Y82.413 E19.64916
G1 X48.184 Y77.976 E19.77538
G1 X47.878 Y77.722 E19.78286
G1 X46.057 Y76.138 E19.82826
G1 X43.759 Y74.125 E19.88573
G1 X43.369 Y74.021 E19.89332
G1 X31.94 Y64.067 E20.17841
G1 X29.285 Y61.744 E20.24477
G1 X27.424 Y60.136 E20.29104
G1 X16.888 Y50.961 E20.55384
G1 X10.953 Y45.836 E20.70134
G1 X10.946 Y45.662 E20.70462
G1 X15.148 Y41.417 E20.81697
G1 X15.545 Y41.025 E20.82747
G1 X15.793 Y40.765 E20.83423
G1 X19.166 Y37.359 E20.9244
G0 F2400 X18.669 Y38.087
G1 F1200 X18.669 Y52.299 E21.19173
G0 F2400 X19.862 Y53.34
G1 F1200 X34.367 Y53.34 E21.46458
G0 F2400 X34.671 Y53.597
G1 F1200 X34.671 Y66.233 E21.70227
G0 F2400 X35.177 Y66.675
G1 F1200 X50.204 Y66.675 E21.98494
G0 F2400 X50.673 Y67.07
G1 F1200 X50.673 Y79.955 E22.22731
G0 F2400 X50.733 Y80.01
G1 F1200 X65.489 Y80.01 E22.50488
G0 F2400 X66.675 Y81.133
G1 F1200 X66.675 Y94.044 E22.74774
G0 F2400 X65.88 Y93.345
G1 F1200 X119.721 Y93.345 E23.76052
G0 F2400 X120.015 Y93.674
G1 F1200 X120.015 Y141.736 E24.66459
G0 F2400 X119.601 Y141.351
G1 F1200 X163.901 Y141.351 E25.4979
G0 F2400 X162.687 Y140.095
G1 F1200 X162.687 Y180.705 E26.2618
G0 F2400 X162.04 Y181.356
G1 F1200 X161.347 Y181.356 E26.27483
G0 F2400 X160.02 Y180.915
G1 F1200 X160.02 Y137.361 E27.09411
G0 F2400 X158.856 Y136.017
G1 F1200 X113.869 Y136.017 E27.94034
G0 F2400 X114.681 Y136.769
G1 F1200 X114.681 Y87.796 E28.86155
G0 F2400 X114.876 Y88.011
G1 F1200 X59.827 Y88.011 E29.89705
G0 F2400 X58.674 Y87.194
G1 F1200 X58.674 Y73.807 E30.14887
G0 F2400 X59.707 Y74.676
G1 F1200 X44.629 Y74.676 E30.43249
G0 F2400 X45.339 Y75.296
G1 F1200 X45.339 Y62.579 E30.67171
G0 F2400 X43.869 Y61.341
G1 F1200 X29.062 Y61.341 E30.95024
G0 F2400 X29.337 Y61.577
G1 F1200 X29.337 Y48.179 E31.20226
G0 F2400 X29.171 Y48.006
G1 F1200 X13.71 Y48.006 E31.49309
G0 F2400 X13.335 Y47.68
G1 F1200 X13.335 Y43.476 E31.57217
G0 F2400 X14.131 Y42.672
G1 F1200 X24.027 Y42.672 E31.75832
G0 F2400 X24.003 Y42.647
G1 F1200 X24.003 Y56.944 E32.02725
G0 F2400 X22.925 Y56.007
G1 F1200 X37.534 Y56.007 E32.30206
G0 F2400 X37.338 Y55.843
G1 F1200 X37.338 Y68.556 E32.54119
G0 F2400 X38.239 Y69.342
G1 F1200 X53.371 Y69.342 E32.82584
G0 F2400 X53.34 Y69.316
G1 F1200 X53.34 Y82.305 E33.07017
G0 F2400 X53.764 Y82.677
G1 F1200 X68.305 Y82.677 E33.34369
G0 F2400 X69.342 Y83.509
G1 F1200 X69.342 Y96.399 E33.58616
G0 F2400 X68.906 Y96.012
G1 F1200 X122.036 Y96.012 E34.58556
G0 F2400 X122.682 Y96.79
G1 F1200 X122.682 Y144.23 E35.47794
G0 F2400 X122.453 Y144.018
G1 F1200 X166.399 Y144.018 E36.30459
G0 F2400 X165.354 Y142.861
G1 F1200 X165.354 Y178.029 E36.96612
G0 F2400 X164.944 Y178.689
G1 F1200 X158.662 Y178.689 E37.08428
G0 F2400 X157.353 Y177.14
G1 F1200 X157.353 Y134.332 E37.88953
G0 F2400 X156.47 Y133.35
G1 F1200 X110.752 Y133.35 E38.74951
G0 F2400 X112.014 Y134.284
G1 F1200 X112.014 Y84.893 E39.67858
G0 F2400 X112.406 Y85.344
G1 F1200 X56.553 Y85.344 E40.7292
G0 F2400 X56.007 Y84.865
G1 F1200 X56.007 Y71.561 E40.97946
G0 F2400 X56.539 Y72.009
G1 F1200 X41.301 Y72.009 E41.2661
G0 F2400 X40.005 Y70.878
G1 F1200 X40.005 Y58.088 E41.50668
G0 F2400 X40.702 Y58.674
G1 F1200 X25.988 Y58.674 E41.78346
G0 F2400 X26.67 Y59.266
G1 F1200 X26.67 Y45.413 E42.04404
G0 F2400 X26.599 Y45.339
G1 F1200 X11.49 Y45.339 E42.32825
G0 F2400 X16.002 Y40.782
G1 F1200 X16.002 Y49.984 E42.50135
G0 F2400 X16.798 Y50.673
G1 F1200 X31.742 Y50.673 E42.78245
G0 F2400 X32.004 Y50.944
G1 F1200 X32.004 Y63.91 E43.02635
G0 F2400 X32.115 Y64.008
G1 F1200 X47.036 Y64.008 E43.30702
G0 F2400 X48.006 Y64.825
G1 F1200 X48.006 Y77.619 E43.54768
G0 F2400 X47.685 Y77.343
G1 F1200 X62.674 Y77.343 E43.82964
G0 F2400 X61.341 Y76.08
G1 F1200 X61.341 Y89.344 E44.07914
G0 F2400 X62.853 Y90.678
G1 F1200 X117.232 Y90.678 E45.10204
G0 F2400 X117.348 Y90.818
G1 F1200 X117.348 Y139.23 E46.01269
G0 F2400 X116.763 Y138.684
G1 F1200 X161.442 Y138.684 E46.85313
G0 F2400 X168.021 Y145.672
G1 F1200 X168.021 Y175.327 E47.41096
G0 F2400 X167.33 Y176.022
G1 F1200 X156.215 Y176.022 E47.62004
G0 F2400 X154.686 Y174.518
G1 F1200 X154.686 Y131.535 E48.42857
G0 F2400 X153.929 Y130.683
G1 F1200 X107.852 Y130.683 E49.29531
G0 F2400 X106.68 Y129.603
G1 F1200 X106.68 Y78.967 E50.2478
G0 F2400 X107.593 Y80.01
G1 F1200 X69.29 Y80.01 E50.9683
G0 F2400 X69.342 Y80.251
G1 F1200 X69.342 Y37.595 E51.77068
G0 F2400 X69.111 Y37.338
G1 F1200 X42.252 Y37.338 E52.27591
G0 F2400 X42.672 Y37.875
G1 F1200 X42.672 Y13.878 E52.72731
G0 F2400 X43.21 Y13.335
G1 F1200 X47.362 Y13.335 E52.80541
G0 F2400 X48.006 Y13.995
G1 F1200 X48.006 Y44.712 E53.38322
G0 F2400 X48.494 Y45.339
G1 F1200 X76.239 Y45.339 E53.90512
G0 F2400 X77.343 Y46.492
G1 F1200 X77.343 Y103.501 E54.97749
G0 F2400 X78.168 Y104.013
G1 F1200 X129.4 Y104.013 E55.94119
G0 F2400 X130.683 Y105.497
G1 F1200 X130.683 Y151.591 E56.80824
G0 F2400 X131.132 Y152.019
G1 F1200 X174.037 Y152.019 E57.61531
G0 F2400 X173.355 Y151.274
G1 F1200 X173.355 Y169.951 E57.96663
G0 F2400 X172.622 Y170.688
G1 F1200 X150.788 Y170.688 E58.37734
G0 F2400 X152.019 Y171.897
G1 F1200 X152.019 Y128.778 E59.18844
G0 F2400 X151.371 Y128.016
G1 F1200 X104.961 Y128.016 E60.06143
G0 F2400 X104.013 Y127.131
G1 F1200 X104.013 Y76.12 E61.02098
G0 F2400 X105.217 Y77.343
G1 F1200 X68.722 Y77.343 E61.70747
G0 F2400 X68.154 Y74.676
G1 F1200 X102.774 Y74.676 E62.35869
G0 F2400 X101.346 Y73.057
G1 F1200 X101.346 Y124.905 E63.33398
G0 F2400 X101.83 Y125.349
G1 F1200 X149.02 Y125.349 E64.22165
G0 F2400 X149.352 Y125.722
G1 F1200 X149.352 Y169.276 E65.04093
G0 F2400 X148.075 Y168.021
G1 F1200 X175.268 Y168.021 E65.55244
G0 F2400 X176.022 Y167.263
G1 F1200 X176.022 Y154.33 E65.79572
G0 F2400 X176.315 Y154.686
G1 F1200 X134.169 Y154.686 E66.58851
G0 F2400 X133.35 Y153.895
G1 F1200 X133.35 Y108.318 E67.44584
G0 F2400 X134.254 Y109.347
G1 F1200 X84.114 Y109.347 E68.389
G0 F2400 X85.344 Y110.445
G1 F1200 X85.344 Y55.418 E69.42409
G0 F2400 X85.904 Y56.007
G1 F1200 X56.817 Y56.007 E69.97123
G0 F2400 X56.007 Y54.969
G1 F1200 X56.007 Y22.828 E70.57582
G0 F2400 X56.982 Y24.003
G1 F1200 X36.063 Y24.003 E70.96932
G0 F2400 X35.272 Y21.336
G1 F1200 X54.701 Y21.336 E71.33479
G0 F2400 X53.34 Y19.874
G1 F1200 X53.34 Y51.55 E71.93063
G0 F2400 X52.655 Y50.673
G1 F1200 X81.062 Y50.673 E72.46498
G0 F2400 X80.01 Y49.491
G1 F1200 X80.01 Y105.669 E73.52172
G0 F2400 X81.133 Y106.68
G1 F1200 X131.771 Y106.68 E74.47425
G0 F2400 X128.016 Y102.445
G1 F1200 X128.016 Y149.036 E75.35065
G0 F2400 X128.342 Y149.352
G1 F1200 X171.36 Y149.352 E76.15985
G0 F2400 X170.688 Y148.583
G1 F1200 X170.688 Y172.639 E76.61235
G0 F2400 X169.976 Y173.355
G1 F1200 X153.501 Y173.355 E76.92226
G0 F2400 X146.685 Y166.654
