;FLAVOR:Marlin
;TIME:4375
;Filament used: 1.72162m
;Layer height: 0.2
;Generated with Cura_SteamEngine 3.6.0
M140 S100
M105
M190 S100
M104 S215
M105
M109 S215
M82 ;absolute extrusion mode
;===========

G21 ;metric values
G90 ;absolute positioning
M82 ;set extruder to absolute mode
M107 ;start with the fan off
G28 X0 Y0 ;move X/Y to min endstops
G28 Z0 ;move Z to min endstops
G1 Z15.0 F{travel_speed} ;move the platform down 15mm
G92 E0 ;zero the extruded length
G1 F140 E30 ;extrude 3mm of feed stock
G1 X20 Y0 F140 E30
G92 E0 ;zero the extruded length again
G1 F{travel_speed}
M117 Printing...
G92 E0
G1 F3000 E-0.4
;LAYER_COUNT:35
;LAYER:0
M107
G0 F2400 X97.341 Y73.751 Z0.3
;TYPE:SUPPORT
G1 F1500 E0
G1 F1200 X100.246 Y69.844 E0.09158
G1 X101.559 Y68.091 E0.13278
G1 X103.569 Y65.371 E0.1964
G1 X106.773 Y61.077 E0.29718
G1 X107.825 Y59.679 E0.33009
G1 X111.744 Y54.351 E0.45451
G1 X116.705 Y47.656 E0.61125
G1 X127.537 Y32.847 E0.95638
G1 X129.537 Y30.139 E1.0197
G1 X131.669 Y27.213 E1.08781
G1 X137.287 Y19.551 E1.26652
G1 X137.563 Y19.156 E1.27559
G1 X138.633 Y17.671 E1.31002
G1 X141.964 Y13.15 E1.41565
G1 X146.606 Y6.74 E1.56452
G1 X146.776 Y6.72 E1.56774
G1 X152.912 Y11.869 E1.71842
G1 X152.833 Y11.879 E1.71992
G1 X150.218 Y15.63 E1.80593
G1 X144.163 Y23.472 E1.9923
G1 X131.145 Y44.675 E2.46031
G1 X126.277 Y51.759 E2.62199
G1 X126.135 Y52.03 E2.62775
G1 X126.045 Y52.555 E2.63777
G1 X126.144 Y52.995 E2.64625
G1 X124.389 Y54.14 E2.68567
G1 X120.794 Y59.701 E2.81023
G1 X114.503 Y67.666 E3.00115
G1 X114.815 Y68.148 E3.01195
G1 X116.941 Y67.618 E3.05317
G1 X112.684 Y73.372 E3.18781
G1 X112.704 Y73.91 E3.19793
G1 X113.749 Y75.13 E3.22815
G1 X124.536 Y84.209 E3.49336
G1 X125.09 Y84.18 E3.5038
G1 X138.537 Y70.267 E3.86777
G1 X138.631 Y70.02 E3.87274
G1 X138.589 Y69.532 E3.88195
G1 X138.46 Y69.31 E3.88678
G1 X137.087 Y68.136 E3.92076
G1 X126.675 Y59.378 E4.17669
G1 X126.878 Y59.239 E4.18132
G1 X126.96 Y59.129 E4.1839
G1 X127.62 Y56.937 E4.22696
G1 X129.758 Y56.344 E4.2687
G1 X129.864 Y56.274 E4.27109
G1 X130.202 Y55.845 E4.28136
G1 X130.198 Y55.805 E4.28212
G1 X142.097 Y65.815 E4.57461
G1 X142.658 Y65.767 E4.5852
G1 X146.293 Y61.442 E4.69148
G1 X146.576 Y61.16 E4.69899
G1 X153.798 Y52.585 E4.90988
G1 X154.064 Y52.317 E4.91698
G1 X161.281 Y43.741 E5.12782
G1 X161.586 Y43.435 E5.13595
G1 X170.071 Y33.351 E5.38385
G1 X170.023 Y32.79 E5.39444
G1 X162.331 Y26.321 E5.5835
G1 X163.833 Y24.957 E5.62166
G1 X165.802 Y23.217 E5.67109
G1 X166.003 Y22.874 E5.67857
G1 X176.198 Y31.45 E5.92917
G1 X176.446 Y31.768 E5.93676
G1 X177.95 Y32.923 E5.97243
G1 X184.132 Y38.125 E6.12441
G1 X184.136 Y38.493 E6.13133
G1 X183.575 Y39.178 E6.14798
G1 X183.069 Y39.772 E6.16266
G1 X182.386 Y40.547 E6.18209
G1 X180.55 Y42.514 E6.23271
G1 X179.715 Y43.345 E6.25487
G1 X177.94 Y45.077 E6.30152
G1 X177.315 Y45.643 E6.31738
G1 X176.32 Y46.88 E6.34724
G1 X175.526 Y47.791 E6.36997
G1 X174.083 Y49.363 E6.41011
G1 X173.639 Y49.836 E6.42232
G1 X172.752 Y50.749 E6.44626
G1 X172.235 Y51.266 E6.46001
G1 X170.566 Y52.883 E6.50373
G1 X170.017 Y53.382 E6.51768
G1 X168.878 Y54.788 E6.55172
G1 X168.196 Y55.557 E6.57105
G1 X167.301 Y56.537 E6.59602
G1 X166.489 Y57.407 E6.6184
G1 X165.383 Y58.542 E6.64821
G1 X164.234 Y59.679 E6.67862
G1 X162.954 Y60.908 E6.712
G1 X161.608 Y62.506 E6.7513
G1 X160.4 Y63.85 E6.78529
G1 X159.272 Y65.047 E6.81623
G1 X158.411 Y65.937 E6.83953
G1 X156.94 Y67.406 E6.87863
G1 X156.2 Y68.12 E6.89797
G1 X154.152 Y70.443 E6.95623
G1 X152.595 Y72.129 E6.9994
G1 X150.957 Y73.824 E7.04374
G1 X149.33 Y75.434 E7.08679
G1 X148.061 Y76.64 E7.11972
G1 X147.904 Y77.021 E7.12747
G1 X146.877 Y78.168 E7.15644
G1 X145.11 Y80.059 E7.20512
G1 X144.348 Y80.847 E7.22574
G1 X143.229 Y81.984 E7.25575
G1 X142.278 Y82.899 E7.28057
G1 X141.048 Y84.299 E7.31563
G1 X140.315 Y85.119 E7.33631
G1 X139.282 Y86.241 E7.365
G1 X137.604 Y88.012 E7.41089
G1 X136.771 Y88.878 E7.4335
G1 X136.036 Y89.601 E7.45289
G1 X135.953 Y89.695 E7.45525
G1 X135.571 Y90.027 E7.46477
G1 X133.874 Y91.946 E7.51296
G1 X131.618 Y94.39 E7.57552
G1 X130.533 Y95.52 E7.60499
G1 X129.66 Y96.416 E7.62852
G1 X127.575 Y98.502 E7.684
G1 X127.376 Y98.851 E7.69156
G1 X126.246 Y100.088 E7.72307
G1 X124.802 Y101.633 E7.76285
G1 X123.315 Y103.18 E7.80322
G1 X120.463 Y106.047 E7.87929
G1 X120.286 Y106.419 E7.88704
G1 X118.994 Y107.822 E7.92291
G1 X117.875 Y109.004 E7.95353
G1 X116.63 Y110.3 E7.98733
G1 X115.465 Y111.488 E8.01863
G1 X113.402 Y113.536 E8.07331
G1 X113.265 Y113.913 E8.08086
G1 X112.239 Y115.024 E8.10931
G1 X110.742 Y116.603 E8.15023
G1 X109.137 Y118.251 E8.19351
G1 X106.381 Y120.994 E8.26665
G1 X106.279 Y121.384 E8.27423
G1 X105.218 Y122.521 E8.30349
G1 X104.381 Y123.403 E8.32636
G1 X102.303 Y125.544 E8.38248
G1 X99.94 Y127.883 E8.44502
G1 X99.849 Y128.272 E8.45254
G1 X97.927 Y130.316 E8.50532
G1 X97.025 Y131.249 E8.52973
G1 X95.065 Y133.248 E8.58239
G1 X93.642 Y134.654 E8.62002
G1 X93.54 Y135.047 E8.62766
G1 X92.721 Y135.925 E8.65024
G1 X91.544 Y137.158 E8.68231
G1 X89.597 Y139.164 E8.73489
G1 X87.437 Y141.333 E8.79247
G1 X87.342 Y141.725 E8.80006
G1 X86.36 Y142.774 E8.82709
G1 X84.265 Y144.953 E8.88395
G1 X81.601 Y147.631 E8.955
G1 X81.52 Y148.024 E8.96255
G1 X80.102 Y149.532 E9.00149
G1 X79.314 Y150.359 E9.02297
G1 X75.917 Y153.842 E9.11449
G1 X75.819 Y154.236 E9.12213
G1 X74.76 Y155.364 E9.15123
G1 X73.772 Y156.401 E9.17818
G1 X70.646 Y159.622 E9.26261
G1 X70.546 Y160.005 E9.27005
G1 X69.983 Y160.618 E9.28571
G1 X67.956 Y162.759 E9.34117
G1 X65.468 Y165.324 E9.40839
G1 X65.368 Y165.712 E9.41592
G1 X62.814 Y168.458 E9.48647
G1 X60.178 Y171.203 E9.55805
G1 X60.058 Y171.593 E9.56573
G1 X58.515 Y173.313 E9.60919
G1 X57.174 Y174.724 E9.64581
G1 X55.357 Y176.597 E9.6949
G1 X54.182 Y178.128 E9.7312
G1 X53.771 Y178.618 E9.74323
G1 X53.171 Y179.299 E9.7603
G1 X52.265 Y180.282 E9.78545
G1 X50.514 Y182.129 E9.83332
G1 X48.318 Y184.314 E9.8916
G1 X45.712 Y186.849 E9.95998
G1 X45.564 Y186.855 E9.96277
G1 X42.187 Y184.004 E10.0459
G1 X39.655 Y181.883 E10.10804
G1 X23.649 Y168.409 E10.50159
G1 X23.633 Y168.242 E10.50475
G1 X30.24 Y160.324 E10.69873
G1 X31.712 Y158.576 E10.74172
G1 X39.853 Y148.818 E10.98077
G1 X42.123 Y146.055 E11.04803
G1 X46.383 Y140.901 E11.17381
G1 X46.415 Y140.501 E11.18136
G1 X47.624 Y139.004 E11.21755
G1 X49.646 Y136.539 E11.27753
G1 X49.896 Y136.213 E11.28525
G1 X52.892 Y132.478 E11.37532
G1 X52.943 Y132.079 E11.38289
G1 X54.695 Y129.867 E11.43597
G1 X55.502 Y128.874 E11.46004
G1 X57.909 Y125.817 E11.53323
G1 X62.442 Y120.107 E11.67037
G1 X64.885 Y116.972 E11.74513
G1 X68.178 Y112.794 E11.84519
G1 X68.201 Y112.39 E11.85281
G1 X69.291 Y110.985 E11.88626
G1 X69.563 Y110.666 E11.89414
G1 X73.594 Y105.415 E12.01866
G1 X75.385 Y103.14 E12.07313
G1 X79.371 Y97.884 E12.19721
G1 X85.251 Y90.205 E12.37914
G1 X91.649 Y81.701 E12.57932
G1 X95.124 Y77.124 E12.68742
G1 X97.334 Y74.148 E12.75715
G1 X97.341 Y73.751 E12.76462
G0 F2400 X108.884 Y78.513
G1 F1200 X102.981 Y86.485 E12.95121
G1 X102.868 Y86.586 E12.95406
G1 X97.371 Y94.013 E13.12787
G1 X97.437 Y94.566 E13.13835
G1 X105.403 Y101.272 E13.33422
G1 X106.503 Y102.21 E13.36141
G1 X107.029 Y102.25 E13.37134
G1 X108.426 Y101.38 E13.40229
G1 X120.848 Y88.522 E13.73859
G1 X120.941 Y88.274 E13.74358
G1 X120.898 Y87.787 E13.75277
G1 X120.765 Y87.564 E13.75766
G1 X109.833 Y78.369 E14.02636
G1 X109.321 Y78.216 E14.03642
G1 X108.884 Y78.513 E14.04635
G0 F2400 X93.765 Y98.886
G1 F1200 X91.909 Y101.394 E14.10504
G1 X91.814 Y101.466 E14.10729
G1 X82.222 Y114.436 E14.41073
G1 X82.288 Y114.989 E14.42121
G1 X89.136 Y120.748 E14.58952
G1 X89.69 Y120.719 E14.59995
G1 X103.15 Y106.786 E14.96436
G1 X103.244 Y106.539 E14.96933
G1 X103.199 Y106.049 E14.97859
G1 X103.067 Y105.829 E14.98342
G1 X95.989 Y99.887 E15.15725
G1 X94.716 Y98.755 E15.1893
G1 X94.205 Y98.59 E15.1994
G1 X93.765 Y98.886 E15.20937
G0 F2400 X78.612 Y118.949
G1 F1200 X71.597 Y127.281 E15.41426
G1 X69.836 Y129.066 E15.46142
G1 X69.727 Y129.457 E15.46906
G1 X65.984 Y133.909 E15.57847
G1 X66.032 Y134.47 E15.58906
G1 X72.6 Y139.996 E15.75052
G1 X72.903 Y139.969 E15.75624
G1 X73.327 Y139.749 E15.76523
G1 X80.161 Y131.623 E15.96495
G1 X80.488 Y131.294 E15.97368
G1 X85.789 Y124.988 E16.12864
G1 X85.762 Y124.685 E16.13436
G1 X85.542 Y124.261 E16.14335
G1 X79.173 Y118.901 E16.29993
G1 X78.612 Y118.949 E16.31052
G0 F2400 X62.24 Y138.341
G1 F1200 X59.34 Y141.791 E16.3953
G1 X57.432 Y143.747 E16.4467
G1 X57.324 Y144.137 E16.45431
G1 X48.215 Y154.964 E16.72047
G1 X46.465 Y156.731 E16.76725
G1 X46.353 Y157.121 E16.77488
G1 X37.95 Y167.106 E17.02036
G1 X36.175 Y168.893 E17.06774
G1 X36.067 Y169.288 E17.07544
G1 X34.835 Y170.759 E17.11154
G1 X34.884 Y171.321 E17.12215
G1 X41.17 Y176.615 E17.27674
G1 X41.627 Y176.76 E17.28576
G1 X41.93 Y176.733 E17.29148
G1 X44.077 Y174.188 E17.35411
G1 X44.4 Y173.867 E17.36268
G1 X49.783 Y167.467 E17.51999
G1 X50.024 Y167.227 E17.52639
G1 X55.705 Y160.474 E17.69238
G1 X56.034 Y160.146 E17.70112
G1 X61.811 Y153.276 E17.86997
G1 X62.121 Y152.963 E17.87826
G1 X69.37 Y144.348 E18.09004
G1 X69.322 Y143.787 E18.10064
G1 X65.217 Y140.32 E18.20171
G1 X62.803 Y138.293 E18.261
G1 X62.24 Y138.341 E18.27163
G0 F2400 X61.742 Y138.684
G1 F1200 X48.094 Y138.684 E18.52836
G0 F2400 X48.006 Y138.791
G1 F1200 X48.006 Y154.948 E18.83228
G0 F2400 X48.239 Y154.686
G1 F1200 X35.165 Y154.686 E19.07821
G0 F2400 X34.671 Y155.278
G1 F1200 X34.671 Y170.707 E19.36844
G0 F2400 X34.671 Y170.72
G1 F1200 X34.671 Y177.477 E19.49554
G0 F2400 X36.108 Y178.689
G1 F1200 X53.493 Y178.689 E19.82256
G0 F2400 X53.34 Y178.865
G1 F1200 X53.34 Y163.532 E20.11098
G0 F2400 X54.051 Y162.687
G1 F1200 X67.801 Y162.687 E20.36963
G0 F2400 X66.675 Y163.851
G1 F1200 X66.675 Y147.798 E20.67159
G0 F2400 X67.611 Y146.685
G1 F1200 X82.314 Y146.685 E20.94817
G0 F2400 X82.677 Y146.323
G1 F1200 X82.677 Y128.938 E21.27519
G0 F2400 X83.452 Y128.016
G1 F1200 X99.743 Y128.016 E21.58163
G0 F2400 X98.679 Y129.282
G1 F1200 X98.679 Y111.644 E21.91341
G0 F2400 X98.322 Y112.014
G1 F1200 X114.708 Y112.014 E22.22164
G0 F2400 X114.681 Y112.042
G1 F1200 X114.681 Y95.135 E22.53967
G0 F2400 X113.834 Y96.012
G1 F1200 X129.829 Y96.012 E22.84055
G0 F2400 X128.016 Y97.836
G1 F1200 X128.016 Y81.382 E23.15005
G0 F2400 X129.342 Y80.01
G1 F1200 X144.933 Y80.01 E23.44333
G0 F2400 X144.018 Y80.955
G1 F1200 X144.018 Y64.397 E23.7548
G0 F2400 X144.345 Y64.008
G1 F1200 X160.03 Y64.008 E24.04984
G0 F2400 X160.02 Y64.02
G1 F1200 X160.02 Y45.487 E24.39846
G0 F2400 X160.145 Y45.339
G1 F1200 X177.411 Y45.339 E24.72324
G0 F2400 X178.689 Y44.123
G1 F1200 X178.689 Y33.755 E24.91827
G0 F2400 X179.78 Y34.671
G1 F1200 X169.168 Y34.671 E25.11788
G0 F2400 X168.021 Y36.034
G1 F1200 X168.021 Y55.512 E25.48428
G0 F2400 X167.568 Y56.007
G1 F1200 X151.124 Y56.007 E25.7936
G0 F2400 X152.019 Y54.945
G1 F1200 X152.019 Y72.495 E26.12372
G0 F2400 X152.486 Y72.009
G1 F1200 X137.075 Y72.009 E26.41361
G0 F2400 X136.017 Y73.104
G1 F1200 X136.017 Y89.396 E26.72007
G0 F2400 X137.382 Y88.011
G1 F1200 X121.078 Y88.011 E27.02676
G0 F2400 X120.015 Y89.614
G1 F1200 X120.015 Y106.479 E27.344
G0 F2400 X119.828 Y106.68
G1 F1200 X103.362 Y106.68 E27.65373
G0 F2400 X101.346 Y108.883
G1 F1200 X101.346 Y126.267 E27.98074
G0 F2400 X102.268 Y125.349
G1 F1200 X85.694 Y125.349 E28.2925
G0 F2400 X85.344 Y125.765
G1 F1200 X85.344 Y143.6 E28.62799
G0 F2400 X84.94 Y144.018
G1 F1200 X69.5 Y144.018 E28.91842
G0 F2400 X69.342 Y144.628
G1 F1200 X69.342 Y161.062 E29.22756
G0 F2400 X70.314 Y160.02
G1 F1200 X56.347 Y160.02 E29.49028
G0 F2400 X56.007 Y160.398
G1 F1200 X56.007 Y175.698 E29.77809
G0 F2400 X55.69 Y176.022
G1 F1200 X42.739 Y176.022 E30.0217
G0 F2400 X42.672 Y176.101
G1 F1200 X42.672 Y184.204 E30.17412
G0 F2400 X42.456 Y184.023
G1 F1200 X48.381 Y184.023 E30.28558
G0 F2400 X48.006 Y184.394
G1 F1200 X48.006 Y169.827 E30.55959
G0 F2400 X49.525 Y168.021
G1 F1200 X63 Y168.021 E30.81306
G0 F2400 X64.008 Y166.939
G1 F1200 X64.008 Y150.968 E31.11349
G0 F2400 X63.123 Y152.019
G1 F1200 X77.469 Y152.019 E31.38334
G0 F2400 X77.343 Y152.151
G1 F1200 X77.343 Y135.221 E31.7018
G0 F2400 X76.673 Y136.017
G1 F1200 X92.41 Y136.017 E31.99783
G0 F2400 X93.345 Y135.022
G1 F1200 X93.345 Y117.165 E32.33373
G0 F2400 X93.17 Y117.348
G1 F1200 X109.793 Y117.348 E32.64641
G0 F2400 X109.347 Y117.807
G1 F1200 X109.347 Y100.656 E32.96903
G0 F2400 X108.681 Y101.346
G1 F1200 X124.849 Y101.346 E33.27316
G0 F2400 X125.349 Y100.814
G1 F1200 X125.349 Y84.142 E33.58677
G0 F2400 X126.765 Y82.677
G1 F1200 X142.277 Y82.677 E33.87856
G0 F2400 X141.351 Y83.712
G1 F1200 X141.351 Y65.396 E34.2231
G0 F2400 X139.703 Y64.008
G1 F1200 X132.429 Y64.008 E34.35992
G0 F2400 X133.35 Y64.783
G1 F1200 X133.35 Y58.667 E34.47497
G0 F2400 X133.361 Y58.674
G1 F1200 X127.264 Y58.674 E34.58966
G0 F2400 X128.016 Y60.296
G1 F1200 X128.016 Y56.992 E34.65181
G0 F2400 X130.683 Y56.423
G1 F1200 X130.683 Y62.539 E34.76685
G0 F2400 X129.258 Y61.341
G1 F1200 X136.532 Y61.341 E34.90368
G0 F2400 X136.017 Y60.91
G1 F1200 X136.017 Y67.026 E35.01873
G0 F2400 X135.6 Y66.675
G1 F1200 X157.444 Y66.675 E35.42962
G0 F2400 X157.353 Y66.768
G1 F1200 X157.353 Y48.656 E35.77032
G0 F2400 X157.9 Y48.006
G1 F1200 X175.11 Y48.006 E36.09405
G0 F2400 X176.022 Y46.98
G1 F1200 X176.022 Y31.511 E36.38503
G0 F2400 X176.492 Y32.004
G1 F1200 X169.337 Y32.004 E36.51962
G0 F2400 X168.021 Y30.897
G1 F1200 X168.021 Y24.781 E36.63467
G0 F2400 X167.099 Y24.003
G1 F1200 X165.153 Y24.003 E36.67127
G0 F2400 X165.354 Y23.825
G1 F1200 X165.354 Y28.654 E36.76211
G0 F2400 X166.166 Y29.337
G1 F1200 X173.44 Y29.337 E36.89894
G0 F2400 X173.355 Y29.268
G1 F1200 X173.355 Y49.899 E37.28702
G0 F2400 X172.601 Y50.673
G1 F1200 X155.656 Y50.673 E37.60576
G0 F2400 X154.686 Y51.825
G1 F1200 X154.686 Y69.595 E37.94002
G0 F2400 X154.908 Y69.342
G1 F1200 X138.663 Y69.342 E38.2456
G0 F2400 X138.684 Y69.377
G1 F1200 X138.684 Y63.153 E38.36268
G0 F2400 X138.684 Y70.331
G1 F1200 X138.684 Y86.64 E38.66946
G0 F2400 X139.889 Y85.344
G1 F1200 X118.374 Y85.344 E39.07417
G0 F2400 X117.348 Y84.481
G1 F1200 X117.348 Y78.368 E39.18916
G0 F2400 X116.131 Y77.343
G1 F1200 X95.159 Y77.343 E39.58365
G0 F2400 X96.012 Y76.196
G1 F1200 X96.012 Y99.692 E40.02563
G0 F2400 X94.87 Y98.679
G1 F1200 X102.076 Y98.679 E40.16117
G0 F2400 X101.346 Y98.066
G1 F1200 X101.346 Y104.175 E40.27609
G0 F2400 X101.152 Y104.013
G1 F1200 X122.259 Y104.013 E40.67312
G0 F2400 X122.682 Y103.59
G1 F1200 X122.682 Y82.858 E41.0631
G0 F2400 X122.47 Y82.677
G1 F1200 X115.203 Y82.677 E41.1998
G0 F2400 X114.681 Y82.238
G1 F1200 X114.681 Y76.124 E41.31481
G0 F2400 X113.15 Y74.676
G1 F1200 X97.142 Y74.676 E41.61593
G0 F2400 X98.679 Y72.218
G1 F1200 X98.679 Y91.978 E41.98762
G0 F2400 X99.64 Y90.678
G1 F1200 X85.091 Y90.678 E42.2613
G0 F2400 X85.344 Y90.346
G1 F1200 X85.344 Y109.946 E42.62999
G0 F2400 X85.786 Y109.347
G1 F1200 X70.779 Y109.347 E42.91228
G0 F2400 X72.009 Y107.743
G1 F1200 X72.009 Y126.544 E43.26593
G0 F2400 X73.013 Y125.349
G1 F1200 X58.485 Y125.349 E43.53921
G0 F2400 X58.674 Y125.11
G1 F1200 X58.674 Y142.246 E43.86155
G0 F2400 X59.5 Y141.351
G1 F1200 X46.217 Y141.351 E44.11141
G0 F2400 X45.339 Y142.414
G1 F1200 X45.339 Y158.077 E44.40604
G0 F2400 X45.947 Y157.353
G1 F1200 X32.94 Y157.353 E44.65071
G0 F2400 X32.004 Y158.475
G1 F1200 X32.004 Y175.232 E44.96592
G0 F2400 X32.941 Y176.022
G1 F1200 X40.217 Y176.022 E45.10278
G0 F2400 X40.005 Y175.843
G1 F1200 X40.005 Y181.967 E45.21798
G0 F2400 X39.275 Y181.356
G1 F1200 X51.025 Y181.356 E45.439
G0 F2400 X50.673 Y181.73
G1 F1200 X50.673 Y166.702 E45.72169
G0 F2400 X51.807 Y165.354
G1 F1200 X65.294 Y165.354 E45.97539
G0 F2400 X61.341 Y169.761
G1 F1200 X61.341 Y154.083 E46.2703
G0 F2400 X60.833 Y154.686
G1 F1200 X75.175 Y154.686 E46.54008
G0 F2400 X74.676 Y155.219
G1 F1200 X74.676 Y138.391 E46.85662
G0 F2400 X74.43 Y138.684
G1 F1200 X89.839 Y138.684 E47.14648
G0 F2400 X90.678 Y137.821
G1 F1200 X90.678 Y119.926 E47.48309
G0 F2400 X90.592 Y120.015
G1 F1200 X107.137 Y120.015 E47.79431
G0 F2400 X106.68 Y120.472
G1 F1200 X106.68 Y102.384 E48.13456
G0 F2400 X105.244 Y101.346
G1 F1200 X97.976 Y101.346 E48.27127
