;FLAVOR:Marlin
;TIME:11182
;Filament used: 15.7377m
;Layer height: 0.2
;Generated with Cura_SteamEngine 3.6.0
M140 S85
M105
M190 S85
M104 S245
M105
M109 S245
M82 ;absolute extrusion mode
G21 ;metric values
 G90 ;absolute positioning
 M82 ;set extruder to absolute mode
 M107 ;start with the fan off
 G28 X0 Y0 ;move X/Y to min endstops
 G28 Z0 ;move Z to min endstops
 G1 Z15.0 F{travel_speed} ;move the platform down 15mm
 G92 E0 ;zero the extruded length
 G1 F200 E6 ;extrude 6 mm of feed stock
 G92 E0 ;zero the extruded length again
 G1 F{travel_speed} 
 ;Put printing message on LCD screen
 M117 Printing...
G92 E0
G1 F3600 E-0.6
;LAYER_COUNT:164
;LAYER:0
M107
G0 F3600 X63.58 Y52.039 Z0.3
;TYPE:SKIRT
G1 F3600 E0
G1 F1800 X63.985 Y51.602 E0.02973
G1 X64.102 Y51.485 E0.03798
G1 X64.688 Y50.955 E0.0774
G1 X65.324 Y50.488 E0.11677
G1 X66.004 Y50.087 E0.15615
G1 X66.722 Y49.757 E0.19557
G1 X67.469 Y49.502 E0.23495
G1 X68.238 Y49.323 E0.27434
G1 X69.022 Y49.223 E0.31378
G1 X69.617 Y49.2 E0.34348
G1 X79.692 Y49.2 E0.84613
G1 X80.481 Y49.24 E0.88554
G1 X81.261 Y49.359 E0.9249
G1 X82.026 Y49.557 E0.96433
G1 X82.766 Y49.831 E1.0037
G1 X83.475 Y50.179 E1.0431
G1 X83.577 Y50.243 E1.04911
G1 X83.638 Y50.2 E1.05283
G1 X84.327 Y49.814 E1.09223
G1 X85.051 Y49.499 E1.13162
G1 X85.804 Y49.259 E1.17105
G1 X86.576 Y49.096 E1.21042
G1 X87.361 Y49.012 E1.2498
G1 X87.796 Y49 E1.27151
G1 X91.167 Y49 E1.43969
G1 X91.956 Y49.04 E1.47911
G1 X92.736 Y49.159 E1.51847
G1 X93.501 Y49.357 E1.5579
G1 X94.241 Y49.631 E1.59726
G1 X94.95 Y49.979 E1.63667
G1 X95.382 Y50.248 E1.66206
G1 X95.655 Y50.087 E1.67787
G1 X96.373 Y49.757 E1.71729
G1 X97.12 Y49.502 E1.75667
G1 X97.889 Y49.323 E1.79606
G1 X98.673 Y49.223 E1.83549
G1 X99.268 Y49.2 E1.8652
G1 X130.383 Y49.2 E3.41754
G1 X131.172 Y49.24 E3.45695
G1 X131.952 Y49.359 E3.49631
G1 X132.717 Y49.557 E3.53574
G1 X133.457 Y49.831 E3.57511
G1 X134.166 Y50.179 E3.61451
G1 X134.837 Y50.597 E3.65395
G1 X135.461 Y51.08 E3.69332
G1 X135.898 Y51.485 E3.72304
G1 X136.015 Y51.602 E3.7313
G1 X136.545 Y52.188 E3.77072
G1 X137.012 Y52.824 E3.81008
G1 X137.413 Y53.504 E3.84947
G1 X137.743 Y54.222 E3.88889
G1 X137.998 Y54.969 E3.92827
G1 X138.177 Y55.738 E3.96766
G1 X138.277 Y56.522 E4.00709
G1 X138.3 Y57.117 E4.0368
G1 X138.3 Y142.883 E8.31568
G1 X138.26 Y143.672 E8.3551
G1 X138.141 Y144.452 E8.39446
G1 X137.943 Y145.217 E8.43388
G1 X137.669 Y145.957 E8.47325
G1 X137.321 Y146.666 E8.51266
G1 X136.903 Y147.337 E8.5521
G1 X136.42 Y147.961 E8.59146
G1 X136.015 Y148.398 E8.62119
G1 X135.898 Y148.515 E8.62945
G1 X135.312 Y149.045 E8.66886
G1 X134.676 Y149.512 E8.70823
G1 X133.996 Y149.913 E8.74761
G1 X133.278 Y150.243 E8.78704
G1 X132.531 Y150.498 E8.82642
G1 X131.762 Y150.677 E8.86581
G1 X130.978 Y150.777 E8.90524
G1 X130.383 Y150.8 E8.93495
G1 X69.617 Y150.8 E11.96657
G1 X68.828 Y150.76 E12.00599
G1 X68.048 Y150.641 E12.04535
G1 X67.283 Y150.443 E12.08478
G1 X66.543 Y150.169 E12.12415
G1 X65.834 Y149.821 E12.16355
G1 X65.163 Y149.403 E12.20299
G1 X64.539 Y148.92 E12.24236
G1 X64.102 Y148.515 E12.27208
G1 X63.985 Y148.398 E12.28034
G1 X63.455 Y147.812 E12.31976
G1 X62.988 Y147.176 E12.35912
G1 X62.587 Y146.496 E12.39851
G1 X62.257 Y145.778 E12.43793
G1 X62.002 Y145.031 E12.47731
G1 X61.823 Y144.262 E12.5167
G1 X61.723 Y143.478 E12.55613
G1 X61.7 Y142.883 E12.58584
G1 X61.7 Y57.117 E16.86472
G1 X61.74 Y56.328 E16.90414
G1 X61.859 Y55.548 E16.9435
G1 X62.057 Y54.783 E16.98292
G1 X62.331 Y54.043 E17.02229
G1 X62.679 Y53.334 E17.0617
G1 X63.097 Y52.663 E17.10114
G1 X63.58 Y52.039 E17.1405
G0 F3600 X63.975 Y52.194
G1 F1800 X64.267 Y51.884 E17.16175
G1 X64.384 Y51.767 E17.17001
G1 X64.956 Y51.253 E17.20837
G1 X65.578 Y50.8 E17.24676
G1 X66.243 Y50.414 E17.28512
G1 X66.945 Y50.099 E17.32351
G1 X67.676 Y49.859 E17.36189
G1 X68.427 Y49.696 E17.40023
G1 X69.192 Y49.612 E17.43863
G1 X69.617 Y49.6 E17.45984
G1 X79.692 Y49.6 E17.96249
G1 X80.46 Y49.64 E18.00085
G1 X81.22 Y49.759 E18.03923
G1 X81.963 Y49.957 E18.07759
G1 X82.682 Y50.231 E18.11598
G1 X83.368 Y50.578 E18.15434
G1 X83.591 Y50.722 E18.16758
G1 X84.022 Y50.435 E18.19341
G1 X84.703 Y50.077 E18.2318
G1 X85.418 Y49.793 E18.27018
G1 X86.158 Y49.584 E18.30854
G1 X86.916 Y49.453 E18.34692
G1 X87.796 Y49.4 E18.3909
G1 X91.167 Y49.4 E18.55908
G1 X91.935 Y49.44 E18.59745
G1 X92.695 Y49.559 E18.63583
G1 X93.438 Y49.757 E18.67419
G1 X94.157 Y50.031 E18.71258
G1 X94.843 Y50.378 E18.75093
G1 X95.371 Y50.718 E18.78226
G1 X95.894 Y50.414 E18.81244
G1 X96.596 Y50.099 E18.85083
G1 X97.327 Y49.859 E18.88922
G1 X98.078 Y49.696 E18.92756
G1 X98.843 Y49.612 E18.96595
G1 X99.268 Y49.6 E18.98716
G1 X130.383 Y49.6 E20.5395
G1 X131.151 Y49.64 E20.57786
G1 X131.911 Y49.759 E20.61624
G1 X132.654 Y49.957 E20.6546
G1 X133.373 Y50.231 E20.69299
G1 X134.059 Y50.578 E20.73135
G1 X134.706 Y50.994 E20.76972
G1 X135.306 Y51.475 E20.80809
G1 X135.616 Y51.767 E20.82933
G1 X135.733 Y51.884 E20.83759
G1 X136.247 Y52.456 E20.87595
G1 X136.7 Y53.078 E20.91434
G1 X137.086 Y53.743 E20.9527
G1 X137.401 Y54.445 E20.99109
G1 X137.641 Y55.176 E21.02948
G1 X137.804 Y55.927 E21.06782
G1 X137.888 Y56.692 E21.10621
G1 X137.9 Y57.117 E21.12742
G1 X137.9 Y142.883 E25.40631
G1 X137.86 Y143.651 E25.44467
G1 X137.741 Y144.411 E25.48305
G1 X137.543 Y145.154 E25.52142
G1 X137.269 Y145.873 E25.5598
G1 X136.922 Y146.559 E25.59816
G1 X136.506 Y147.206 E25.63653
G1 X136.025 Y147.806 E25.6749
G1 X135.733 Y148.116 E25.69614
G1 X135.616 Y148.233 E25.7044
G1 X135.044 Y148.747 E25.74277
G1 X134.422 Y149.2 E25.78116
G1 X133.757 Y149.586 E25.81952
G1 X133.055 Y149.901 E25.8579
G1 X132.324 Y150.141 E25.89629
G1 X131.573 Y150.304 E25.93463
G1 X130.808 Y150.388 E25.97302
G1 X130.383 Y150.4 E25.99424
G1 X69.617 Y150.4 E29.02586
G1 X68.849 Y150.36 E29.06423
G1 X68.089 Y150.241 E29.10261
G1 X67.346 Y150.043 E29.14097
G1 X66.627 Y149.769 E29.17936
G1 X65.941 Y149.422 E29.21771
G1 X65.294 Y149.006 E29.25609
G1 X64.694 Y148.525 E29.29445
G1 X64.384 Y148.233 E29.3157
G1 X64.267 Y148.116 E29.32396
G1 X63.753 Y147.544 E29.36232
G1 X63.3 Y146.922 E29.40071
G1 X62.914 Y146.257 E29.43907
G1 X62.599 Y145.555 E29.47746
G1 X62.359 Y144.824 E29.51584
G1 X62.196 Y144.073 E29.55418
G1 X62.112 Y143.308 E29.59258
G1 X62.1 Y142.883 E29.61379
G1 X62.1 Y57.117 E33.89267
G1 X62.14 Y56.349 E33.93104
G1 X62.259 Y55.589 E33.96942
G1 X62.457 Y54.846 E34.00778
G1 X62.731 Y54.127 E34.04617
G1 X63.078 Y53.441 E34.08452
G1 X63.494 Y52.794 E34.1229
G1 X63.975 Y52.194 E34.16127
G0 F3600 X63.892 Y52.928
G1 F1800 X64.55 Y52.167 E34.21146
G1 X64.667 Y52.05 E34.21971
G1 X65.224 Y51.55 E34.25705
G1 X65.83 Y51.113 E34.29433
G1 X66.48 Y50.742 E34.33167
G1 X67.166 Y50.443 E34.369
G1 X67.88 Y50.219 E34.40634
G1 X68.613 Y50.072 E34.44363
G1 X69.617 Y50 E34.49385
G1 X79.692 Y50 E34.9965
G1 X80.439 Y50.04 E35.03382
G1 X81.177 Y50.159 E35.07111
G1 X81.899 Y50.357 E35.10846
G1 X82.595 Y50.63 E35.14576
G1 X83.258 Y50.977 E35.18309
G1 X83.602 Y51.206 E35.20371
G1 X83.77 Y51.074 E35.21437
G1 X84.404 Y50.677 E35.25169
G1 X85.077 Y50.35 E35.28902
G1 X85.781 Y50.096 E35.32636
G1 X86.508 Y49.92 E35.36368
G1 X87.249 Y49.821 E35.40097
G1 X87.796 Y49.8 E35.42828
G1 X91.167 Y49.8 E35.59646
G1 X91.914 Y49.84 E35.63379
G1 X92.652 Y49.959 E35.67108
G1 X93.374 Y50.157 E35.70843
G1 X94.07 Y50.43 E35.74573
G1 X94.733 Y50.777 E35.78306
G1 X95.356 Y51.192 E35.82041
G1 X95.363 Y51.198 E35.82087
G1 X95.481 Y51.113 E35.82813
G1 X96.131 Y50.742 E35.86546
G1 X96.817 Y50.443 E35.9028
G1 X97.531 Y50.219 E35.94013
G1 X98.264 Y50.072 E35.97743
G1 X99.268 Y50 E36.02765
G1 X130.383 Y50 E37.57998
G1 X131.13 Y50.04 E37.6173
G1 X131.868 Y50.159 E37.6546
G1 X132.59 Y50.357 E37.69195
G1 X133.286 Y50.63 E37.72925
G1 X133.949 Y50.977 E37.76658
G1 X134.572 Y51.392 E37.80393
G1 X135.333 Y52.05 E37.85412
G1 X135.45 Y52.167 E37.86237
G1 X135.95 Y52.724 E37.89972
G1 X136.387 Y53.33 E37.93699
G1 X136.758 Y53.98 E37.97433
G1 X137.057 Y54.666 E38.01166
G1 X137.281 Y55.38 E38.049
G1 X137.428 Y56.113 E38.0863
G1 X137.5 Y57.117 E38.13651
G1 X137.5 Y142.883 E42.4154
G1 X137.46 Y143.63 E42.45272
G1 X137.341 Y144.368 E42.49001
G1 X137.143 Y145.09 E42.52736
G1 X136.87 Y145.786 E42.56466
G1 X136.523 Y146.449 E42.602
G1 X136.108 Y147.072 E42.63934
G1 X135.45 Y147.833 E42.68953
G1 X135.333 Y147.95 E42.69779
G1 X134.776 Y148.45 E42.73513
G1 X134.17 Y148.887 E42.77241
G1 X133.52 Y149.258 E42.80974
G1 X132.834 Y149.557 E42.84708
G1 X132.12 Y149.781 E42.88441
G1 X131.387 Y149.928 E42.92171
G1 X130.383 Y150 E42.97193
G1 X69.617 Y150 E46.00356
G1 X68.87 Y149.96 E46.04088
G1 X68.132 Y149.841 E46.07817
G1 X67.41 Y149.643 E46.11552
G1 X66.714 Y149.37 E46.15282
G1 X66.051 Y149.023 E46.19016
G1 X65.428 Y148.608 E46.2275
G1 X64.667 Y147.95 E46.27769
G1 X64.55 Y147.833 E46.28595
G1 X64.05 Y147.276 E46.32329
G1 X63.613 Y146.67 E46.36057
G1 X63.242 Y146.02 E46.3979
G1 X62.943 Y145.334 E46.43524
G1 X62.719 Y144.62 E46.47257
G1 X62.572 Y143.887 E46.50987
G1 X62.5 Y142.883 E46.56009
G1 X62.5 Y57.117 E50.83897
G1 X62.54 Y56.37 E50.87629
G1 X62.659 Y55.632 E50.91359
G1 X62.857 Y54.91 E50.95094
G1 X63.13 Y54.214 E50.98824
G1 X63.477 Y53.551 E51.02557
G1 X63.892 Y52.928 E51.06292
G0 F3600 X64.289 Y53.067
G1 F1800 X64.833 Y52.45 E51.10396
G1 X64.95 Y52.333 E51.11221
G1 X65.491 Y51.849 E51.14843
G1 X66.082 Y51.426 E51.18469
G1 X66.716 Y51.072 E51.22091
G1 X67.385 Y50.789 E51.25715
G1 X68.081 Y50.581 E51.29339
G1 X68.796 Y50.451 E51.32965
G1 X69.617 Y50.4 E51.37069
G1 X79.692 Y50.4 E51.87333
G1 X80.417 Y50.44 E51.90956
G1 X81.134 Y50.559 E51.94582
G1 X81.833 Y50.757 E51.98206
G1 X82.506 Y51.03 E52.0183
G1 X83.145 Y51.375 E52.05453
G1 X83.612 Y51.699 E52.08288
G1 X84.157 Y51.294 E52.11676
G1 X84.784 Y50.927 E52.153
G1 X85.448 Y50.632 E52.18925
G1 X86.14 Y50.411 E52.2255
G1 X86.852 Y50.268 E52.26173
G1 X87.796 Y50.2 E52.30895
G1 X91.167 Y50.2 E52.47713
G1 X91.892 Y50.24 E52.51335
G1 X92.609 Y50.359 E52.54961
G1 X93.308 Y50.557 E52.58586
G1 X93.981 Y50.83 E52.62209
G1 X94.62 Y51.175 E52.65832
G1 X95.217 Y51.589 E52.69457
G1 X95.347 Y51.702 E52.70316
G1 X95.733 Y51.426 E52.72683
G1 X96.367 Y51.072 E52.76306
G1 X97.036 Y50.789 E52.7993
G1 X97.732 Y50.581 E52.83554
G1 X98.447 Y50.451 E52.8718
G1 X99.268 Y50.4 E52.91284
G1 X130.383 Y50.4 E54.46517
G1 X131.108 Y50.44 E54.50139
G1 X131.825 Y50.559 E54.53766
G1 X132.524 Y50.757 E54.5739
G1 X133.197 Y51.03 E54.61013
G1 X133.836 Y51.375 E54.64636
G1 X134.433 Y51.789 E54.68261
G1 X135.05 Y52.333 E54.72365
G1 X135.167 Y52.45 E54.7319
G1 X135.651 Y52.991 E54.76812
G1 X136.074 Y53.582 E54.80438
G1 X136.428 Y54.216 E54.8406
G1 X136.711 Y54.885 E54.87684
G1 X136.919 Y55.581 E54.91309
G1 X137.049 Y56.296 E54.94934
G1 X137.1 Y57.117 E54.99038
G1 X137.1 Y142.883 E59.26926
G1 X137.06 Y143.608 E59.30549
G1 X136.941 Y144.325 E59.34175
G1 X136.743 Y145.024 E59.37799
G1 X136.47 Y145.697 E59.41423
G1 X136.125 Y146.336 E59.45046
G1 X135.711 Y146.933 E59.4867
G1 X135.167 Y147.55 E59.52774
G1 X135.05 Y147.667 E59.536
G1 X134.509 Y148.151 E59.57221
G1 X133.918 Y148.574 E59.60847
G1 X133.284 Y148.928 E59.6447
G1 X132.615 Y149.211 E59.68094
G1 X131.919 Y149.419 E59.71718
G1 X131.204 Y149.549 E59.75344
G1 X130.383 Y149.6 E59.79447
G1 X69.617 Y149.6 E62.8261
G1 X68.892 Y149.56 E62.86233
G1 X68.175 Y149.441 E62.89859
G1 X67.476 Y149.243 E62.93483
G1 X66.803 Y148.97 E62.97107
G1 X66.164 Y148.625 E63.0073
G1 X65.567 Y148.211 E63.04354
G1 X64.95 Y147.667 E63.08458
G1 X64.833 Y147.55 E63.09284
G1 X64.349 Y147.009 E63.12905
G1 X63.926 Y146.418 E63.16531
G1 X63.572 Y145.784 E63.20154
G1 X63.289 Y145.115 E63.23778
G1 X63.081 Y144.419 E63.27402
G1 X62.951 Y143.704 E63.31027
G1 X62.9 Y142.883 E63.35131
G1 X62.9 Y57.117 E67.6302
G1 X62.94 Y56.392 E67.66642
G1 X63.059 Y55.675 E67.70268
G1 X63.257 Y54.976 E67.73893
G1 X63.53 Y54.303 E67.77516
G1 X63.875 Y53.664 E67.81139
G1 X64.289 Y53.067 E67.84764
G0 F3600 X64.685 Y53.211
G1 F1800 X65.116 Y52.733 E67.87975
G1 X65.233 Y52.616 E67.888
G1 X65.758 Y52.147 E67.92312
G1 X66.333 Y51.741 E67.95824
G1 X66.951 Y51.403 E67.99338
G1 X67.602 Y51.136 E68.02849
G1 X68.28 Y50.946 E68.06361
G1 X68.975 Y50.833 E68.09874
G1 X69.617 Y50.8 E68.13082
G1 X79.692 Y50.8 E68.63346
G1 X80.395 Y50.84 E68.66859
G1 X81.089 Y50.959 E68.70372
G1 X81.764 Y51.157 E68.73881
G1 X82.413 Y51.429 E68.77392
G1 X83.027 Y51.774 E68.80906
G1 X83.598 Y52.185 E68.84416
G1 X83.634 Y52.217 E68.84656
G1 X83.965 Y51.926 E68.86855
G1 X84.542 Y51.523 E68.90366
G1 X85.161 Y51.188 E68.93878
G1 X85.814 Y50.925 E68.9739
G1 X86.493 Y50.738 E69.00903
G1 X87.189 Y50.63 E69.04417
G1 X87.796 Y50.6 E69.07449
G1 X91.167 Y50.6 E69.24267
G1 X91.87 Y50.64 E69.2778
G1 X92.564 Y50.759 E69.31293
G1 X93.239 Y50.957 E69.34803
G1 X93.888 Y51.229 E69.38313
G1 X94.502 Y51.574 E69.41827
G1 X95.073 Y51.985 E69.45337
G1 X95.329 Y52.218 E69.47064
G1 X95.409 Y52.147 E69.47598
G1 X95.984 Y51.741 E69.51109
G1 X96.602 Y51.403 E69.54624
G1 X97.253 Y51.136 E69.58134
G1 X97.931 Y50.946 E69.61647
G1 X98.626 Y50.833 E69.6516
G1 X99.268 Y50.8 E69.68367
G1 X130.383 Y50.8 E71.236
G1 X131.086 Y50.84 E71.27113
G1 X131.78 Y50.959 E71.30626
G1 X132.455 Y51.157 E71.34136
G1 X133.104 Y51.429 E71.37646
G1 X133.718 Y51.774 E71.4116
G1 X134.289 Y52.185 E71.4467
G1 X134.767 Y52.616 E71.47881
G1 X134.884 Y52.733 E71.48707
G1 X135.353 Y53.258 E71.52219
G1 X135.759 Y53.833 E71.5573
G1 X136.097 Y54.451 E71.59245
G1 X136.364 Y55.102 E71.62755
G1 X136.554 Y55.78 E71.66268
G1 X136.667 Y56.475 E71.69781
G1 X136.7 Y57.117 E71.72988
G1 X136.7 Y142.883 E76.00876
G1 X136.66 Y143.586 E76.04389
G1 X136.541 Y144.28 E76.07902
G1 X136.343 Y144.955 E76.11412
G1 X136.071 Y145.604 E76.14922
G1 X135.726 Y146.218 E76.18436
G1 X135.315 Y146.789 E76.21946
G1 X134.884 Y147.267 E76.25157
G1 X134.767 Y147.384 E76.25983
G1 X134.242 Y147.853 E76.29495
G1 X133.667 Y148.259 E76.33007
G1 X133.049 Y148.597 E76.36521
G1 X132.398 Y148.864 E76.40031
G1 X131.72 Y149.054 E76.43544
G1 X131.025 Y149.167 E76.47057
G1 X130.383 Y149.2 E76.50264
G1 X69.617 Y149.2 E79.53427
G1 X68.914 Y149.16 E79.5694
G1 X68.22 Y149.041 E79.60453
G1 X67.545 Y148.843 E79.63962
G1 X66.896 Y148.571 E79.67473
G1 X66.282 Y148.226 E79.70987
G1 X65.711 Y147.815 E79.74497
G1 X65.233 Y147.384 E79.77708
G1 X65.116 Y147.267 E79.78533
G1 X64.647 Y146.742 E79.82045
G1 X64.241 Y146.167 E79.85557
G1 X63.903 Y145.549 E79.89071
G1 X63.636 Y144.898 E79.92582
G1 X63.446 Y144.22 E79.96095
G1 X63.333 Y143.525 E79.99607
G1 X63.3 Y142.883 E80.02815
G1 X63.3 Y57.117 E84.30703
G1 X63.34 Y56.414 E84.34216
G1 X63.459 Y55.72 E84.37729
G1 X63.657 Y55.045 E84.41238
G1 X63.929 Y54.396 E84.44749
G1 X64.274 Y53.782 E84.48263
G1 X64.685 Y53.211 E84.51773
G0 F3600 X65.082 Y53.359
G1 F1800 X65.399 Y53.016 E84.54103
G1 X65.516 Y52.899 E84.54928
G1 X66.025 Y52.446 E84.58328
G1 X66.583 Y52.057 E84.61721
G1 X67.183 Y51.735 E84.65119
G1 X67.817 Y51.486 E84.68517
G1 X68.476 Y51.313 E84.71916
G1 X69.15 Y51.219 E84.75311
G1 X69.617 Y51.2 E84.77643
G1 X79.692 Y51.2 E85.27907
G1 X80.372 Y51.24 E85.31306
G1 X81.042 Y51.359 E85.34701
G1 X81.694 Y51.556 E85.38099
G1 X82.318 Y51.828 E85.41495
G1 X82.906 Y52.172 E85.44894
G1 X83.45 Y52.582 E85.48292
G1 X83.645 Y52.763 E85.49619
G1 X83.831 Y52.567 E85.50967
G1 X84.354 Y52.132 E85.54361
G1 X84.925 Y51.761 E85.57759
G1 X85.535 Y51.459 E85.61154
G1 X86.177 Y51.231 E85.64553
G1 X86.841 Y51.079 E85.67952
G1 X87.796 Y51 E85.72733
G1 X91.167 Y51 E85.89551
G1 X91.847 Y51.04 E85.92949
G1 X92.517 Y51.159 E85.96344
G1 X93.169 Y51.356 E85.99742
G1 X93.793 Y51.628 E86.03138
G1 X94.381 Y51.972 E86.06537
G1 X94.925 Y52.382 E86.09935
G1 X95.321 Y52.762 E86.12673
G1 X95.676 Y52.446 E86.15044
G1 X96.234 Y52.057 E86.18438
G1 X96.834 Y51.735 E86.21835
G1 X97.468 Y51.486 E86.25234
G1 X98.127 Y51.313 E86.28633
G1 X98.801 Y51.219 E86.32028
G1 X99.268 Y51.2 E86.3436
G1 X130.383 Y51.2 E87.89593
G1 X131.063 Y51.24 E87.92991
G1 X131.733 Y51.359 E87.96386
G1 X132.385 Y51.556 E87.99784
G1 X133.009 Y51.828 E88.03181
G1 X133.597 Y52.172 E88.06579
G1 X134.141 Y52.582 E88.09978
G1 X134.484 Y52.899 E88.12308
G1 X134.601 Y53.016 E88.13133
G1 X135.054 Y53.525 E88.16533
