;FLAVOR:Marlin
;TIME:10903
;Filament used: 11.3248m
;Layer height: 0.2
;Generated with Cura_SteamEngine 3.6.0
M140 S85
M105
M190 S85
M104 S245
M105
M109 S245
M82 ;absolute extrusion mode
G21 ;metric values
 G90 ;absolute positioning
 M82 ;set extruder to absolute mode
 M107 ;start with the fan off
 G28 X0 Y0 ;move X/Y to min endstops
 G28 Z0 ;move Z to min endstops
 G1 Z15.0 F{travel_speed} ;move the platform down 15mm
 G92 E0 ;zero the extruded length
 G1 F200 E6 ;extrude 6 mm of feed stock
 G92 E0 ;zero the extruded length again
 G1 F{travel_speed} 
 ;Put printing message on LCD screen
 M117 Printing...
G92 E0
G1 F3600 E-0.6
;LAYER_COUNT:78
;LAYER:0
M107
G0 F3600 X13.344 Y10.544 Z0.3
;TYPE:SKIRT
G1 F3600 E0
G1 F1800 X13.75 Y10.107 E0.02976
G1 X13.867 Y9.99 E0.03801
G1 X14.453 Y9.46 E0.07743
G1 X15.089 Y8.993 E0.1168
G1 X15.769 Y8.592 E0.15618
G1 X16.487 Y8.262 E0.19561
G1 X17.234 Y8.007 E0.23499
G1 X18.003 Y7.828 E0.27438
G1 X18.787 Y7.728 E0.31381
G1 X19.382 Y7.705 E0.34352
G1 X60.637 Y7.705 E2.40174
G1 X61.426 Y7.745 E2.44115
G1 X62.206 Y7.864 E2.48051
G1 X62.971 Y8.062 E2.51994
G1 X63.711 Y8.336 E2.55931
G1 X64.42 Y8.684 E2.59871
G1 X64.524 Y8.749 E2.60483
G1 X64.613 Y8.687 E2.61024
G1 X65.303 Y8.304 E2.64961
G1 X66.029 Y7.992 E2.68904
G1 X66.782 Y7.755 E2.72842
G1 X67.556 Y7.596 E2.76784
G1 X68.341 Y7.515 E2.80721
G1 X68.742 Y7.505 E2.82722
G1 X73.721 Y7.505 E3.07563
G1 X73.891 Y7.38 E3.08616
G1 X74.571 Y6.979 E3.12554
G1 X75.289 Y6.649 E3.16496
G1 X76.036 Y6.394 E3.20434
G1 X76.805 Y6.215 E3.24373
G1 X77.589 Y6.115 E3.28317
G1 X78.184 Y6.092 E3.31287
G1 X83.777 Y6.092 E3.59191
G1 X84.566 Y6.132 E3.63132
G1 X85.346 Y6.251 E3.67069
G1 X86.111 Y6.449 E3.71011
G1 X86.851 Y6.723 E3.74948
G1 X87.56 Y7.071 E3.78888
G1 X87.992 Y7.34 E3.81427
G1 X88.265 Y7.179 E3.83008
G1 X88.983 Y6.849 E3.86951
G1 X89.73 Y6.594 E3.90889
G1 X90.499 Y6.415 E3.94828
G1 X91.283 Y6.315 E3.98771
G1 X91.878 Y6.292 E4.01742
G1 X133.133 Y6.292 E6.07564
G1 X133.922 Y6.332 E6.11505
G1 X134.702 Y6.451 E6.15441
G1 X135.467 Y6.649 E6.19384
G1 X136.207 Y6.923 E6.23321
G1 X136.916 Y7.271 E6.27261
G1 X137.587 Y7.689 E6.31205
G1 X138.211 Y8.172 E6.35142
G1 X138.648 Y8.577 E6.38114
G1 X138.765 Y8.694 E6.3894
G1 X139.295 Y9.28 E6.42882
G1 X139.762 Y9.916 E6.46818
G1 X140.163 Y10.596 E6.50757
G1 X140.493 Y11.314 E6.54699
G1 X140.748 Y12.061 E6.58637
G1 X140.927 Y12.83 E6.62576
G1 X141.027 Y13.614 E6.66519
G1 X141.05 Y14.209 E6.6949
G1 X141.049 Y30.975 E7.53136
G1 X141.009 Y31.764 E7.57077
G1 X140.889 Y32.545 E7.61019
G1 X140.692 Y33.309 E7.64956
G1 X140.417 Y34.05 E7.68899
G1 X140.07 Y34.759 E7.72837
G1 X139.652 Y35.429 E7.76777
G1 X139.169 Y36.054 E7.80718
G1 X138.764 Y36.49 E7.83687
G1 X138.647 Y36.607 E7.84512
G1 X138.061 Y37.137 E7.88454
G1 X137.425 Y37.604 E7.9239
G1 X136.745 Y38.005 E7.96329
G1 X136.027 Y38.335 E8.00271
G1 X135.28 Y38.59 E8.04209
G1 X134.511 Y38.769 E8.08148
G1 X133.727 Y38.869 E8.12091
G1 X133.132 Y38.892 E8.15062
G1 X121.343 Y38.892 E8.73878
G1 X119.982 Y38.949 E8.80674
G1 X119.689 Y38.956 E8.82136
G1 X113.073 Y38.984 E9.15144
G1 X112.284 Y38.947 E9.19084
G1 X111.914 Y38.892 E9.2095
G1 X110.397 Y38.892 E9.28519
G1 X110.338 Y39.26 E9.30378
G1 X128.203 Y39.26 E10.19507
G1 X128.992 Y39.3 E10.23448
G1 X129.772 Y39.419 E10.27385
G1 X130.537 Y39.617 E10.31327
G1 X131.277 Y39.891 E10.35264
G1 X131.986 Y40.239 E10.39204
G1 X132.657 Y40.657 E10.43149
G1 X133.281 Y41.14 E10.47085
G1 X133.718 Y41.545 E10.50058
G1 X133.835 Y41.662 E10.50883
G1 X134.365 Y42.248 E10.54825
G1 X134.832 Y42.884 E10.58762
G1 X135.233 Y43.564 E10.627
G1 X135.563 Y44.282 E10.66643
G1 X135.818 Y45.029 E10.70581
G1 X135.997 Y45.798 E10.7452
G1 X136.097 Y46.582 E10.78463
G1 X136.12 Y47.177 E10.81433
G1 X136.119 Y63.943 E11.65079
G1 X136.079 Y64.732 E11.69021
G1 X135.959 Y65.513 E11.72963
G1 X135.762 Y66.277 E11.76899
G1 X135.487 Y67.018 E11.80842
G1 X135.14 Y67.727 E11.84781
G1 X134.722 Y68.397 E11.8872
G1 X134.239 Y69.022 E11.92661
G1 X133.834 Y69.458 E11.9563
G1 X133.717 Y69.575 E11.96456
G1 X133.131 Y70.105 E12.00397
G1 X132.495 Y70.572 E12.04334
G1 X131.815 Y70.973 E12.08273
G1 X131.097 Y71.303 E12.12215
G1 X130.35 Y71.558 E12.16153
G1 X129.581 Y71.737 E12.20092
G1 X128.797 Y71.837 E12.24035
G1 X128.202 Y71.86 E12.27006
G1 X123.108 Y71.86 E12.5242
G1 X123.094 Y72.74 E12.56811
G1 X123.059 Y73.17 E12.58963
G1 X122.955 Y73.953 E12.62904
G1 X122.773 Y74.721 E12.66841
G1 X122.514 Y75.467 E12.70781
G1 X122.181 Y76.183 E12.74721
G1 X121.777 Y76.861 E12.78658
G1 X121.474 Y77.285 E12.81258
G1 X121.306 Y77.504 E12.82635
G1 X120.794 Y78.105 E12.86574
G1 X120.224 Y78.652 E12.90516
G1 X119.602 Y79.138 E12.94454
G1 X118.934 Y79.559 E12.98393
G1 X118.226 Y79.91 E13.02336
G1 X117.487 Y80.187 E13.06273
G1 X117.055 Y80.311 E13.08515
G1 X116.361 Y80.489 E13.1209
G1 X115.341 Y80.68 E13.17267
G1 X114.421 Y80.789 E13.21889
G1 X113.633 Y80.842 E13.25829
G1 X112.869 Y80.816 E13.29643
G1 X112.472 Y80.841 E13.31627
G1 X111.751 Y80.814 E13.35227
G1 X111.341 Y80.841 E13.37277
G1 X110.633 Y80.815 E13.40812
G1 X110.192 Y80.843 E13.43016
G1 X109.447 Y80.816 E13.46735
G1 X109.063 Y80.84 E13.48655
G1 X108.421 Y80.816 E13.5186
G1 X107.836 Y80.852 E13.54784
G1 X107.047 Y80.822 E13.58723
G1 X106.265 Y80.712 E13.62663
G1 X105.498 Y80.524 E13.66603
G1 X104.754 Y80.259 E13.70543
G1 X104.041 Y79.92 E13.74482
G1 X103.365 Y79.511 E13.78424
G1 X102.964 Y79.22 E13.80896
G1 X102.503 Y78.863 E13.83805
G1 X101.904 Y78.349 E13.87743
G1 X101.36 Y77.776 E13.91684
G1 X101.265 Y77.653 E13.9246
G1 X100.777 Y77.968 E13.95358
G1 X100.093 Y78.362 E13.99296
G1 X99.372 Y78.685 E14.03237
G1 X98.85 Y78.867 E14.05995
G1 X96.169 Y79.695 E14.19994
G1 X95.26 Y79.917 E14.24663
G1 X91.536 Y80.593 E14.43545
G1 X90.753 Y80.694 E14.47484
G1 X89.964 Y80.716 E14.51422
G1 X89.176 Y80.658 E14.55364
G1 X88.398 Y80.52 E14.59306
G1 X87.639 Y80.305 E14.63242
G1 X86.905 Y80.014 E14.67181
G1 X86.204 Y79.65 E14.71122
G1 X85.543 Y79.217 E14.75064
G1 X84.961 Y78.748 E14.78793
G1 X84.826 Y78.628 E14.79694
G1 X84.263 Y78.074 E14.83635
G1 X83.759 Y77.466 E14.87575
G1 X83.319 Y76.81 E14.91516
G1 X82.948 Y76.113 E14.95455
G1 X82.649 Y75.383 E14.9939
G1 X82.425 Y74.625 E15.03334
G1 X82.279 Y73.849 E15.07273
G1 X82.208 Y72.805 E15.12494
G1 X82.207 Y71.293 E15.20037
G1 X81.552 Y71.574 E15.23593
G1 X80.799 Y71.81 E15.2753
G1 X80.026 Y71.97 E15.31468
G1 X79.24 Y72.05 E15.3541
G1 X78.841 Y72.06 E15.37401
G1 X73.253 Y72.06 E15.6528
G1 X72.784 Y72.036 E15.67623
G1 X72.632 Y72.088 E15.68424
G1 X71.863 Y72.267 E15.72363
G1 X71.079 Y72.367 E15.76306
G1 X70.484 Y72.39 E15.79277
G1 X64.892 Y72.39 E16.07176
G1 X64.103 Y72.35 E16.11117
G1 X63.323 Y72.231 E16.15053
G1 X62.558 Y72.033 E16.18996
G1 X61.818 Y71.759 E16.22933
G1 X61.53 Y71.618 E16.24532
G1 X61.529 Y73.135 E16.32101
G1 X61.488 Y73.923 E16.36037
G1 X61.368 Y74.704 E16.3998
G1 X61.17 Y75.468 E16.43917
G1 X60.895 Y76.209 E16.4786
G1 X60.547 Y76.917 E16.51796
G1 X60.129 Y77.587 E16.55736
G1 X59.645 Y78.211 E16.59676
G1 X58.933 Y78.939 E16.64756
G1 X58.799 Y79.059 E16.65654
G1 X58.184 Y79.555 E16.69595
G1 X57.523 Y79.987 E16.73535
G1 X56.822 Y80.349 E16.77471
G1 X56.087 Y80.639 E16.81413
G1 X55.327 Y80.853 E16.85352
G1 X54.549 Y80.989 E16.89292
G1 X53.761 Y81.046 E16.93234
G1 X52.972 Y81.023 E16.97172
G1 X52.199 Y80.922 E17.01061
G1 X48.462 Y80.242 E17.20012
G1 X47.546 Y80.018 E17.24716
G1 X44.852 Y79.182 E17.38789
G1 X44.111 Y78.91 E17.42727
G1 X43.401 Y78.564 E17.46667
G1 X42.71 Y78.135 E17.50725
G1 X42.479 Y77.974 E17.5213
G1 X42.379 Y78.104 E17.52948
G1 X41.836 Y78.677 E17.56886
G1 X41.241 Y79.188 E17.60799
G1 X40.781 Y79.545 E17.63704
G1 X40.134 Y79.997 E17.67642
G1 X39.444 Y80.381 E17.71582
G1 X38.719 Y80.694 E17.75521
G1 X37.965 Y80.931 E17.79465
G1 X37.192 Y81.091 E17.83403
G1 X36.407 Y81.172 E17.8734
G1 X35.617 Y81.174 E17.91281
G1 X35.28 Y81.146 E17.92968
G1 X34.88 Y81.172 E17.94968
G1 X34.232 Y81.14 E17.98205
G1 X33.747 Y81.171 E18.0063
G1 X33.103 Y81.139 E18.03847
G1 X32.608 Y81.171 E18.06321
G1 X31.968 Y81.139 E18.09518
G1 X31.462 Y81.171 E18.12048
G1 X30.835 Y81.139 E18.1518
G1 X30.346 Y81.171 E18.17625
G1 X29.327 Y81.119 E18.22715
G1 X28.436 Y81.015 E18.27191
G1 X27.384 Y80.819 E18.32529
G1 X26.666 Y80.633 E18.3623
G1 X25.913 Y80.396 E18.40168
G1 X25.187 Y80.085 E18.44108
G1 X24.496 Y79.702 E18.4805
G1 X23.848 Y79.251 E18.51989
G1 X23.249 Y78.736 E18.5593
G1 X22.705 Y78.164 E18.59868
G1 X22.447 Y77.847 E18.61907
G1 X22.278 Y77.628 E18.63287
G1 X21.828 Y76.979 E18.67227
G1 X21.445 Y76.288 E18.71169
G1 X21.135 Y75.562 E18.75107
G1 X20.9 Y74.809 E18.79043
G1 X20.742 Y74.035 E18.82984
G1 X20.681 Y73.518 E18.85581
G1 X20.645 Y73.091 E18.87719
G1 X20.618 Y72.302 E18.91658
G1 X20.626 Y72.19 E18.92218
G1 X15.535 Y72.19 E19.17617
G1 X14.746 Y72.15 E19.21558
G1 X13.966 Y72.031 E19.25495
G1 X13.201 Y71.833 E19.29437
G1 X12.461 Y71.559 E19.33374
G1 X11.752 Y71.211 E19.37314
G1 X11.081 Y70.793 E19.41258
G1 X10.457 Y70.31 E19.45195
G1 X10.02 Y69.905 E19.48168
G1 X9.903 Y69.788 E19.48993
G1 X9.373 Y69.202 E19.52935
G1 X8.906 Y68.566 E19.56872
G1 X8.505 Y67.886 E19.6081
G1 X8.175 Y67.168 E19.64753
G1 X7.92 Y66.421 E19.68691
G1 X7.741 Y65.652 E19.7263
G1 X7.641 Y64.868 E19.76573
G1 X7.618 Y64.273 E19.79543
G1 X7.617 Y47.507 E20.63189
G1 X7.657 Y46.719 E20.67126
G1 X7.776 Y45.938 E20.71067
G1 X7.974 Y45.174 E20.75005
G1 X8.248 Y44.433 E20.78946
G1 X8.596 Y43.724 E20.82886
G1 X9.013 Y43.054 E20.86824
G1 X9.496 Y42.429 E20.90764
G1 X9.902 Y41.992 E20.9374
G1 X10.019 Y41.875 E20.94566
G1 X10.605 Y41.345 E20.98508
G1 X11.241 Y40.878 E21.02444
G1 X11.921 Y40.477 E21.06383
G1 X12.639 Y40.147 E21.10325
G1 X13.386 Y39.892 E21.14263
G1 X14.155 Y39.713 E21.18202
G1 X14.939 Y39.613 E21.22145
G1 X15.534 Y39.59 E21.25116
G1 X16.138 Y39.59 E21.28129
G1 X15.6 Y39.326 E21.31119
G1 X14.929 Y38.908 E21.35063
G1 X14.305 Y38.425 E21.39
G1 X13.868 Y38.02 E21.41973
G1 X13.751 Y37.903 E21.42798
G1 X13.221 Y37.317 E21.4674
G1 X12.754 Y36.681 E21.50677
G1 X12.353 Y36.001 E21.54615
G1 X12.023 Y35.283 E21.58557
G1 X11.768 Y34.536 E21.62495
G1 X11.589 Y33.767 E21.66434
G1 X11.489 Y32.983 E21.70378
G1 X11.466 Y32.388 E21.73348
G1 X11.465 Y15.622 E22.56994
G1 X11.505 Y14.834 E22.60931
G1 X11.624 Y14.053 E22.64872
G1 X11.822 Y13.289 E22.68809
G1 X12.096 Y12.548 E22.72751
G1 X12.444 Y11.839 E22.76691
G1 X12.861 Y11.169 E22.80629
G1 X13.344 Y10.544 E22.84569
G0 F3600 X13.74 Y10.699
G1 F1800 X14.032 Y10.389 E22.86694
G1 X14.149 Y10.272 E22.87519
G1 X14.721 Y9.758 E22.91356
G1 X15.343 Y9.305 E22.95195
G1 X16.008 Y8.919 E22.99031
G1 X16.71 Y8.604 E23.0287
G1 X17.441 Y8.364 E23.06708
G1 X18.192 Y8.201 E23.10542
G1 X18.957 Y8.117 E23.14382
G1 X19.382 Y8.105 E23.16503
G1 X60.637 Y8.105 E25.22325
G1 X61.405 Y8.145 E25.26162
G1 X62.165 Y8.264 E25.3
G1 X62.908 Y8.462 E25.33836
G1 X63.627 Y8.736 E25.37675
G1 X64.313 Y9.083 E25.4151
G1 X64.536 Y9.227 E25.42834
G1 X64.996 Y8.923 E25.45585
G1 X65.679 Y8.569 E25.49423
G1 X66.394 Y8.287 E25.53258
G1 X67.135 Y8.082 E25.57093
G1 X67.894 Y7.954 E25.60934
G1 X68.742 Y7.905 E25.65171
G1 X73.853 Y7.905 E25.9067
G1 X74.145 Y7.692 E25.92473
G1 X74.81 Y7.306 E25.9631
G1 X75.512 Y6.991 E26.00148
G1 X76.243 Y6.751 E26.03987
G1 X76.994 Y6.588 E26.07821
G1 X77.759 Y6.504 E26.1166
G1 X78.184 Y6.492 E26.13781
G1 X83.777 Y6.492 E26.41685
G1 X84.545 Y6.532 E26.45522
G1 X85.305 Y6.651 E26.4936
G1 X86.048 Y6.849 E26.53196
G1 X86.767 Y7.123 E26.57035
G1 X87.453 Y7.47 E26.6087
G1 X87.981 Y7.81 E26.64003
G1 X88.504 Y7.506 E26.67021
G1 X89.206 Y7.191 E26.7086
G1 X89.937 Y6.951 E26.74698
G1 X90.688 Y6.788 E26.78532
G1 X91.453 Y6.704 E26.82372
G1 X91.878 Y6.692 E26.84493
G1 X133.133 Y6.692 E28.90315
G1 X133.901 Y6.732 E28.94152
G1 X134.661 Y6.851 E28.9799
G1 X135.404 Y7.049 E29.01826
G1 X136.123 Y7.323 E29.05665
G1 X136.809 Y7.67 E29.095
G1 X137.456 Y8.086 E29.13338
G1 X138.056 Y8.567 E29.17174
G1 X138.366 Y8.859 E29.19299
G1 X138.483 Y8.976 E29.20124
G1 X138.997 Y9.548 E29.23961
G1 X139.45 Y10.17 E29.278
G1 X139.836 Y10.835 E29.31636
G1 X140.151 Y11.537 E29.35475
G1 X140.391 Y12.268 E29.39313
G1 X140.554 Y13.019 E29.43147
G1 X140.638 Y13.784 E29.46987
G1 X140.65 Y14.209 E29.49108
G1 X140.649 Y30.975 E30.32754
G1 X140.609 Y31.744 E30.36596
G1 X140.489 Y32.503 E30.40429
G1 X140.292 Y33.247 E30.44269
G1 X140.018 Y33.965 E30.48103
G1 X139.671 Y34.652 E30.51943
G1 X139.255 Y35.299 E30.55781
G1 X138.773 Y35.899 E30.5962
G1 X138.482 Y36.208 E30.61738
G1 X138.365 Y36.325 E30.62563
G1 X137.793 Y36.839 E30.664
G1 X137.171 Y37.292 E30.70239
G1 X136.506 Y37.678 E30.74075
G1 X135.804 Y37.993 E30.77914
G1 X135.073 Y38.233 E30.81752
G1 X134.322 Y38.396 E30.85586
G1 X133.557 Y38.48 E30.89426
G1 X133.132 Y38.492 E30.91547
G1 X121.351 Y38.492 E31.50323
G1 X119.966 Y38.55 E31.57238
G1 X119.687 Y38.556 E31.58631
G1 X113.071 Y38.584 E31.91638
G1 X112.303 Y38.547 E31.95474
G1 X111.943 Y38.492 E31.97291
G1 X110.058 Y38.492 E32.06696
G1 X109.934 Y39.239 E32.10473
G1 X109.819 Y39.66 E32.12651
G1 X128.203 Y39.66 E33.04369
G1 X128.971 Y39.7 E33.08206
G1 X129.731 Y39.819 E33.12043
G1 X130.474 Y40.017 E33.1588
G1 X131.193 Y40.291 E33.19718
G1 X131.879 Y40.638 E33.23554
G1 X132.526 Y41.054 E33.27391
G1 X133.126 Y41.535 E33.31228
G1 X133.436 Y41.827 E33.33353
G1 X133.553 Y41.944 E33.34178
G1 X134.067 Y42.516 E33.38015
G1 X134.52 Y43.138 E33.41854
G1 X134.906 Y43.803 E33.4569
G1 X135.221 Y44.505 E33.49528
G1 X135.461 Y45.236 E33.53367
G1 X135.624 Y45.987 E33.57201
G1 X135.708 Y46.752 E33.6104
G1 X135.72 Y47.177 E33.63162
G1 X135.719 Y63.943 E34.46808
G1 X135.679 Y64.712 E34.50649
G1 X135.559 Y65.471 E34.54483
G1 X135.362 Y66.215 E34.58323
G1 X135.088 Y66.933 E34.62157
G1 X134.741 Y67.62 E34.65997
G1 X134.325 Y68.267 E34.69834
G1 X133.843 Y68.867 E34.73674
G1 X133.552 Y69.176 E34.75792
G1 X133.435 Y69.293 E34.76617
G1 X132.863 Y69.807 E34.80454
G1 X132.241 Y70.26 E34.84293
G1 X131.576 Y70.646 E34.88129
G1 X130.874 Y70.961 E34.91967
G1 X130.143 Y71.201 E34.95806
G1 X129.392 Y71.364 E34.9964
G1 X128.627 Y71.448 E35.03479
G1 X128.202 Y71.46 E35.05601
G1 X122.684 Y71.46 E35.3313
G1 X122.72 Y72.032 E35.35989
G1 X122.696 Y72.707 E35.39359
G1 X122.661 Y73.137 E35.41511
G1 X122.558 Y73.9 E35.45353
G1 X122.378 Y74.647 E35.49186
G1 X122.12 Y75.372 E35.53025
G1 X121.789 Y76.066 E35.56861
G1 X121.388 Y76.722 E35.60697
G1 X121.156 Y77.041 E35.62665
G1 X120.988 Y77.26 E35.64042
G1 X120.489 Y77.845 E35.67878
G1 X119.932 Y78.375 E35.71714
G1 X119.323 Y78.845 E35.75552
G1 X118.668 Y79.248 E35.79389
G1 X117.975 Y79.582 E35.83227
G1 X116.955 Y79.924 E35.88594
G1 X116.261 Y80.102 E35.92168
G1 X115.294 Y80.283 E35.97077
G1 X114.374 Y80.392 E36.01699
G1 X113.606 Y80.442 E36.05538
G1 X112.877 Y80.414 E36.09178
G1 X112.446 Y80.442 E36.11333
G1 X111.762 Y80.413 E36.14748
G1 X111.315 Y80.442 E36.16983
G1 X110.645 Y80.414 E36.20329
G1 X110.167 Y80.444 E36.22718
G1 X109.46 Y80.415 E36.26248
G1 X109.038 Y80.441 E36.28358
G1 X108.424 Y80.415 E36.31424
G1 X107.811 Y80.453 E36.34488
G1 X107.042 Y80.42 E36.38328
G1 X106.281 Y80.308 E36.42165
G1 X105.536 Y80.117 E36.46003
G1 X104.815 Y79.85 E36.49838
G1 X104.125 Y79.51 E36.53676
G1 X103.209 Y78.904 E36.59155
G1 X102.748 Y78.547 E36.62064
G1 X102.165 Y78.045 E36.65903
G1 X101.638 Y77.485 E36.69739
G1 X101.357 Y77.118 E36.72045
G1 X100.56 Y77.632 E36.76777
G1 X99.893 Y78.015 E36.80614
G1 X99.19 Y78.326 E36.84449
G1 X98.732 Y78.484 E36.86866
G1 X96.051 Y79.312 E37.00865
G1 X95.189 Y79.523 E37.05293
G1 X91.465 Y80.199 E37.24175
G1 X90.702 Y80.297 E37.28013
G1 X89.933 Y80.315 E37.31851
G1 X89.166 Y80.253 E37.3569
G1 X88.41 Y80.112 E37.39527
G1 X87.673 Y79.893 E37.43362
G1 X86.962 Y79.599 E37.47201
G1 X86.286 Y79.233 E37.51036
G1 X85.651 Y78.799 E37.54873
G1 X85.227 Y78.449 E37.57616
G1 X85.092 Y78.329 E37.58517
G1 X84.544 Y77.789 E37.62356
G1 X84.056 Y77.195 E37.66191
G1 X83.631 Y76.553 E37.70032
G1 X83.276 Y75.871 E37.73868
G1 X82.994 Y75.155 E37.77707
G1 X82.787 Y74.415 E37.81541
G1 X82.658 Y73.656 E37.85382
G1 X82.608 Y72.804 E37.8964
G1 X82.606 Y70.63 E38.00486
G1 X82.586 Y70.643 E38.00605
G1 X81.903 Y70.997 E38.04443
