;FLAVOR:Marlin
;TIME:7567
;Filament used: 8.3646m
;Layer height: 0.2
;Generated with Cura_SteamEngine 3.6.0
M140 S85
M105
M190 S85
M104 S245
M105
M109 S245
M82 ;absolute extrusion mode
G21 ;metric values
 G90 ;absolute positioning
 M82 ;set extruder to absolute mode
 M107 ;start with the fan off
 G28 X0 Y0 ;move X/Y to min endstops
 G28 Z0 ;move Z to min endstops
 G1 Z15.0 F{travel_speed} ;move the platform down 15mm
 G92 E0 ;zero the extruded length
 G1 F200 E6 ;extrude 6 mm of feed stock
 G92 E0 ;zero the extruded length again
 G1 F{travel_speed} 
 ;Put printing message on LCD screen
 M117 Printing...
G92 E0
G1 F3600 E-0.6
;LAYER_COUNT:65
;LAYER:0
M107
G0 F3600 X82.369 Y59.109 Z0.3
;TYPE:SKIRT
G1 F3600 E0
G1 F1800 X84.449 Y60.075 E0.11442
G1 X100.035 Y61.191 E0.894
G1 X114.894 Y60.265 E1.63675
G1 X117.631 Y59.02 E1.78677
G1 X115.551 Y58.054 E1.90118
G1 X99.965 Y56.937 E2.68077
G1 X85.106 Y57.864 E3.42353
G1 X82.369 Y59.109 E3.57354
G0 F3600 X81.411 Y59.105
G1 F1800 X84.346 Y60.469 E3.73501
G1 X100.031 Y61.591 E4.51953
G1 X114.993 Y60.66 E5.26743
G1 X118.589 Y59.024 E5.46453
G1 X115.654 Y57.66 E5.626
G1 X99.969 Y56.537 E6.41053
G1 X85.007 Y57.469 E7.15844
G1 X81.411 Y59.105 E7.35554
G0 F3600 X80.454 Y59.102
G1 F1800 X84.244 Y60.863 E7.56403
G1 X100.035 Y61.993 E8.35386
G1 X115.09 Y61.055 E9.10642
G1 X119.546 Y59.027 E9.35067
G1 X115.756 Y57.266 E9.55917
G1 X99.965 Y56.135 E10.349
G1 X84.91 Y57.074 E11.10156
G1 X80.454 Y59.102 E11.34581
G0 F3600 X84.141 Y61.257
G1 F1800 X100.031 Y62.394 E12.14059
G1 X115.188 Y61.45 E12.89824
G1 X120.504 Y59.031 E13.18963
G1 X115.859 Y56.872 E13.44518
G1 X99.969 Y55.735 E14.23996
G1 X84.812 Y56.679 E14.99761
G1 X79.496 Y59.098 E15.28899
G1 X84.141 Y61.257 E15.54454
G0 F3600 X84.042 Y61.65
G1 F1800 X100.028 Y62.794 E16.34413
G1 X115.287 Y61.844 E17.10688
G1 X121.46 Y59.035 E17.44523
G1 X115.958 Y56.478 E17.74793
G1 X99.973 Y55.334 E18.54746
G1 X84.713 Y56.285 E19.31026
G1 X78.54 Y59.094 E19.64862
G1 X84.042 Y61.65 E19.95129
G0 F3600 X83.939 Y62.044
G1 F1800 X100.024 Y63.195 E20.75583
G1 X115.387 Y62.238 E21.52378
G1 X122.418 Y59.039 E21.90915
G1 X116.061 Y56.085 E22.25888
G1 X99.977 Y54.933 E23.06337
G1 X84.613 Y55.891 E23.83137
G1 X77.582 Y59.09 E24.21675
G1 X83.939 Y62.044 E24.56647
G0 F3600 X83.837 Y62.438
G1 F1800 X100.02 Y63.596 E25.3759
G1 X115.485 Y62.633 E26.14895
G1 X123.375 Y59.042 E26.58144
G1 X116.163 Y55.691 E26.97819
G1 X99.98 Y54.532 E27.78763
G1 X84.515 Y55.496 E28.56068
G1 X76.625 Y59.087 E28.99317
G1 X83.837 Y62.438 E29.38992
G0 F3600 X83.734 Y62.832
G1 F1800 X100.024 Y63.997 E30.2047
G1 X115.582 Y63.028 E30.9824
G1 X124.333 Y59.046 E31.46206
G1 X116.266 Y55.297 E31.90587
G1 X99.976 Y54.131 E32.72066
G1 X84.419 Y55.101 E33.49831
G1 X75.667 Y59.083 E33.97801
G1 X83.734 Y62.832 E34.42182
G0 F3600 X83.634 Y63.225
G1 F1800 X100.02 Y64.398 E35.24141
G1 X115.681 Y63.423 E36.02425
G1 X125.29 Y59.05 E36.55096
G1 X116.366 Y54.904 E37.04188
G1 X99.98 Y53.73 E37.86148
G1 X84.319 Y54.706 E38.64432
G1 X74.71 Y59.079 E39.17103
G1 X83.634 Y63.225 E39.66195
G0 F3600 X83.532 Y63.619
G1 F1800 X100.017 Y64.799 E40.4865
G1 X115.779 Y63.817 E41.27439
G1 X126.247 Y59.054 E41.84816
G1 X116.468 Y54.51 E42.38613
G1 X99.983 Y53.329 E43.21068
G1 X84.221 Y54.312 E43.99858
G1 X73.753 Y59.075 E44.57235
G1 X83.532 Y63.619 E45.11032
G0 F3600 X83.429 Y64.013
G1 F1800 X100.013 Y65.2 E45.93982
G1 X115.878 Y64.212 E46.73286
G1 X127.205 Y59.057 E47.35374
G1 X116.571 Y54.116 E47.93874
G1 X99.987 Y52.928 E48.76824
G1 X84.122 Y53.917 E49.56129
G1 X72.795 Y59.072 E50.18217
G1 X83.429 Y64.013 E50.76717
G0 F3600 X83.327 Y64.407
G1 F1800 X100.017 Y65.601 E51.60197
G1 X115.975 Y64.607 E52.39966
G1 X128.162 Y59.061 E53.06767
G1 X116.673 Y53.722 E53.69972
G1 X99.984 Y52.527 E54.53447
G1 X84.025 Y53.522 E55.33221
G1 X71.838 Y59.068 E56.00022
G1 X83.327 Y64.407 E56.63228
G0 F3600 X83.227 Y64.8
G1 F1800 X100.013 Y66.002 E57.47188
G1 X116.073 Y65.002 E58.27467
G1 X129.118 Y59.065 E58.98972
G1 X116.773 Y53.328 E59.66887
G1 X99.988 Y52.126 E60.50842
G1 X83.927 Y53.127 E61.31127
G1 X70.882 Y59.064 E62.02632
G1 X83.227 Y64.8 E62.70545
G0 F3600 X83.125 Y65.194
G1 F1800 X100.009 Y66.402 E63.54995
G1 X116.175 Y65.396 E64.35803
G1 X130.077 Y59.069 E65.12006
G1 X116.875 Y52.935 E65.84633
G1 X99.991 Y51.726 E66.69083
G1 X83.825 Y52.733 E67.49892
G1 X69.923 Y59.06 E68.26095
G1 X83.125 Y65.194 E68.98722
G0 F3600 X83.022 Y65.588
G1 F1800 X100.005 Y66.803 E69.83667
G1 X116.274 Y65.79 E70.64991
G1 X130.47 Y59.33 E71.42803
G1 X130.866 Y59.193 E71.44894
G1 X131.137 Y59.146 E71.46266
G1 X131.904 Y59.061 E71.50116
G1 X131.076 Y58.967 E71.54273
G1 X130.666 Y58.881 E71.56363
G1 X130.396 Y58.776 E71.57809
G1 X116.978 Y52.541 E72.31625
G1 X99.995 Y51.325 E73.16571
G1 X83.726 Y52.339 E73.97895
G1 X69.53 Y58.799 E74.75707
G1 X69.134 Y58.936 E74.77798
G1 X68.863 Y58.983 E74.7917
G1 X68.097 Y59.069 E74.83016
G1 X68.924 Y59.162 E74.87167
G1 X69.334 Y59.248 E74.89257
G1 X69.604 Y59.353 E74.90703
G1 X83.022 Y65.588 E75.6452
G0 F3600 X82.92 Y65.982
G1 F1800 X100.001 Y67.204 E76.49955
G1 X116.372 Y66.185 E77.31788
G1 X130.635 Y59.694 E78.09969
G1 X131.182 Y59.543 E78.128
G1 X135.486 Y59.063 E78.34406
G1 X131.121 Y58.57 E78.56321
G1 X130.751 Y58.488 E78.58212
G1 X130.564 Y58.413 E78.59217
G1 X117.08 Y52.147 E79.33398
G1 X99.998 Y50.924 E80.18839
G1 X83.628 Y51.944 E81.00667
G1 X69.365 Y58.435 E81.78848
G1 X68.819 Y58.586 E81.81674
G1 X64.52 Y59.066 E82.03255
G1 X68.879 Y59.559 E82.25141
G1 X69.249 Y59.641 E82.27032
G1 X69.436 Y59.716 E82.28037
G1 X82.92 Y65.982 E83.02218
G0 F3600 X82.82 Y66.376
G1 F1800 X100.006 Y67.605 E83.88178
G1 X116.469 Y66.58 E84.70471
G1 X130.801 Y60.058 E85.49029
G1 X131.226 Y59.941 E85.51229
G1 X139.077 Y59.066 E85.9064
G1 X131.166 Y58.172 E86.30359
G1 X130.733 Y58.051 E86.32602
G1 X117.18 Y51.753 E87.07162
G1 X99.994 Y50.523 E87.93123
G1 X83.531 Y51.549 E88.75417
G1 X69.199 Y58.071 E89.53975
G1 X68.774 Y58.188 E89.56174
G1 X60.933 Y59.064 E89.95536
G1 X68.834 Y59.957 E90.35205
G1 X69.267 Y60.078 E90.37448
G1 X82.82 Y66.376 E91.12009
G0 F3600 X82.717 Y66.769
G1 F1800 X100.002 Y68.006 E91.98464
G1 X116.568 Y66.974 E92.81273
G1 X130.967 Y60.422 E93.60197
G1 X131.27 Y60.338 E93.61766
G1 X140.149 Y59.348 E94.06338
G1 X140.249 Y59.342 E94.06838
G1 X140.992 Y59.334 E94.10545
G1 X141.272 Y59.371 E94.11954
G1 X141.53 Y59.484 E94.13359
G1 X141.747 Y59.665 E94.14769
G1 X141.904 Y59.9 E94.16179
G1 X141.989 Y60.169 E94.17586
G1 X142.002 Y60.368 E94.18581
G1 X141.909 Y63.109 E94.32264
G1 X141.908 Y69.008 E94.61694
G1 X141.868 Y69.287 E94.631
G1 X141.752 Y69.545 E94.64512
G1 X141.568 Y69.759 E94.6592
G1 X141.332 Y69.913 E94.67325
G1 X141.063 Y69.996 E94.6873
G1 X140.908 Y70.008 E94.69506
G1 X136.48 Y70.008 E94.91597
G1 X136.48 Y76.428 E95.23626
G1 X140.908 Y76.428 E95.45718
G1 X141.187 Y76.468 E95.47124
G1 X141.444 Y76.584 E95.48531
G1 X141.659 Y76.767 E95.49939
G1 X141.813 Y77.003 E95.51345
G1 X141.896 Y77.273 E95.52754
G1 X141.908 Y77.428 E95.5353
G1 X141.909 Y86.188 E95.97234
G1 X141.869 Y86.467 E95.9864
G1 X141.753 Y86.724 E96.00047
G1 X141.57 Y86.939 E96.01455
G1 X141.334 Y87.093 E96.02861
G1 X141.064 Y87.176 E96.04271
G1 X140.909 Y87.188 E96.05046
G1 X136.48 Y87.188 E96.27143
G1 X136.48 Y93.608 E96.59172
G1 X140.908 Y93.608 E96.81263
G1 X141.187 Y93.648 E96.8267
G1 X141.444 Y93.764 E96.84076
G1 X141.659 Y93.947 E96.85485
G1 X141.813 Y94.183 E96.86891
G1 X141.908 Y94.582 E96.88937
G1 X142.003 Y98.171 E97.06849
G1 X142.003 Y98.197 E97.06979
G1 X142.005 Y103.284 E97.32358
G1 X141.965 Y103.563 E97.33764
G1 X141.849 Y103.82 E97.35171
G1 X141.666 Y104.035 E97.36579
G1 X141.43 Y104.189 E97.37985
G1 X141.16 Y104.272 E97.39394
G1 X140.992 Y104.284 E97.40235
G1 X140.207 Y104.274 E97.44151
G1 X140.108 Y104.268 E97.44646
G1 X131.211 Y103.263 E97.89316
G1 X130.902 Y103.176 E97.90917
G1 X117.283 Y96.847 E98.65841
G1 X99.998 Y95.61 E99.52297
G1 X83.432 Y96.643 E100.35106
G1 X69.033 Y103.195 E101.1403
G1 X68.73 Y103.279 E101.15599
G1 X59.868 Y104.269 E101.60087
G1 X59.768 Y104.275 E101.60586
G1 X59.008 Y104.283 E101.64378
G1 X58.728 Y104.246 E101.65787
G1 X58.47 Y104.133 E101.67192
G1 X58.253 Y103.951 E101.68605
G1 X58.096 Y103.717 E101.70011
G1 X58.011 Y103.448 E101.71419
G1 X57.998 Y103.249 E101.72414
G1 X58.092 Y100.509 E101.86092
G1 X58.092 Y94.608 E102.15532
G1 X58.132 Y94.329 E102.16938
G1 X58.248 Y94.072 E102.18345
G1 X58.431 Y93.857 E102.19753
G1 X58.667 Y93.703 E102.21159
G1 X58.937 Y93.62 E102.22568
G1 X59.092 Y93.608 E102.23344
G1 X63.52 Y93.608 E102.45435
G1 X63.52 Y87.188 E102.77465
G1 X59.092 Y87.188 E102.99556
G1 X58.813 Y87.148 E103.00963
G1 X58.556 Y87.032 E103.02369
G1 X58.341 Y86.849 E103.03778
G1 X58.187 Y86.613 E103.05184
G1 X58.104 Y86.343 E103.06593
G1 X58.092 Y86.188 E103.07369
G1 X58.091 Y77.428 E103.51072
G1 X58.131 Y77.149 E103.52479
G1 X58.247 Y76.892 E103.53885
G1 X58.43 Y76.677 E103.55294
G1 X58.666 Y76.523 E103.567
G1 X58.936 Y76.44 E103.58109
G1 X59.091 Y76.428 E103.58885
G1 X63.52 Y76.428 E103.80981
G1 X63.52 Y70.008 E104.13011
G1 X59.092 Y70.008 E104.35102
G1 X58.813 Y69.968 E104.36508
G1 X58.556 Y69.852 E104.37915
G1 X58.341 Y69.669 E104.39323
G1 X58.187 Y69.433 E104.40729
G1 X58.092 Y69.034 E104.42776
G1 X57.997 Y65.445 E104.60688
G1 X57.997 Y65.419 E104.60817
G1 X57.995 Y60.333 E104.86191
G1 X58.035 Y60.054 E104.87598
G1 X58.151 Y59.797 E104.89004
G1 X58.334 Y59.582 E104.90413
G1 X58.57 Y59.428 E104.91819
G1 X58.84 Y59.345 E104.93228
G1 X59.008 Y59.333 E104.94068
G1 X59.798 Y59.343 E104.9801
G1 X59.897 Y59.349 E104.98505
G1 X68.789 Y60.354 E105.4315
G1 X69.098 Y60.441 E105.44751
G1 X82.717 Y66.769 E106.19673
G0 F3600 X82.615 Y67.163
G1 F1800 X99.998 Y68.407 E107.06619
G1 X116.666 Y67.369 E107.89937
G1 X131.132 Y60.786 E108.6923
G1 X131.315 Y60.736 E108.70176
G1 X140.194 Y59.746 E109.14748
G1 X140.254 Y59.742 E109.15048
G1 X140.997 Y59.734 E109.18755
G1 X141.211 Y59.771 E109.19839
G1 X141.399 Y59.883 E109.2093
G1 X141.534 Y60.054 E109.22017
G1 X141.603 Y60.354 E109.23553
G1 X141.509 Y63.129 E109.37406
G1 X141.508 Y69.008 E109.66736
G1 X141.468 Y69.223 E109.67827
G1 X141.355 Y69.409 E109.68913
G1 X141.182 Y69.542 E109.70002
G1 X140.908 Y69.608 E109.71408
G1 X136.08 Y69.608 E109.95495
G1 X136.08 Y76.828 E110.31515
G1 X140.908 Y76.828 E110.55602
G1 X141.123 Y76.868 E110.56693
G1 X141.309 Y76.981 E110.57779
G1 X141.442 Y77.154 E110.58868
G1 X141.508 Y77.428 E110.60274
G1 X141.509 Y86.188 E111.03978
G1 X141.469 Y86.402 E111.05064
G1 X141.356 Y86.589 E111.06154
G1 X141.183 Y86.722 E111.07243
G1 X140.909 Y86.788 E111.08649
G1 X136.08 Y86.788 E111.32741
G1 X136.08 Y94.008 E111.68761
G1 X140.908 Y94.008 E111.92848
G1 X141.123 Y94.048 E111.9394
G1 X141.309 Y94.161 E111.95025
G1 X141.442 Y94.334 E111.96114
G1 X141.508 Y94.592 E111.97443
G1 X141.603 Y98.181 E112.15354
G1 X141.603 Y98.197 E112.15434
G1 X141.605 Y103.284 E112.40813
G1 X141.565 Y103.498 E112.419
G1 X141.452 Y103.685 E112.4299
G1 X141.279 Y103.818 E112.44078
G1 X140.997 Y103.884 E112.45523
G1 X140.212 Y103.874 E112.4944
G1 X140.153 Y103.87 E112.49735
G1 X131.256 Y102.865 E112.94405
G1 X131.07 Y102.813 E112.95368
G1 X117.385 Y96.453 E113.70656
G1 X100.002 Y95.209 E114.57602
G1 X83.334 Y96.248 E115.4092
G1 X68.868 Y102.831 E116.20213
G1 X68.686 Y102.881 E116.21154
G1 X59.824 Y103.871 E116.65642
G1 X59.763 Y103.875 E116.65947
G1 X59.003 Y103.883 E116.69739
G1 X58.788 Y103.846 E116.70827
G1 X58.601 Y103.734 E116.71915
G1 X58.466 Y103.562 E116.73006
G1 X58.397 Y103.262 E116.74542
G1 X58.492 Y100.488 E116.88389
G1 X58.492 Y94.608 E117.17725
G1 X58.532 Y94.393 E117.18816
G1 X58.645 Y94.207 E117.19901
G1 X58.818 Y94.074 E117.2099
G1 X59.092 Y94.008 E117.22396
G1 X63.92 Y94.008 E117.46483
G1 X63.92 Y86.788 E117.82504
G1 X59.092 Y86.788 E118.06591
G1 X58.877 Y86.748 E118.07682
G1 X58.691 Y86.635 E118.08768
G1 X58.558 Y86.462 E118.09856
G1 X58.492 Y86.188 E118.11263
G1 X58.491 Y77.428 E118.54966
G1 X58.531 Y77.214 E118.56053
G1 X58.644 Y77.027 E118.57143
G1 X58.817 Y76.894 E118.58231
G1 X59.091 Y76.828 E118.59637
G1 X63.92 Y76.828 E118.83729
G1 X63.92 Y69.608 E119.1975
G1 X59.092 Y69.608 E119.43837
G1 X58.877 Y69.568 E119.44928
G1 X58.691 Y69.455 E119.46014
G1 X58.558 Y69.282 E119.47103
G1 X58.492 Y69.024 E119.48431
G1 X58.397 Y65.435 E119.66343
G1 X58.397 Y65.419 E119.66423
G1 X58.395 Y60.333 E119.91797
G1 X58.435 Y60.119 E119.92883
G1 X58.548 Y59.932 E119.93973
G1 X58.721 Y59.799 E119.95062
G1 X59.003 Y59.733 E119.96507
G1 X59.793 Y59.743 E120.00448
G1 X59.852 Y59.747 E120.00743
G1 X68.744 Y60.752 E120.45388
G1 X68.93 Y60.804 E120.46352
G1 X82.615 Y67.163 E121.21637
G0 F3600 X82.512 Y67.557
G1 F1800 X99.994 Y68.808 E122.09079
G1 X116.766 Y67.763 E122.92917
G1 X131.298 Y61.15 E123.72571
G1 X131.359 Y61.133 E123.72887
G1 X140.238 Y60.143 E124.17459
G1 X140.258 Y60.142 E124.17559
G1 X141.001 Y60.134 E124.21266
G1 X141.12 Y60.172 E124.21889
G1 X141.193 Y60.273 E124.22511
G1 X141.203 Y60.341 E124.22854
G1 X141.109 Y63.116 E124.36706
G1 X141.108 Y69.008 E124.66102
G1 X141.069 Y69.127 E124.66726
G1 X140.908 Y69.208 E124.67625
G1 X135.68 Y69.208 E124.93708
G1 X135.68 Y77.228 E125.3372
G1 X140.908 Y77.228 E125.59803
G1 X141.027 Y77.267 E125.60427
G1 X141.108 Y77.428 E125.61327
G1 X141.109 Y86.188 E126.0503
G1 X141.07 Y86.307 E126.05655
G1 X140.909 Y86.388 E126.06554
G1 X135.68 Y86.388 E126.32642
G1 X135.68 Y94.408 E126.72654
G1 X140.908 Y94.408 E126.98736
G1 X141.027 Y94.447 E126.99361
G1 X141.108 Y94.603 E127.00238
G1 X141.203 Y98.192 E127.1815
G1 X141.203 Y98.197 E127.18175
G1 X141.205 Y103.284 E127.43554
G1 X141.166 Y103.403 E127.44179
G1 X141.002 Y103.484 E127.45091
G1 X140.217 Y103.474 E127.49008
G1 X140.198 Y103.473 E127.49103
G1 X131.301 Y102.468 E127.93773
G1 X131.239 Y102.45 E127.94095
G1 X117.488 Y96.059 E128.69746
G1 X100.006 Y94.808 E129.57187
G1 X83.234 Y95.854 E130.41026
G1 X68.702 Y102.467 E131.2068
G1 X68.641 Y102.484 E131.20996
G1 X59.779 Y103.474 E131.65484
G1 X59.759 Y103.475 E131.65584
G1 X58.999 Y103.483 E131.69375
G1 X58.88 Y103.445 E131.69999
G1 X58.807 Y103.344 E131.7062
G1 X58.797 Y103.276 E131.70963
G1 X58.892 Y100.502 E131.84811
G1 X58.892 Y94.608 E132.14216
G1 X58.931 Y94.489 E132.14841
G1 X59.092 Y94.408 E132.1574
G1 X64.32 Y94.408 E132.41823
G1 X64.32 Y86.388 E132.81835
G1 X59.092 Y86.388 E133.07917
G1 X58.973 Y86.349 E133.08542
G1 X58.892 Y86.188 E133.09441
G1 X58.891 Y77.428 E133.53145
G1 X58.93 Y77.309 E133.5377
G1 X59.091 Y77.228 E133.54669
G1 X64.32 Y77.228 E133.80757
G1 X64.32 Y69.208 E134.20769
G1 X59.092 Y69.208 E134.46851
G1 X58.973 Y69.169 E134.47476
G1 X58.892 Y69.013 E134.48353
G1 X58.797 Y65.424 E134.66265
G1 X58.797 Y65.419 E134.6629
G1 X58.795 Y60.333 E134.91664
G1 X58.834 Y60.214 E134.92289
G1 X58.998 Y60.133 E134.93201
G1 X59.788 Y60.143 E134.97143
G1 X59.807 Y60.144 E134.97238
G1 X68.699 Y61.149 E135.41882
G1 X68.761 Y61.167 E135.42205
G1 X82.512 Y67.557 E136.17854
G1 F3600 E135.57854
G0 F3600 X82.632 Y67.1
G0 X83.432 Y51.155
G1 F3600 E136.17854
G1 F1800 X69.033 Y57.707 E136.96778
G1 X68.73 Y57.791 E136.98347
G1 X59.868 Y58.781 E137.42835
G1 X59.768 Y58.787 E137.43335
G1 X59.008 Y58.795 E137.47126
G1 X58.728 Y58.758 E137.48535
G1 X58.47 Y58.645 E137.49941
G1 X58.253 Y58.463 E137.51354
G1 X58.096 Y58.229 E137.5276
G1 X58.011 Y57.96 E137.54167
G1 X57.998 Y57.761 E137.55162
G1 X58.092 Y55.021 E137.6884
G1 X58.092 Y49.12 E137.9828
G1 X58.132 Y48.841 E137.99686
G1 X58.248 Y48.584 E138.01093
G1 X58.431 Y48.369 E138.02502
G1 X58.667 Y48.215 E138.03907
G1 X58.937 Y48.132 E138.05317
G1 X59.092 Y48.12 E138.06092
G1 X63.52 Y48.12 E138.28184
G1 X63.52 Y41.7 E138.60213
G1 X59.092 Y41.7 E138.82305
G1 X58.813 Y41.66 E138.83711
G1 X58.556 Y41.544 E138.85118
G1 X58.341 Y41.361 E138.86526
G1 X58.187 Y41.125 E138.87932
G1 X58.104 Y40.855 E138.89341
G1 X58.092 Y40.7 E138.90117
G1 X58.091 Y31.94 E139.33821
G1 X58.131 Y31.661 E139.35227
G1 X58.247 Y31.404 E139.36634
G1 X58.43 Y31.189 E139.38042
G1 X58.666 Y31.035 E139.39448
G1 X58.936 Y30.952 E139.40857
G1 X59.091 Y30.94 E139.41633
G1 X63.52 Y30.94 E139.63729
