;FLAVOR:Marlin
;TIME:14089
;Filament used: 17.5547m
;Layer height: 0.2
;Generated with Cura_SteamEngine 3.6.0
M140 S85
M105
M190 S85
M104 S245
M105
M109 S245
M82 ;absolute extrusion mode
G21 ;metric values
 G90 ;absolute positioning
 M82 ;set extruder to absolute mode
 M107 ;start with the fan off
 G28 X0 Y0 ;move X/Y to min endstops
 G28 Z0 ;move Z to min endstops
 G1 Z15.0 F{travel_speed} ;move the platform down 15mm
 G92 E0 ;zero the extruded length
 G1 F200 E6 ;extrude 6 mm of feed stock
 G92 E0 ;zero the extruded length again
 G1 F{travel_speed} 
 ;Put printing message on LCD screen
 M117 Printing...
G92 E0
G1 F3600 E-0.6
;LAYER_COUNT:136
;LAYER:0
M107
G0 F3600 X53.298 Y60.115 Z0.3
;TYPE:SKIRT
G1 F3600 E0
G1 F1800 X53.934 Y59.648 E0.03937
G1 X54.614 Y59.247 E0.07875
G1 X55.332 Y58.917 E0.11817
G1 X56.079 Y58.662 E0.15755
G1 X56.848 Y58.483 E0.19694
G1 X57.632 Y58.383 E0.23638
G1 X58.227 Y58.36 E0.26608
G1 X72.993 Y58.36 E1.00276
G1 X73.782 Y58.4 E1.04217
G1 X74.562 Y58.519 E1.08154
G1 X75.327 Y58.717 E1.12096
G1 X76.067 Y58.991 E1.16033
G1 X76.776 Y59.339 E1.19973
G1 X77.447 Y59.757 E1.23918
G1 X78.071 Y60.24 E1.27854
G1 X78.508 Y60.645 E1.30827
G1 X78.625 Y60.762 E1.31652
G1 X79.155 Y61.348 E1.35594
G1 X79.413 Y61.7 E1.37772
G1 X122.802 Y61.7 E3.5424
G1 X123.19 Y61.199 E3.57402
G1 X123.595 Y60.762 E3.60374
G1 X123.712 Y60.645 E3.612
G1 X124.298 Y60.115 E3.65142
G1 X124.934 Y59.648 E3.69078
G1 X125.614 Y59.247 E3.73017
G1 X126.332 Y58.917 E3.76959
G1 X127.079 Y58.662 E3.80897
G1 X127.848 Y58.483 E3.84836
G1 X128.632 Y58.383 E3.88779
G1 X129.227 Y58.36 E3.9175
G1 X143.993 Y58.36 E4.65418
G1 X144.782 Y58.4 E4.69359
G1 X145.562 Y58.519 E4.73296
G1 X146.327 Y58.717 E4.77238
G1 X147.067 Y58.991 E4.81175
G1 X147.776 Y59.339 E4.85115
G1 X148.447 Y59.757 E4.89059
G1 X149.071 Y60.24 E4.92996
G1 X149.508 Y60.645 E4.95968
G1 X149.625 Y60.762 E4.96794
G1 X150.155 Y61.348 E5.00736
G1 X150.622 Y61.984 E5.04672
G1 X151.023 Y62.664 E5.08611
G1 X151.353 Y63.382 E5.12553
G1 X151.608 Y64.129 E5.16491
G1 X151.787 Y64.898 E5.2043
G1 X151.887 Y65.682 E5.24373
G1 X151.91 Y66.277 E5.27344
G1 X151.91 Y81.26 E6.02095
G1 X161.773 Y81.26 E6.51301
G1 X162.562 Y81.3 E6.55243
G1 X163.342 Y81.419 E6.59179
G1 X164.107 Y81.617 E6.63122
G1 X164.847 Y81.891 E6.67058
G1 X165.556 Y82.239 E6.70999
G1 X166.227 Y82.657 E6.74943
G1 X166.851 Y83.14 E6.7888
G1 X167.288 Y83.545 E6.81852
G1 X167.405 Y83.662 E6.82678
G1 X167.935 Y84.248 E6.8662
G1 X168.402 Y84.884 E6.90556
G1 X168.803 Y85.564 E6.94495
G1 X169.133 Y86.282 E6.98437
G1 X169.388 Y87.029 E7.02375
G1 X169.567 Y87.798 E7.06314
G1 X169.667 Y88.582 E7.10257
G1 X169.69 Y89.177 E7.13228
G1 X169.69 Y122.343 E8.78694
G1 X169.65 Y123.132 E8.82635
G1 X169.531 Y123.912 E8.86571
G1 X169.333 Y124.677 E8.90514
G1 X169.059 Y125.417 E8.94451
G1 X168.711 Y126.126 E8.98391
G1 X168.293 Y126.797 E9.02335
G1 X167.81 Y127.421 E9.06272
G1 X167.405 Y127.858 E9.09244
G1 X167.288 Y127.975 E9.1007
G1 X166.702 Y128.505 E9.14012
G1 X166.066 Y128.972 E9.17948
G1 X165.386 Y129.373 E9.21887
G1 X164.668 Y129.703 E9.25829
G1 X163.921 Y129.958 E9.29767
G1 X163.152 Y130.137 E9.33706
G1 X162.368 Y130.237 E9.37649
G1 X161.773 Y130.26 E9.4062
G1 X151.91 Y130.26 E9.89827
G1 X151.91 Y133.723 E10.07104
G1 X151.87 Y134.512 E10.11045
G1 X151.751 Y135.292 E10.14982
G1 X151.553 Y136.057 E10.18924
G1 X151.279 Y136.797 E10.22861
G1 X150.931 Y137.506 E10.26801
G1 X150.513 Y138.177 E10.30745
G1 X150.03 Y138.801 E10.34682
G1 X149.625 Y139.238 E10.37654
G1 X149.508 Y139.355 E10.3848
G1 X148.922 Y139.885 E10.42422
G1 X148.286 Y140.352 E10.46358
G1 X147.606 Y140.753 E10.50297
G1 X146.888 Y141.083 E10.54239
G1 X146.141 Y141.338 E10.58177
G1 X145.372 Y141.517 E10.62116
G1 X144.588 Y141.617 E10.66059
G1 X143.993 Y141.64 E10.6903
G1 X129.227 Y141.64 E11.42698
G1 X128.438 Y141.6 E11.46639
G1 X127.658 Y141.481 E11.50576
G1 X126.893 Y141.283 E11.54518
G1 X126.153 Y141.009 E11.58455
G1 X125.444 Y140.661 E11.62395
G1 X124.773 Y140.243 E11.66339
G1 X124.149 Y139.76 E11.70276
G1 X123.712 Y139.355 E11.73249
G1 X123.595 Y139.238 E11.74074
G1 X123.065 Y138.652 E11.78016
G1 X122.807 Y138.3 E11.80194
G1 X79.418 Y138.3 E13.96662
G1 X79.03 Y138.801 E13.99824
G1 X78.625 Y139.238 E14.02796
G1 X78.508 Y139.355 E14.03622
G1 X77.922 Y139.885 E14.07564
G1 X77.286 Y140.352 E14.115
G1 X76.606 Y140.753 E14.15439
G1 X75.888 Y141.083 E14.19381
G1 X75.141 Y141.338 E14.23319
G1 X74.372 Y141.517 E14.27258
G1 X73.588 Y141.617 E14.31201
G1 X72.993 Y141.64 E14.34172
G1 X58.227 Y141.64 E15.0784
G1 X57.438 Y141.6 E15.11781
G1 X56.658 Y141.481 E15.15717
G1 X55.893 Y141.283 E15.1966
G1 X55.153 Y141.009 E15.23597
G1 X54.444 Y140.661 E15.27537
G1 X53.773 Y140.243 E15.31481
G1 X53.149 Y139.76 E15.35418
G1 X52.712 Y139.355 E15.3839
G1 X52.595 Y139.238 E15.39216
G1 X52.065 Y138.652 E15.43158
G1 X51.806 Y138.299 E15.45342
G1 X43.101 Y138.298 E15.88772
G1 X42.312 Y138.258 E15.92713
G1 X41.551 Y138.142 E15.96553
G1 X39.629 Y137.752 E16.06338
G1 X38.864 Y137.556 E16.10278
G1 X38.123 Y137.284 E16.14216
G1 X37.413 Y136.938 E16.18156
G1 X36.818 Y136.575 E16.21633
G1 X35.202 Y135.485 E16.31358
G1 X34.571 Y135.01 E16.35299
G1 X33.991 Y134.475 E16.39235
G1 X33.467 Y133.883 E16.4318
G1 X33.062 Y133.327 E16.46611
G1 X31.985 Y131.702 E16.56337
G1 X31.583 Y131.023 E16.60274
G1 X31.251 Y130.306 E16.64216
G1 X30.994 Y129.559 E16.68157
G1 X30.836 Y128.908 E16.71499
G1 X30.459 Y127.004 E16.81183
G1 X30.345 Y126.223 E16.85121
G1 X30.31 Y125.488 E16.88792
G1 X30.312 Y107.491 E17.78579
G1 X30.352 Y106.702 E17.82521
G1 X30.468 Y105.941 E17.86361
G1 X30.858 Y104.019 E17.96145
G1 X31.054 Y103.254 E18.00085
G1 X31.326 Y102.513 E18.04023
G1 X31.672 Y101.803 E18.07964
G1 X32.035 Y101.208 E18.11441
G1 X33.125 Y99.592 E18.21166
G1 X33.6 Y98.961 E18.25106
G1 X34.135 Y98.381 E18.29043
G1 X34.727 Y97.857 E18.32987
G1 X35.283 Y97.452 E18.36419
G1 X36.908 Y96.375 E18.46145
G1 X37.587 Y95.973 E18.50082
G1 X38.304 Y95.641 E18.54024
G1 X39.051 Y95.384 E18.57965
G1 X39.702 Y95.226 E18.61307
G1 X41.606 Y94.849 E18.70991
G1 X42.387 Y94.735 E18.74928
G1 X43.121 Y94.7 E18.78594
G1 X50.31 Y94.7 E19.1446
G1 X50.31 Y66.277 E20.56263
G1 X50.35 Y65.488 E20.60205
G1 X50.469 Y64.708 E20.64141
G1 X50.667 Y63.943 E20.68084
G1 X50.941 Y63.203 E20.7202
G1 X51.289 Y62.494 E20.75961
G1 X51.707 Y61.823 E20.79905
G1 X52.19 Y61.199 E20.83842
G1 X52.595 Y60.762 E20.86814
G1 X52.712 Y60.645 E20.8764
G1 X53.298 Y60.115 E20.91582
G0 F3600 X53.566 Y60.413
G1 F1800 X54.188 Y59.96 E20.95421
G1 X54.853 Y59.574 E20.99257
G1 X55.555 Y59.259 E21.03095
G1 X56.286 Y59.019 E21.06934
G1 X57.037 Y58.856 E21.10768
G1 X57.802 Y58.772 E21.14607
G1 X58.227 Y58.76 E21.16729
G1 X72.993 Y58.76 E21.90396
G1 X73.761 Y58.8 E21.94233
G1 X74.521 Y58.919 E21.98071
G1 X75.264 Y59.117 E22.01907
G1 X75.983 Y59.391 E22.05746
G1 X76.669 Y59.738 E22.09581
G1 X77.316 Y60.154 E22.13419
G1 X77.916 Y60.635 E22.17256
G1 X78.226 Y60.927 E22.1938
G1 X78.343 Y61.044 E22.20206
G1 X78.857 Y61.616 E22.24042
G1 X79.209 Y62.1 E22.27028
G1 X123.01 Y62.1 E24.45552
G1 X123.104 Y61.954 E24.46418
G1 X123.585 Y61.354 E24.50255
G1 X123.877 Y61.044 E24.5238
G1 X123.994 Y60.927 E24.53205
G1 X124.566 Y60.413 E24.57042
G1 X125.188 Y59.96 E24.60881
G1 X125.853 Y59.574 E24.64717
G1 X126.555 Y59.259 E24.68556
G1 X127.286 Y59.019 E24.72394
G1 X128.037 Y58.856 E24.76228
G1 X128.802 Y58.772 E24.80068
G1 X129.227 Y58.76 E24.82189
G1 X143.993 Y58.76 E25.55857
G1 X144.761 Y58.8 E25.59693
G1 X145.521 Y58.919 E25.63531
G1 X146.264 Y59.117 E25.67367
G1 X146.983 Y59.391 E25.71206
G1 X147.669 Y59.738 E25.75042
G1 X148.316 Y60.154 E25.78879
G1 X148.916 Y60.635 E25.82716
G1 X149.226 Y60.927 E25.8484
G1 X149.343 Y61.044 E25.85666
G1 X149.857 Y61.616 E25.89502
G1 X150.31 Y62.238 E25.93341
G1 X150.696 Y62.903 E25.97177
G1 X151.011 Y63.605 E26.01016
G1 X151.251 Y64.336 E26.04855
G1 X151.414 Y65.087 E26.08689
G1 X151.498 Y65.852 E26.12528
G1 X151.51 Y66.277 E26.14649
G1 X151.51 Y81.66 E26.91396
G1 X161.773 Y81.66 E27.42598
G1 X162.541 Y81.7 E27.46435
G1 X163.301 Y81.819 E27.50272
G1 X164.044 Y82.017 E27.54109
G1 X164.763 Y82.291 E27.57947
G1 X165.449 Y82.638 E27.61783
G1 X166.096 Y83.054 E27.6562
G1 X166.696 Y83.535 E27.69457
G1 X167.006 Y83.827 E27.71582
G1 X167.123 Y83.944 E27.72407
G1 X167.637 Y84.516 E27.76244
G1 X168.09 Y85.138 E27.80083
G1 X168.476 Y85.803 E27.83919
G1 X168.791 Y86.505 E27.87757
G1 X169.031 Y87.236 E27.91596
G1 X169.194 Y87.987 E27.9543
G1 X169.278 Y88.752 E27.99269
G1 X169.29 Y89.177 E28.01391
G1 X169.29 Y122.343 E29.66857
G1 X169.25 Y123.111 E29.70693
G1 X169.131 Y123.871 E29.74531
G1 X168.933 Y124.614 E29.78367
G1 X168.659 Y125.333 E29.82206
G1 X168.312 Y126.019 E29.86041
G1 X167.896 Y126.666 E29.89879
G1 X167.415 Y127.266 E29.93716
G1 X167.123 Y127.576 E29.9584
G1 X167.006 Y127.693 E29.96666
G1 X166.434 Y128.207 E30.00502
G1 X165.812 Y128.66 E30.04341
G1 X165.147 Y129.046 E30.08177
G1 X164.445 Y129.361 E30.12016
G1 X163.714 Y129.601 E30.15855
G1 X162.963 Y129.764 E30.19689
G1 X162.198 Y129.848 E30.23528
G1 X161.773 Y129.86 E30.25649
G1 X151.51 Y129.86 E30.76852
G1 X151.51 Y133.723 E30.96124
G1 X151.47 Y134.491 E30.99961
G1 X151.351 Y135.251 E31.03799
G1 X151.153 Y135.994 E31.07635
G1 X150.879 Y136.713 E31.11474
G1 X150.532 Y137.399 E31.15309
G1 X150.116 Y138.046 E31.19147
G1 X149.635 Y138.646 E31.22983
G1 X149.343 Y138.956 E31.25108
G1 X149.226 Y139.073 E31.25933
G1 X148.654 Y139.587 E31.2977
G1 X148.032 Y140.04 E31.33609
G1 X147.367 Y140.426 E31.37445
G1 X146.665 Y140.741 E31.41284
G1 X145.934 Y140.981 E31.45122
G1 X145.183 Y141.144 E31.48956
G1 X144.418 Y141.228 E31.52796
G1 X143.993 Y141.24 E31.54917
G1 X129.227 Y141.24 E32.28585
G1 X128.459 Y141.2 E32.32422
G1 X127.699 Y141.081 E32.3626
G1 X126.956 Y140.883 E32.40096
G1 X126.237 Y140.609 E32.43934
G1 X125.551 Y140.262 E32.4777
G1 X124.904 Y139.846 E32.51607
G1 X124.304 Y139.365 E32.55444
G1 X123.994 Y139.073 E32.57569
G1 X123.877 Y138.956 E32.58394
G1 X123.363 Y138.384 E32.62231
G1 X123.011 Y137.9 E32.65217
G1 X79.21 Y137.9 E34.83741
G1 X79.116 Y138.046 E34.84607
G1 X78.635 Y138.646 E34.88443
G1 X78.343 Y138.956 E34.90568
G1 X78.226 Y139.073 E34.91394
G1 X77.654 Y139.587 E34.9523
G1 X77.032 Y140.04 E34.99069
G1 X76.367 Y140.426 E35.02905
G1 X75.665 Y140.741 E35.06744
G1 X74.934 Y140.981 E35.10583
G1 X74.183 Y141.144 E35.14417
G1 X73.418 Y141.228 E35.18256
G1 X72.993 Y141.24 E35.20377
G1 X58.227 Y141.24 E35.94045
G1 X57.459 Y141.2 E35.97882
G1 X56.699 Y141.081 E36.0172
G1 X55.956 Y140.883 E36.05556
G1 X55.237 Y140.609 E36.09395
G1 X54.551 Y140.262 E36.1323
G1 X53.904 Y139.846 E36.17068
G1 X53.304 Y139.365 E36.20904
G1 X52.994 Y139.073 E36.23029
G1 X52.877 Y138.956 E36.23854
G1 X52.363 Y138.384 E36.27691
G1 X52.01 Y137.899 E36.30684
G1 X43.101 Y137.898 E36.75131
G1 X42.333 Y137.858 E36.78968
G1 X41.63 Y137.75 E36.82516
G1 X39.708 Y137.36 E36.923
G1 X38.964 Y137.168 E36.96134
G1 X38.243 Y136.9 E36.99971
G1 X37.554 Y136.559 E37.03807
G1 X37.042 Y136.243 E37.06808
G1 X35.426 Y135.153 E37.16533
G1 X34.812 Y134.69 E37.2037
G1 X34.248 Y134.166 E37.24211
G1 X33.743 Y133.587 E37.28044
G1 X33.396 Y133.106 E37.31003
G1 X32.319 Y131.481 E37.40729
G1 X31.928 Y130.819 E37.44565
G1 X31.608 Y130.119 E37.48404
G1 X31.362 Y129.391 E37.52238
G1 X31.228 Y128.83 E37.55116
G1 X30.851 Y126.926 E37.64799
G1 X30.741 Y126.165 E37.68635
G1 X30.71 Y125.488 E37.72017
G1 X30.712 Y107.491 E38.61804
G1 X30.752 Y106.723 E38.65641
G1 X30.86 Y106.02 E38.69189
G1 X31.25 Y104.098 E38.78973
G1 X31.442 Y103.354 E38.82807
G1 X31.71 Y102.633 E38.86644
G1 X32.051 Y101.944 E38.9048
G1 X32.367 Y101.432 E38.93482
G1 X33.457 Y99.816 E39.03206
G1 X33.92 Y99.202 E39.07043
G1 X34.444 Y98.638 E39.10884
G1 X35.023 Y98.133 E39.14717
G1 X35.504 Y97.786 E39.17676
G1 X37.129 Y96.709 E39.27402
G1 X37.791 Y96.318 E39.31238
G1 X38.491 Y95.998 E39.35078
G1 X39.219 Y95.752 E39.38911
G1 X39.78 Y95.618 E39.41789
G1 X41.684 Y95.241 E39.51472
G1 X42.445 Y95.131 E39.55308
G1 X43.121 Y95.1 E39.58685
G1 X50.71 Y95.1 E39.96546
G1 X50.71 Y66.277 E41.40345
G1 X50.75 Y65.509 E41.44182
G1 X50.869 Y64.749 E41.48019
G1 X51.067 Y64.006 E41.51856
G1 X51.341 Y63.287 E41.55694
G1 X51.688 Y62.601 E41.5953
G1 X52.104 Y61.954 E41.63367
G1 X52.585 Y61.354 E41.67204
G1 X52.877 Y61.044 E41.69329
G1 X52.994 Y60.927 E41.70154
G1 X53.566 Y60.413 E41.73991
G0 F3600 X53.834 Y60.71
G1 F1800 X54.44 Y60.273 E41.77718
G1 X55.09 Y59.902 E41.81452
G1 X55.776 Y59.603 E41.85185
G1 X56.49 Y59.379 E41.88919
G1 X57.223 Y59.232 E41.92649
G1 X58.227 Y59.16 E41.9767
G1 X72.993 Y59.16 E42.71338
G1 X73.74 Y59.2 E42.7507
G1 X74.478 Y59.319 E42.788
G1 X75.2 Y59.517 E42.82535
G1 X75.896 Y59.79 E42.86265
G1 X76.559 Y60.137 E42.89998
G1 X77.182 Y60.552 E42.93733
G1 X77.943 Y61.21 E42.98752
G1 X78.06 Y61.327 E42.99577
G1 X78.56 Y61.884 E43.03312
G1 X78.997 Y62.49 E43.07039
G1 X79.003 Y62.5 E43.07097
G1 X123.228 Y62.5 E45.27737
G1 X123.502 Y62.088 E45.30205
G1 X124.16 Y61.327 E45.35224
G1 X124.277 Y61.21 E45.3605
G1 X124.834 Y60.71 E45.39784
G1 X125.44 Y60.273 E45.43512
G1 X126.09 Y59.902 E45.47245
G1 X126.776 Y59.603 E45.50979
G1 X127.49 Y59.379 E45.54712
G1 X128.223 Y59.232 E45.58442
G1 X129.227 Y59.16 E45.63464
G1 X143.993 Y59.16 E46.37132
G1 X144.74 Y59.2 E46.40864
G1 X145.478 Y59.319 E46.44593
G1 X146.2 Y59.517 E46.48328
G1 X146.896 Y59.79 E46.52058
G1 X147.559 Y60.137 E46.55792
G1 X148.182 Y60.552 E46.59526
G1 X148.943 Y61.21 E46.64545
G1 X149.06 Y61.327 E46.65371
G1 X149.56 Y61.884 E46.69105
G1 X149.997 Y62.49 E46.72833
G1 X150.368 Y63.14 E46.76567
G1 X150.667 Y63.826 E46.803
G1 X150.891 Y64.54 E46.84033
G1 X151.038 Y65.273 E46.87763
G1 X151.11 Y66.277 E46.92785
G1 X151.11 Y82.06 E47.71527
G1 X161.773 Y82.06 E48.24725
G1 X162.52 Y82.1 E48.28457
G1 X163.258 Y82.219 E48.32186
G1 X163.98 Y82.417 E48.35921
G1 X164.676 Y82.69 E48.39651
G1 X165.339 Y83.037 E48.43384
G1 X165.962 Y83.452 E48.47119
G1 X166.723 Y84.11 E48.52138
G1 X166.84 Y84.227 E48.52964
G1 X167.34 Y84.784 E48.56698
G1 X167.777 Y85.39 E48.60425
G1 X168.148 Y86.04 E48.64159
G1 X168.447 Y86.726 E48.67893
G1 X168.671 Y87.44 E48.71626
G1 X168.818 Y88.173 E48.75356
G1 X168.89 Y89.177 E48.80378
G1 X168.89 Y122.343 E50.45844
G1 X168.85 Y123.09 E50.49576
G1 X168.731 Y123.828 E50.53305
G1 X168.533 Y124.55 E50.5704
G1 X168.26 Y125.246 E50.6077
G1 X167.913 Y125.909 E50.64503
G1 X167.498 Y126.532 E50.68238
G1 X166.84 Y127.293 E50.73257
G1 X166.723 Y127.41 E50.74083
G1 X166.166 Y127.91 E50.77817
G1 X165.56 Y128.347 E50.81544
G1 X164.91 Y128.718 E50.85278
G1 X164.224 Y129.017 E50.89012
G1 X163.51 Y129.241 E50.92745
G1 X162.777 Y129.388 E50.96475
G1 X161.773 Y129.46 E51.01497
G1 X151.11 Y129.46 E51.54695
G1 X151.11 Y133.723 E51.75963
G1 X151.07 Y134.47 E51.79695
G1 X150.951 Y135.208 E51.83424
G1 X150.753 Y135.93 E51.87159
G1 X150.48 Y136.626 E51.90889
G1 X150.133 Y137.289 E51.94623
G1 X149.718 Y137.912 E51.98357
G1 X149.06 Y138.673 E52.03376
G1 X148.943 Y138.79 E52.04202
G1 X148.386 Y139.29 E52.07936
G1 X147.78 Y139.727 E52.11664
G1 X147.13 Y140.098 E52.15398
G1 X146.444 Y140.397 E52.19131
G1 X145.73 Y140.621 E52.22864
G1 X144.997 Y140.768 E52.26594
G1 X143.993 Y140.84 E52.31616
G1 X129.227 Y140.84 E53.05284
G1 X128.48 Y140.8 E53.09016
G1 X127.742 Y140.681 E53.12745
G1 X127.02 Y140.483 E53.16481
G1 X126.324 Y140.21 E53.2021
G1 X125.661 Y139.863 E53.23944
G1 X125.038 Y139.448 E53.27678
G1 X124.277 Y138.79 E53.32698
G1 X124.16 Y138.673 E53.33523
G1 X123.66 Y138.116 E53.37257
G1 X123.223 Y137.51 E53.40985
G1 X123.217 Y137.5 E53.41043
G1 X78.992 Y137.5 E55.61682
G1 X78.718 Y137.912 E55.64151
G1 X78.06 Y138.673 E55.6917
G1 X77.943 Y138.79 E55.69995
G1 X77.386 Y139.29 E55.7373
G1 X76.78 Y139.727 E55.77457
G1 X76.13 Y140.098 E55.81191
G1 X75.444 Y140.397 E55.84925
G1 X74.73 Y140.621 E55.88658
G1 X73.997 Y140.768 E55.92388
G1 X72.993 Y140.84 E55.97409
G1 X58.227 Y140.84 E56.71077
G1 X57.48 Y140.8 E56.74809
G1 X56.742 Y140.681 E56.78539
G1 X56.02 Y140.483 E56.82274
G1 X55.324 Y140.21 E56.86004
G1 X54.661 Y139.863 E56.89737
G1 X54.038 Y139.448 E56.93472
G1 X53.277 Y138.79 E56.98491
